(FLAT PATTERN - 90 DEG FOLDED ALUMINUM POSCON)
(T1  D=0.794 CR=0. - ZMIN=-1.1 - FLAT END MILL)
N10 G90 G94 G91.1 G40 G49 G17
N15 G21

(INSIDE CONTOURS)
N20 M5
N25 M9
N30 T1 M6
N35 S10500 M3
N40 G54
N45 M8
N55 G0 X-14.525 Y-6.077
N60 G43 Z7. H1
N65 Z1.23
N70 G1 Z-0.23 F10.
N75 X11.603 F50.
N80 Y6.08
N85 X-20.603
N90 Y-6.077
N95 X-14.525
N100 Z-0.46 F10.
N105 X11.603 F50.
N110 Y6.08
N115 X-20.603
N120 Y-6.077
N125 X-14.525
N130 Z-0.69 F10.
N135 X11.603 F50.
N140 Y6.08
N145 X-20.603
N150 Y-6.077
N155 X-14.525
N160 Z-0.92 F10.
N165 X11.603 F50.
N170 Y6.08
N175 X-20.603
N180 Y-6.077
N185 X-14.525
N190 Z-1.1 F10.
N195 X11.603 F50.
N200 Y6.08
N205 X-20.603
N210 Y-6.077
N215 X-14.525
N220 G0 Z2.
N225 X-11.853 Y-12.656
N230 Z1.23
N235 G1 Z-0.23 F10.
N240 G3 X-15.059 R1.603 F50.
N245 X-11.853 R1.603
N250 G1 Z-0.46 F10.
N255 G3 X-15.059 R1.603 F50.
N260 X-11.853 R1.603
N265 G1 Z-0.69 F10.
N270 G3 X-15.059 R1.603 F50.
N275 X-11.853 R1.603
N280 G1 Z-0.92 F10.
N285 G3 X-15.059 R1.603 F50.
N290 X-11.853 R1.603
N295 G1 Z-1.1 F10.
N300 G3 X-15.059 R1.603 F50.
N305 X-11.853 R1.603
N310 G0 Z2.
N315 X-7.814 Y-18.091
N320 Z1.23
N325 G1 Z-0.23 F10.
N330 G3 X-8.982 Y-20.131 R3.003 F50.
N335 G2 X-9.376 Y-20.481 R0.397
N340 G1 X-18.124
N345 G2 X-18.518 Y-20.131 R0.397
N350 G3 X-21.5 Y-17.481 R3.003
N355 G2 X-22.943 Y-16.381 R1.497
N360 G1 X-22.95
N365 G3 X-21.5 Y-17.488 R1.503
N370 G2 Y-23.481 R2.997
N375 G3 X-22.95 Y-24.588 R1.503
N380 G1 X-22.943
N385 G2 X-21.5 Y-23.488 R1.497
N390 G3 X-18.518 Y-20.838 R3.003
N395 G2 X-18.124 Y-20.488 R0.397
N400 G1 X-9.376
N405 G2 X-8.982 Y-20.838 R0.397
N410 G3 X-8.979 Y-20.863 R3.003
N415 X-6. Y-23.488 R3.003
N420 G2 X-4.557 Y-24.588 R1.497
N425 G1 X-4.55
N430 G3 X-6. Y-23.481 R1.503
N435 G2 Y-17.488 R2.997
N440 G3 X-4.55 Y-16.381 R1.503
N445 G1 X-4.557
N450 G2 X-6. Y-17.481 R1.497
N455 G3 X-7.814 Y-18.091 R3.003
N460 G1 Z-0.46 F10.
N465 G3 X-8.982 Y-20.131 R3.003 F50.
N470 G2 X-9.376 Y-20.481 R0.397
N475 G1 X-18.124
N480 G2 X-18.518 Y-20.131 R0.397
N485 G3 X-21.5 Y-17.481 R3.003
N490 G2 X-22.943 Y-16.381 R1.497
N495 G1 X-22.95
N500 G3 X-21.5 Y-17.488 R1.503
N505 G2 Y-23.481 R2.997
N510 G3 X-22.95 Y-24.588 R1.503
N515 G1 X-22.943
N520 G2 X-21.5 Y-23.488 R1.497
N525 G3 X-18.518 Y-20.838 R3.003
N530 G2 X-18.124 Y-20.488 R0.397
N535 G1 X-9.376
N540 G2 X-8.982 Y-20.838 R0.397
N545 G3 X-8.979 Y-20.863 R3.003
N550 X-6. Y-23.488 R3.003
N555 G2 X-4.557 Y-24.588 R1.497
N560 G1 X-4.55
N565 G3 X-6. Y-23.481 R1.503
N570 G2 Y-17.488 R2.997
N575 G3 X-4.55 Y-16.381 R1.503
N580 G1 X-4.557
N585 G2 X-6. Y-17.481 R1.497
N590 G3 X-7.814 Y-18.091 R3.003
N595 G1 Z-0.69 F10.
N600 G3 X-8.982 Y-20.131 R3.003 F50.
N605 G2 X-9.376 Y-20.481 R0.397
N610 G1 X-18.124
N615 G2 X-18.518 Y-20.131 R0.397
N620 G3 X-21.5 Y-17.481 R3.003
N625 G2 X-22.943 Y-16.381 R1.497
N630 G1 X-22.95
N635 G3 X-21.5 Y-17.488 R1.503
N640 G2 Y-23.481 R2.997
N645 G3 X-22.95 Y-24.588 R1.503
N650 G1 X-22.943
N655 G2 X-21.5 Y-23.488 R1.497
N660 G3 X-18.518 Y-20.838 R3.003
N665 G2 X-18.124 Y-20.488 R0.397
N670 G1 X-9.376
N675 G2 X-8.982 Y-20.838 R0.397
N680 G3 X-8.979 Y-20.863 R3.003
N685 X-6. Y-23.488 R3.003
N690 G2 X-4.557 Y-24.588 R1.497
N695 G1 X-4.55
N700 G3 X-6. Y-23.481 R1.503
N705 G2 Y-17.488 R2.997
N710 G3 X-4.55 Y-16.381 R1.503
N715 G1 X-4.557
N720 G2 X-6. Y-17.481 R1.497
N725 G3 X-7.814 Y-18.091 R3.003
N730 G1 Z-0.92 F10.
N735 G3 X-8.982 Y-20.131 R3.003 F50.
N740 G2 X-9.376 Y-20.481 R0.397
N745 G1 X-18.124
N750 G2 X-18.518 Y-20.131 R0.397
N755 G3 X-21.5 Y-17.481 R3.003
N760 G2 X-22.943 Y-16.381 R1.497
N765 G1 X-22.95
N770 G3 X-21.5 Y-17.488 R1.503
N775 G2 Y-23.481 R2.997
N780 G3 X-22.95 Y-24.588 R1.503
N785 G1 X-22.943
N790 G2 X-21.5 Y-23.488 R1.497
N795 G3 X-18.518 Y-20.838 R3.003
N800 G2 X-18.124 Y-20.488 R0.397
N805 G1 X-9.376
N810 G2 X-8.982 Y-20.838 R0.397
N815 G3 X-8.979 Y-20.863 R3.003
N820 X-6. Y-23.488 R3.003
N825 G2 X-4.557 Y-24.588 R1.497
N830 G1 X-4.55
N835 G3 X-6. Y-23.481 R1.503
N840 G2 Y-17.488 R2.997
N845 G3 X-4.55 Y-16.381 R1.503
N850 G1 X-4.557
N855 G2 X-6. Y-17.481 R1.497
N860 G3 X-7.814 Y-18.091 R3.003
N865 G1 Z-1.1 F10.
N870 G3 X-8.982 Y-20.131 R3.003 F50.
N875 G2 X-9.376 Y-20.481 R0.397
N880 G1 X-18.124
N885 G2 X-18.518 Y-20.131 R0.397
N890 G3 X-21.5 Y-17.481 R3.003
N895 G2 X-22.943 Y-16.381 R1.497
N900 G1 X-22.95
N905 G3 X-21.5 Y-17.488 R1.503
N910 G2 Y-23.481 R2.997
N915 G3 X-22.95 Y-24.588 R1.503
N920 G1 X-22.943
N925 G2 X-21.5 Y-23.488 R1.497
N930 G3 X-18.518 Y-20.838 R3.003
N935 G2 X-18.124 Y-20.488 R0.397
N940 G1 X-9.376
N945 G2 X-8.982 Y-20.838 R0.397
N950 G3 X-8.979 Y-20.863 R3.003
N955 X-6. Y-23.488 R3.003
N960 G2 X-4.557 Y-24.588 R1.497
N965 G1 X-4.55
N970 G3 X-6. Y-23.481 R1.503
N975 G2 Y-17.488 R2.997
N980 G3 X-4.55 Y-16.381 R1.503
N985 G1 X-4.557
N990 G2 X-6. Y-17.481 R1.497
N995 G3 X-7.814 Y-18.091 R3.003
N1000 G0 Z2.
N1005 X5.603 Y-20.485
N1010 Z1.23
N1015 G1 Z-0.23 F10.
N1020 Y-20.481 F50.
N1025 X-5.603
N1030 Y-20.488
N1035 X5.603
N1040 Y-20.485
N1045 Z-0.46 F10.
N1050 Y-20.481 F50.
N1055 X-5.603
N1060 Y-20.488
N1065 X5.603
N1070 Y-20.485
N1075 Z-0.69 F10.
N1080 Y-20.481 F50.
N1085 X-5.603
N1090 Y-20.488
N1095 X5.603
N1100 Y-20.485
N1105 Z-0.92 F10.
N1110 Y-20.481 F50.
N1115 X-5.603
N1120 Y-20.488
N1125 X5.603
N1130 Y-20.485
N1135 Z-1.1 F10.
N1140 Y-20.481 F50.
N1145 X-5.603
N1150 Y-20.488
N1155 X5.603
N1160 Y-20.485
N1165 G0 Z2.
N1170 X5.879 Y-17.483
N1175 Z1.23
N1180 G1 Z-0.23 F10.
N1185 G3 X6. Y-17.488 R1.503 F50.
N1190 G2 Y-23.481 R2.997
N1195 G3 X4.55 Y-24.588 R1.503
N1200 G1 X4.557
N1205 G2 X6. Y-23.488 R1.497
N1210 G3 X8.982 Y-20.838 R3.003
N1215 G2 X9.376 Y-20.488 R0.397
N1220 G1 X18.124
N1225 G2 X18.518 Y-20.838 R0.397
N1230 G3 X21.5 Y-23.488 R3.003
N1235 G2 X22.943 Y-24.588 R1.497
N1240 G1 X22.95
N1245 G3 X21.5 Y-23.481 R1.503
N1250 G2 Y-17.488 R2.997
N1255 G3 X22.95 Y-16.381 R1.503
N1260 G1 X22.943
N1265 G2 X21.5 Y-17.481 R1.497
N1270 G3 X18.518 Y-20.131 R3.003
N1275 G2 X18.124 Y-20.481 R0.397
N1280 G1 X9.376
N1285 G2 X8.982 Y-20.131 R0.397
N1290 G3 X6. Y-17.481 R3.003
N1295 G2 X4.557 Y-16.381 R1.497
N1300 G1 X4.55
N1305 G3 X5.879 Y-17.483 R1.503
N1310 G1 Z-0.46 F10.
N1315 G3 X6. Y-17.488 R1.503 F50.
N1320 G2 Y-23.481 R2.997
N1325 G3 X4.55 Y-24.588 R1.503
N1330 G1 X4.557
N1335 G2 X6. Y-23.488 R1.497
N1340 G3 X8.982 Y-20.838 R3.003
N1345 G2 X9.376 Y-20.488 R0.397
N1350 G1 X18.124
N1355 G2 X18.518 Y-20.838 R0.397
N1360 G3 X21.5 Y-23.488 R3.003
N1365 G2 X22.943 Y-24.588 R1.497
N1370 G1 X22.95
N1375 G3 X21.5 Y-23.481 R1.503
N1380 G2 Y-17.488 R2.997
N1385 G3 X22.95 Y-16.381 R1.503
N1390 G1 X22.943
N1395 G2 X21.5 Y-17.481 R1.497
N1400 G3 X18.518 Y-20.131 R3.003
N1405 G2 X18.124 Y-20.481 R0.397
N1410 G1 X9.376
N1415 G2 X8.982 Y-20.131 R0.397
N1420 G3 X6. Y-17.481 R3.003
N1425 G2 X4.557 Y-16.381 R1.497
N1430 G1 X4.55
N1435 G3 X5.879 Y-17.483 R1.503
N1440 G1 Z-0.69 F10.
N1445 G3 X6. Y-17.488 R1.503 F50.
N1450 G2 Y-23.481 R2.997
N1455 G3 X4.55 Y-24.588 R1.503
N1460 G1 X4.557
N1465 G2 X6. Y-23.488 R1.497
N1470 G3 X8.982 Y-20.838 R3.003
N1475 G2 X9.376 Y-20.488 R0.397
N1480 G1 X18.124
N1485 G2 X18.518 Y-20.838 R0.397
N1490 G3 X21.5 Y-23.488 R3.003
N1495 G2 X22.943 Y-24.588 R1.497
N1500 G1 X22.95
N1505 G3 X21.5 Y-23.481 R1.503
N1510 G2 Y-17.488 R2.997
N1515 G3 X22.95 Y-16.381 R1.503
N1520 G1 X22.943
N1525 G2 X21.5 Y-17.481 R1.497
N1530 G3 X18.518 Y-20.131 R3.003
N1535 G2 X18.124 Y-20.481 R0.397
N1540 G1 X9.376
N1545 G2 X8.982 Y-20.131 R0.397
N1550 G3 X6. Y-17.481 R3.003
N1555 G2 X4.557 Y-16.381 R1.497
N1560 G1 X4.55
N1565 G3 X5.879 Y-17.483 R1.503
N1570 G1 Z-0.92 F10.
N1575 G3 X6. Y-17.488 R1.503 F50.
N1580 G2 Y-23.481 R2.997
N1585 G3 X4.55 Y-24.588 R1.503
N1590 G1 X4.557
N1595 G2 X6. Y-23.488 R1.497
N1600 G3 X8.982 Y-20.838 R3.003
N1605 G2 X9.376 Y-20.488 R0.397
N1610 G1 X18.124
N1615 G2 X18.518 Y-20.838 R0.397
N1620 G3 X21.5 Y-23.488 R3.003
N1625 G2 X22.943 Y-24.588 R1.497
N1630 G1 X22.95
N1635 G3 X21.5 Y-23.481 R1.503
N1640 G2 Y-17.488 R2.997
N1645 G3 X22.95 Y-16.381 R1.503
N1650 G1 X22.943
N1655 G2 X21.5 Y-17.481 R1.497
N1660 G3 X18.518 Y-20.131 R3.003
N1665 G2 X18.124 Y-20.481 R0.397
N1670 G1 X9.376
N1675 G2 X8.982 Y-20.131 R0.397
N1680 G3 X6. Y-17.481 R3.003
N1685 G2 X4.557 Y-16.381 R1.497
N1690 G1 X4.55
N1695 G3 X5.879 Y-17.483 R1.503
N1700 G1 Z-1.1 F10.
N1705 G3 X6. Y-17.488 R1.503 F50.
N1710 G2 Y-23.481 R2.997
N1715 G3 X4.55 Y-24.588 R1.503
N1720 G1 X4.557
N1725 G2 X6. Y-23.488 R1.497
N1730 G3 X8.982 Y-20.838 R3.003
N1735 G2 X9.376 Y-20.488 R0.397
N1740 G1 X18.124
N1745 G2 X18.518 Y-20.838 R0.397
N1750 G3 X21.5 Y-23.488 R3.003
N1755 G2 X22.943 Y-24.588 R1.497
N1760 G1 X22.95
N1765 G3 X21.5 Y-23.481 R1.503
N1770 G2 Y-17.488 R2.997
N1775 G3 X22.95 Y-16.381 R1.503
N1780 G1 X22.943
N1785 G2 X21.5 Y-17.481 R1.497
N1790 G3 X18.518 Y-20.131 R3.003
N1795 G2 X18.124 Y-20.481 R0.397
N1800 G1 X9.376
N1805 G2 X8.982 Y-20.131 R0.397
N1810 G3 X6. Y-17.481 R3.003
N1815 G2 X4.557 Y-16.381 R1.497
N1820 G1 X4.55
N1825 G3 X5.879 Y-17.483 R1.503
N1830 G0 Z2.
N1835 X26.531 Y-13.007
N1840 Z1.23
N1845 G1 Z-0.23 F10.
N1850 G3 X27.588 Y-11.5 R1.603 F50.
N1855 G2 X33.381 R2.897
N1860 G3 X34.588 Y-13.053 R1.603
N1865 G1 Y-12.839
N1870 G2 X33.588 Y-11.5 R1.397
N1875 G3 X30.928 Y-8.429 R3.103
N1880 G2 X30.588 Y-8.036 R0.397
N1885 G1 Y8.036
N1890 G2 X30.928 Y8.429 R0.397
N1895 G3 X33.588 Y11.5 R3.103
N1900 G2 X34.588 Y12.839 R1.397
N1905 G1 Y13.053
N1910 G3 X34.419 Y13. R1.603
N1915 X33.381 Y11.5 R1.603
N1920 G2 X27.588 R2.897
N1925 G3 X26.381 Y13.053 R1.603
N1930 G1 Y12.839
N1935 G2 X27.381 Y11.5 R1.397
N1940 G3 X30.041 Y8.429 R3.103
N1945 G2 X30.381 Y8.036 R0.397
N1950 G1 Y-8.036
N1955 G2 X30.041 Y-8.429 R0.397
N1960 G3 X27.381 Y-11.5 R3.103
N1965 G2 X26.381 Y-12.839 R1.397
N1970 G1 Y-13.053
N1975 G3 X26.531 Y-13.007 R1.603
N1980 G1 Z-0.46 F10.
N1985 G3 X27.588 Y-11.5 R1.603 F50.
N1990 G2 X33.381 R2.897
N1995 G3 X34.588 Y-13.053 R1.603
N2000 G1 Y-12.839
N2005 G2 X33.588 Y-11.5 R1.397
N2010 G3 X30.928 Y-8.429 R3.103
N2015 G2 X30.588 Y-8.036 R0.397
N2020 G1 Y8.036
N2025 G2 X30.928 Y8.429 R0.397
N2030 G3 X33.588 Y11.5 R3.103
N2035 G2 X34.588 Y12.839 R1.397
N2040 G1 Y13.053
N2045 G3 X34.419 Y13. R1.603
N2050 X33.381 Y11.5 R1.603
N2055 G2 X27.588 R2.897
N2060 G3 X26.381 Y13.053 R1.603
N2065 G1 Y12.839
N2070 G2 X27.381 Y11.5 R1.397
N2075 G3 X30.041 Y8.429 R3.103
N2080 G2 X30.381 Y8.036 R0.397
N2085 G1 Y-8.036
N2090 G2 X30.041 Y-8.429 R0.397
N2095 G3 X27.381 Y-11.5 R3.103
N2100 G2 X26.381 Y-12.839 R1.397
N2105 G1 Y-13.053
N2110 G3 X26.531 Y-13.007 R1.603
N2115 G1 Z-0.69 F10.
N2120 G3 X27.588 Y-11.5 R1.603 F50.
N2125 G2 X33.381 R2.897
N2130 G3 X34.588 Y-13.053 R1.603
N2135 G1 Y-12.839
N2140 G2 X33.588 Y-11.5 R1.397
N2145 G3 X30.928 Y-8.429 R3.103
N2150 G2 X30.588 Y-8.036 R0.397
N2155 G1 Y8.036
N2160 G2 X30.928 Y8.429 R0.397
N2165 G3 X33.588 Y11.5 R3.103
N2170 G2 X34.588 Y12.839 R1.397
N2175 G1 Y13.053
N2180 G3 X34.419 Y13. R1.603
N2185 X33.381 Y11.5 R1.603
N2190 G2 X27.588 R2.897
N2195 G3 X26.381 Y13.053 R1.603
N2200 G1 Y12.839
N2205 G2 X27.381 Y11.5 R1.397
N2210 G3 X30.041 Y8.429 R3.103
N2215 G2 X30.381 Y8.036 R0.397
N2220 G1 Y-8.036
N2225 G2 X30.041 Y-8.429 R0.397
N2230 G3 X27.381 Y-11.5 R3.103
N2235 G2 X26.381 Y-12.839 R1.397
N2240 G1 Y-13.053
N2245 G3 X26.531 Y-13.007 R1.603
N2250 G1 Z-0.92 F10.
N2255 G3 X27.588 Y-11.5 R1.603 F50.
N2260 G2 X33.381 R2.897
N2265 G3 X34.588 Y-13.053 R1.603
N2270 G1 Y-12.839
N2275 G2 X33.588 Y-11.5 R1.397
N2280 G3 X30.928 Y-8.429 R3.103
N2285 G2 X30.588 Y-8.036 R0.397
N2290 G1 Y8.036
N2295 G2 X30.928 Y8.429 R0.397
N2300 G3 X33.588 Y11.5 R3.103
N2305 G2 X34.588 Y12.839 R1.397
N2310 G1 Y13.053
N2315 G3 X34.419 Y13. R1.603
N2320 X33.381 Y11.5 R1.603
N2325 G2 X27.588 R2.897
N2330 G3 X26.381 Y13.053 R1.603
N2335 G1 Y12.839
N2340 G2 X27.381 Y11.5 R1.397
N2345 G3 X30.041 Y8.429 R3.103
N2350 G2 X30.381 Y8.036 R0.397
N2355 G1 Y-8.036
N2360 G2 X30.041 Y-8.429 R0.397
N2365 G3 X27.381 Y-11.5 R3.103
N2370 G2 X26.381 Y-12.839 R1.397
N2375 G1 Y-13.053
N2380 G3 X26.531 Y-13.007 R1.603
N2385 G1 Z-1.1 F10.
N2390 G3 X27.588 Y-11.5 R1.603 F50.
N2395 G2 X33.381 R2.897
N2400 G3 X34.588 Y-13.053 R1.603
N2405 G1 Y-12.839
N2410 G2 X33.588 Y-11.5 R1.397
N2415 G3 X30.928 Y-8.429 R3.103
N2420 G2 X30.588 Y-8.036 R0.397
N2425 G1 Y8.036
N2430 G2 X30.928 Y8.429 R0.397
N2435 G3 X33.588 Y11.5 R3.103
N2440 G2 X34.588 Y12.839 R1.397
N2445 G1 Y13.053
N2450 G3 X34.419 Y13. R1.603
N2455 X33.381 Y11.5 R1.603
N2460 G2 X27.588 R2.897
N2465 G3 X26.381 Y13.053 R1.603
N2470 G1 Y12.839
N2475 G2 X27.381 Y11.5 R1.397
N2480 G3 X30.041 Y8.429 R3.103
N2485 G2 X30.381 Y8.036 R0.397
N2490 G1 Y-8.036
N2495 G2 X30.041 Y-8.429 R0.397
N2500 G3 X27.381 Y-11.5 R3.103
N2505 G2 X26.381 Y-12.839 R1.397
N2510 G1 Y-13.053
N2515 G3 X26.531 Y-13.007 R1.603
N2520 G0 Z2.
N2525 X47.639 Y1.892
N2530 Z1.23
N2535 G1 Z-0.23 F10.
N2540 Y7.392 F50.
N2545 G3 X47.536 Y7.495 R0.103
N2550 G1 X36.536
N2555 G3 X36.433 Y7.392 R0.103
N2560 G1 Y-7.348
N2565 G3 X36.536 Y-7.451 R0.103
N2570 G1 X47.536
N2575 G3 X47.639 Y-7.348 R0.103
N2580 G1 Y1.892
N2585 Z-0.46 F10.
N2590 Y7.392 F50.
N2595 G3 X47.536 Y7.495 R0.103
N2600 G1 X36.536
N2605 G3 X36.433 Y7.392 R0.103
N2610 G1 Y-7.348
N2615 G3 X36.536 Y-7.451 R0.103
N2620 G1 X47.536
N2625 G3 X47.639 Y-7.348 R0.103
N2630 G1 Y1.892
N2635 Z-0.69 F10.
N2640 Y7.392 F50.
N2645 G3 X47.536 Y7.495 R0.103
N2650 G1 X36.536
N2655 G3 X36.433 Y7.392 R0.103
N2660 G1 Y-7.348
N2665 G3 X36.536 Y-7.451 R0.103
N2670 G1 X47.536
N2675 G3 X47.639 Y-7.348 R0.103
N2680 G1 Y1.892
N2685 Z-0.92 F10.
N2690 Y7.392 F50.
N2695 G3 X47.536 Y7.495 R0.103
N2700 G1 X36.536
N2705 G3 X36.433 Y7.392 R0.103
N2710 G1 Y-7.348
N2715 G3 X36.536 Y-7.451 R0.103
N2720 G1 X47.536
N2725 G3 X47.639 Y-7.348 R0.103
N2730 G1 Y1.892
N2735 Z-1.1 F10.
N2740 Y7.392 F50.
N2745 G3 X47.536 Y7.495 R0.103
N2750 G1 X36.536
N2755 G3 X36.433 Y7.392 R0.103
N2760 G1 Y-7.348
N2765 G3 X36.536 Y-7.451 R0.103
N2770 G1 X47.536
N2775 G3 X47.639 Y-7.348 R0.103
N2780 G1 Y1.892
N2785 G0 Z2.
N2790 X43.011 Y12.75
N2795 Z1.23
N2800 G1 Z-0.23 F10.
N2805 G3 X41.468 R0.772 F50.
N2810 X43.011 R0.772
N2815 G1 Z-0.46 F10.
N2820 G3 X41.468 R0.772 F50.
N2825 X43.011 R0.772
N2830 G1 Z-0.69 F10.
N2835 G3 X41.468 R0.772 F50.
N2840 X43.011 R0.772
N2845 G1 Z-0.92 F10.
N2850 G3 X41.468 R0.772 F50.
N2855 X43.011 R0.772
N2860 G1 Z-1.1 F10.
N2865 G3 X41.468 R0.772 F50.
N2870 X43.011 R0.772
N2875 G0 Z2.
N2880 X29.538 Y27.009
N2885 Z1.23
N2890 G1 Z-0.23 F10.
N2895 Y37.572 F50.
N2900 X29.331
N2905 Y26.906
N2910 X29.538
N2915 Y27.009
N2920 Z-0.46 F10.
N2925 Y37.572 F50.
N2930 X29.331
N2935 Y26.906
N2940 X29.538
N2945 Y27.009
N2950 Z-0.69 F10.
N2955 Y37.572 F50.
N2960 X29.331
N2965 Y26.906
N2970 X29.538
N2975 Y27.009
N2980 Z-0.92 F10.
N2985 Y37.572 F50.
N2990 X29.331
N2995 Y26.906
N3000 X29.538
N3005 Y27.009
N3010 Z-1.1 F10.
N3015 Y37.572 F50.
N3020 X29.331
N3025 Y26.906
N3030 X29.538
N3035 Y27.009
N3040 G0 Z2.
N3045 X22.946 Y24.588
N3050 Z1.23
N3055 G1 Z-0.23 F10.
N3060 X22.943 F50.
N3065 G2 X21.5 Y23.488 R1.497
N3070 G3 X18.518 Y20.838 R3.003
N3075 G2 X18.124 Y20.488 R0.397
N3080 G1 X9.376
N3085 G2 X8.982 Y20.838 R0.397
N3090 G3 X6. Y23.488 R3.003
N3095 G2 X4.557 Y24.588 R1.497
N3100 G1 X4.55
N3105 G3 X6. Y23.481 R1.503
N3110 G2 Y17.488 R2.997
N3115 G3 X4.55 Y16.381 R1.503
N3120 G1 X4.557
N3125 G2 X6. Y17.481 R1.497
N3130 G3 X8.982 Y20.131 R3.003
N3135 G2 X9.376 Y20.481 R0.397
N3140 G1 X18.124
N3145 G2 X18.518 Y20.131 R0.397
N3150 G3 X21.5 Y17.481 R3.003
N3155 G2 X22.943 Y16.381 R1.497
N3160 G1 X22.95
N3165 G3 X21.5 Y17.488 R1.503
N3170 G2 Y23.481 R2.997
N3175 G3 X22.95 Y24.588 R1.503
N3180 G1 X22.946
N3185 Z-0.46 F10.
N3190 X22.943 F50.
N3195 G2 X21.5 Y23.488 R1.497
N3200 G3 X18.518 Y20.838 R3.003
N3205 G2 X18.124 Y20.488 R0.397
N3210 G1 X9.376
N3215 G2 X8.982 Y20.838 R0.397
N3220 G3 X6. Y23.488 R3.003
N3225 G2 X4.557 Y24.588 R1.497
N3230 G1 X4.55
N3235 G3 X6. Y23.481 R1.503
N3240 G2 Y17.488 R2.997
N3245 G3 X4.55 Y16.381 R1.503
N3250 G1 X4.557
N3255 G2 X6. Y17.481 R1.497
N3260 G3 X8.982 Y20.131 R3.003
N3265 G2 X9.376 Y20.481 R0.397
N3270 G1 X18.124
N3275 G2 X18.518 Y20.131 R0.397
N3280 G3 X21.5 Y17.481 R3.003
N3285 G2 X22.943 Y16.381 R1.497
N3290 G1 X22.95
N3295 G3 X21.5 Y17.488 R1.503
N3300 G2 Y23.481 R2.997
N3305 G3 X22.95 Y24.588 R1.503
N3310 G1 X22.946
N3315 Z-0.69 F10.
N3320 X22.943 F50.
N3325 G2 X21.5 Y23.488 R1.497
N3330 G3 X18.518 Y20.838 R3.003
N3335 G2 X18.124 Y20.488 R0.397
N3340 G1 X9.376
N3345 G2 X8.982 Y20.838 R0.397
N3350 G3 X6. Y23.488 R3.003
N3355 G2 X4.557 Y24.588 R1.497
N3360 G1 X4.55
N3365 G3 X6. Y23.481 R1.503
N3370 G2 Y17.488 R2.997
N3375 G3 X4.55 Y16.381 R1.503
N3380 G1 X4.557
N3385 G2 X6. Y17.481 R1.497
N3390 G3 X8.982 Y20.131 R3.003
N3395 G2 X9.376 Y20.481 R0.397
N3400 G1 X18.124
N3405 G2 X18.518 Y20.131 R0.397
N3410 G3 X21.5 Y17.481 R3.003
N3415 G2 X22.943 Y16.381 R1.497
N3420 G1 X22.95
N3425 G3 X21.5 Y17.488 R1.503
N3430 G2 Y23.481 R2.997
N3435 G3 X22.95 Y24.588 R1.503
N3440 G1 X22.946
N3445 Z-0.92 F10.
N3450 X22.943 F50.
N3455 G2 X21.5 Y23.488 R1.497
N3460 G3 X18.518 Y20.838 R3.003
N3465 G2 X18.124 Y20.488 R0.397
N3470 G1 X9.376
N3475 G2 X8.982 Y20.838 R0.397
N3480 G3 X6. Y23.488 R3.003
N3485 G2 X4.557 Y24.588 R1.497
N3490 G1 X4.55
N3495 G3 X6. Y23.481 R1.503
N3500 G2 Y17.488 R2.997
N3505 G3 X4.55 Y16.381 R1.503
N3510 G1 X4.557
N3515 G2 X6. Y17.481 R1.497
N3520 G3 X8.982 Y20.131 R3.003
N3525 G2 X9.376 Y20.481 R0.397
N3530 G1 X18.124
N3535 G2 X18.518 Y20.131 R0.397
N3540 G3 X21.5 Y17.481 R3.003
N3545 G2 X22.943 Y16.381 R1.497
N3550 G1 X22.95
N3555 G3 X21.5 Y17.488 R1.503
N3560 G2 Y23.481 R2.997
N3565 G3 X22.95 Y24.588 R1.503
N3570 G1 X22.946
N3575 Z-1.1 F10.
N3580 X22.943 F50.
N3585 G2 X21.5 Y23.488 R1.497
N3590 G3 X18.518 Y20.838 R3.003
N3595 G2 X18.124 Y20.488 R0.397
N3600 G1 X9.376
N3605 G2 X8.982 Y20.838 R0.397
N3610 G3 X6. Y23.488 R3.003
N3615 G2 X4.557 Y24.588 R1.497
N3620 G1 X4.55
N3625 G3 X6. Y23.481 R1.503
N3630 G2 Y17.488 R2.997
N3635 G3 X4.55 Y16.381 R1.503
N3640 G1 X4.557
N3645 G2 X6. Y17.481 R1.497
N3650 G3 X8.982 Y20.131 R3.003
N3655 G2 X9.376 Y20.481 R0.397
N3660 G1 X18.124
N3665 G2 X18.518 Y20.131 R0.397
N3670 G3 X21.5 Y17.481 R3.003
N3675 G2 X22.943 Y16.381 R1.497
N3680 G1 X22.95
N3685 G3 X21.5 Y17.488 R1.503
N3690 G2 Y23.481 R2.997
N3695 G3 X22.95 Y24.588 R1.503
N3700 G1 X22.946
N3705 G0 Z2.
N3710 X37.94 Y32.258
N3715 Z1.23
N3720 G1 Z-0.23 F10.
N3725 G3 X36.398 Y32.22 R0.772 F50.
N3730 X37.94 Y32.258 R0.772
N3735 G1 Z-0.46 F10.
N3740 G3 X36.398 Y32.22 R0.772 F50.
N3745 X37.94 Y32.258 R0.772
N3750 G1 Z-0.69 F10.
N3755 G3 X36.398 Y32.22 R0.772 F50.
N3760 X37.94 Y32.258 R0.772
N3765 G1 Z-0.92 F10.
N3770 G3 X36.398 Y32.22 R0.772 F50.
N3775 X37.94 Y32.258 R0.772
N3780 G1 Z-1.1 F10.
N3785 G3 X36.398 Y32.22 R0.772 F50.
N3790 X37.94 Y32.258 R0.772
N3795 G0 Z2.
N3800 X5.603 Y20.485
N3805 Z1.23
N3810 G1 Z-0.23 F10.
N3815 Y20.488 F50.
N3820 X-5.603
N3825 Y20.481
N3830 X5.603
N3835 Y20.485
N3840 Z-0.46 F10.
N3845 Y20.488 F50.
N3850 X-5.603
N3855 Y20.481
N3860 X5.603
N3865 Y20.485
N3870 Z-0.69 F10.
N3875 Y20.488 F50.
N3880 X-5.603
N3885 Y20.481
N3890 X5.603
N3895 Y20.485
N3900 Z-0.92 F10.
N3905 Y20.488 F50.
N3910 X-5.603
N3915 Y20.481
N3920 X5.603
N3925 Y20.485
N3930 Z-1.1 F10.
N3935 Y20.488 F50.
N3940 X-5.603
N3945 Y20.481
N3950 X5.603
N3955 Y20.485
N3960 G0 Z2.
N3965 X-4.605 Y24.425
N3970 Z1.23
N3975 G1 Z-0.23 F10.
N3980 G3 X-4.55 Y24.588 R1.503 F50.
N3985 G1 X-4.557
N3990 G2 X-6. Y23.488 R1.497
N3995 G3 X-8.982 Y20.838 R3.003
N4000 G2 X-9.376 Y20.488 R0.397
N4005 G1 X-18.124
N4010 G2 X-18.518 Y20.838 R0.397
N4015 G3 X-21.5 Y23.488 R3.003
N4020 G2 X-22.943 Y24.588 R1.497
N4025 G1 X-22.95
N4030 G3 X-21.5 Y23.481 R1.503
N4035 G2 Y17.488 R2.997
N4040 G3 X-22.95 Y16.381 R1.503
N4045 G1 X-22.943
N4050 G2 X-21.5 Y17.481 R1.497
N4055 G3 X-18.518 Y20.131 R3.003
N4060 G2 X-18.124 Y20.481 R0.397
N4065 G1 X-9.376
N4070 G2 X-8.982 Y20.131 R0.397
N4075 G3 X-6. Y17.481 R3.003
N4080 G2 X-4.557 Y16.381 R1.497
N4085 G1 X-4.55
N4090 G3 X-6. Y17.488 R1.503
N4095 G2 Y23.481 R2.997
N4100 G3 X-4.605 Y24.425 R1.503
N4105 G1 Z-0.46 F10.
N4110 G3 X-4.55 Y24.588 R1.503 F50.
N4115 G1 X-4.557
N4120 G2 X-6. Y23.488 R1.497
N4125 G3 X-8.982 Y20.838 R3.003
N4130 G2 X-9.376 Y20.488 R0.397
N4135 G1 X-18.124
N4140 G2 X-18.518 Y20.838 R0.397
N4145 G3 X-21.5 Y23.488 R3.003
N4150 G2 X-22.943 Y24.588 R1.497
N4155 G1 X-22.95
N4160 G3 X-21.5 Y23.481 R1.503
N4165 G2 Y17.488 R2.997
N4170 G3 X-22.95 Y16.381 R1.503
N4175 G1 X-22.943
N4180 G2 X-21.5 Y17.481 R1.497
N4185 G3 X-18.518 Y20.131 R3.003
N4190 G2 X-18.124 Y20.481 R0.397
N4195 G1 X-9.376
N4200 G2 X-8.982 Y20.131 R0.397
N4205 G3 X-6. Y17.481 R3.003
N4210 G2 X-4.557 Y16.381 R1.497
N4215 G1 X-4.55
N4220 G3 X-6. Y17.488 R1.503
N4225 G2 Y23.481 R2.997
N4230 G3 X-4.605 Y24.425 R1.503
N4235 G1 Z-0.69 F10.
N4240 G3 X-4.55 Y24.588 R1.503 F50.
N4245 G1 X-4.557
N4250 G2 X-6. Y23.488 R1.497
N4255 G3 X-8.982 Y20.838 R3.003
N4260 G2 X-9.376 Y20.488 R0.397
N4265 G1 X-18.124
N4270 G2 X-18.518 Y20.838 R0.397
N4275 G3 X-21.5 Y23.488 R3.003
N4280 G2 X-22.943 Y24.588 R1.497
N4285 G1 X-22.95
N4290 G3 X-21.5 Y23.481 R1.503
N4295 G2 Y17.488 R2.997
N4300 G3 X-22.95 Y16.381 R1.503
N4305 G1 X-22.943
N4310 G2 X-21.5 Y17.481 R1.497
N4315 G3 X-18.518 Y20.131 R3.003
N4320 G2 X-18.124 Y20.481 R0.397
N4325 G1 X-9.376
N4330 G2 X-8.982 Y20.131 R0.397
N4335 G3 X-6. Y17.481 R3.003
N4340 G2 X-4.557 Y16.381 R1.497
N4345 G1 X-4.55
N4350 G3 X-6. Y17.488 R1.503
N4355 G2 Y23.481 R2.997
N4360 G3 X-4.605 Y24.425 R1.503
N4365 G1 Z-0.92 F10.
N4370 G3 X-4.55 Y24.588 R1.503 F50.
N4375 G1 X-4.557
N4380 G2 X-6. Y23.488 R1.497
N4385 G3 X-8.982 Y20.838 R3.003
N4390 G2 X-9.376 Y20.488 R0.397
N4395 G1 X-18.124
N4400 G2 X-18.518 Y20.838 R0.397
N4405 G3 X-21.5 Y23.488 R3.003
N4410 G2 X-22.943 Y24.588 R1.497
N4415 G1 X-22.95
N4420 G3 X-21.5 Y23.481 R1.503
N4425 G2 Y17.488 R2.997
N4430 G3 X-22.95 Y16.381 R1.503
N4435 G1 X-22.943
N4440 G2 X-21.5 Y17.481 R1.497
N4445 G3 X-18.518 Y20.131 R3.003
N4450 G2 X-18.124 Y20.481 R0.397
N4455 G1 X-9.376
N4460 G2 X-8.982 Y20.131 R0.397
N4465 G3 X-6. Y17.481 R3.003
N4470 G2 X-4.557 Y16.381 R1.497
N4475 G1 X-4.55
N4480 G3 X-6. Y17.488 R1.503
N4485 G2 Y23.481 R2.997
N4490 G3 X-4.605 Y24.425 R1.503
N4495 G1 Z-1.1 F10.
N4500 G3 X-4.55 Y24.588 R1.503 F50.
N4505 G1 X-4.557
N4510 G2 X-6. Y23.488 R1.497
N4515 G3 X-8.982 Y20.838 R3.003
N4520 G2 X-9.376 Y20.488 R0.397
N4525 G1 X-18.124
N4530 G2 X-18.518 Y20.838 R0.397
N4535 G3 X-21.5 Y23.488 R3.003
N4540 G2 X-22.943 Y24.588 R1.497
N4545 G1 X-22.95
N4550 G3 X-21.5 Y23.481 R1.503
N4555 G2 Y17.488 R2.997
N4560 G3 X-22.95 Y16.381 R1.503
N4565 G1 X-22.943
N4570 G2 X-21.5 Y17.481 R1.497
N4575 G3 X-18.518 Y20.131 R3.003
N4580 G2 X-18.124 Y20.481 R0.397
N4585 G1 X-9.376
N4590 G2 X-8.982 Y20.131 R0.397
N4595 G3 X-6. Y17.481 R3.003
N4600 G2 X-4.557 Y16.381 R1.497
N4605 G1 X-4.55
N4610 G3 X-6. Y17.488 R1.503
N4615 G2 Y23.481 R2.997
N4620 G3 X-4.605 Y24.425 R1.503
N4625 G0 Z2.
N4630 X-11.843 Y12.915
N4635 Z1.23
N4640 G1 Z-0.23 F10.
N4645 G3 X-15.05 R1.603 F50.
N4650 X-11.843 R1.603
N4655 G1 Z-0.46 F10.
N4660 G3 X-15.05 R1.603 F50.
N4665 X-11.843 R1.603
N4670 G1 Z-0.69 F10.
N4675 G3 X-15.05 R1.603 F50.
N4680 X-11.843 R1.603
N4685 G1 Z-0.92 F10.
N4690 G3 X-15.05 R1.603 F50.
N4695 X-11.843 R1.603
N4700 G1 Z-1.1 F10.
N4705 G3 X-15.05 R1.603 F50.
N4710 X-11.843 R1.603
N4715 G0 Z2.
N4720 X-26.531 Y13.007
N4725 Z1.23
N4730 G1 Z-0.23 F10.
N4735 G3 X-27.588 Y11.5 R1.603 F50.
N4740 G2 X-33.381 R2.897
N4745 G3 X-34.588 Y13.053 R1.603
N4750 G1 Y12.839
N4755 G2 X-33.588 Y11.5 R1.397
N4760 G3 X-30.928 Y8.429 R3.103
N4765 G2 X-30.588 Y8.036 R0.397
N4770 G1 Y-8.036
N4775 G2 X-30.928 Y-8.429 R0.397
N4780 G3 X-33.588 Y-11.5 R3.103
N4785 G2 X-34.588 Y-12.839 R1.397
N4790 G1 Y-13.053
N4795 G3 X-33.381 Y-11.5 R1.603
N4800 G2 X-27.588 R2.897
N4805 G3 X-26.381 Y-13.053 R1.603
N4810 G1 Y-12.839
N4815 G2 X-27.381 Y-11.5 R1.397
N4820 G3 X-30.041 Y-8.429 R3.103
N4825 G2 X-30.381 Y-8.036 R0.397
N4830 G1 Y8.036
N4835 G2 X-30.041 Y8.429 R0.397
N4840 G3 X-27.381 Y11.5 R3.103
N4845 G2 X-26.381 Y12.839 R1.397
N4850 G1 Y13.053
N4855 G3 X-26.531 Y13.007 R1.603
N4860 G1 Z-0.46 F10.
N4865 G3 X-27.588 Y11.5 R1.603 F50.
N4870 G2 X-33.381 R2.897
N4875 G3 X-34.588 Y13.053 R1.603
N4880 G1 Y12.839
N4885 G2 X-33.588 Y11.5 R1.397
N4890 G3 X-30.928 Y8.429 R3.103
N4895 G2 X-30.588 Y8.036 R0.397
N4900 G1 Y-8.036
N4905 G2 X-30.928 Y-8.429 R0.397
N4910 G3 X-33.588 Y-11.5 R3.103
N4915 G2 X-34.588 Y-12.839 R1.397
N4920 G1 Y-13.053
N4925 G3 X-33.381 Y-11.5 R1.603
N4930 G2 X-27.588 R2.897
N4935 G3 X-26.381 Y-13.053 R1.603
N4940 G1 Y-12.839
N4945 G2 X-27.381 Y-11.5 R1.397
N4950 G3 X-30.041 Y-8.429 R3.103
N4955 G2 X-30.381 Y-8.036 R0.397
N4960 G1 Y8.036
N4965 G2 X-30.041 Y8.429 R0.397
N4970 G3 X-27.381 Y11.5 R3.103
N4975 G2 X-26.381 Y12.839 R1.397
N4980 G1 Y13.053
N4985 G3 X-26.531 Y13.007 R1.603
N4990 G1 Z-0.69 F10.
N4995 G3 X-27.588 Y11.5 R1.603 F50.
N5000 G2 X-33.381 R2.897
N5005 G3 X-34.588 Y13.053 R1.603
N5010 G1 Y12.839
N5015 G2 X-33.588 Y11.5 R1.397
N5020 G3 X-30.928 Y8.429 R3.103
N5025 G2 X-30.588 Y8.036 R0.397
N5030 G1 Y-8.036
N5035 G2 X-30.928 Y-8.429 R0.397
N5040 G3 X-33.588 Y-11.5 R3.103
N5045 G2 X-34.588 Y-12.839 R1.397
N5050 G1 Y-13.053
N5055 G3 X-33.381 Y-11.5 R1.603
N5060 G2 X-27.588 R2.897
N5065 G3 X-26.381 Y-13.053 R1.603
N5070 G1 Y-12.839
N5075 G2 X-27.381 Y-11.5 R1.397
N5080 G3 X-30.041 Y-8.429 R3.103
N5085 G2 X-30.381 Y-8.036 R0.397
N5090 G1 Y8.036
N5095 G2 X-30.041 Y8.429 R0.397
N5100 G3 X-27.381 Y11.5 R3.103
N5105 G2 X-26.381 Y12.839 R1.397
N5110 G1 Y13.053
N5115 G3 X-26.531 Y13.007 R1.603
N5120 G1 Z-0.92 F10.
N5125 G3 X-27.588 Y11.5 R1.603 F50.
N5130 G2 X-33.381 R2.897
N5135 G3 X-34.588 Y13.053 R1.603
N5140 G1 Y12.839
N5145 G2 X-33.588 Y11.5 R1.397
N5150 G3 X-30.928 Y8.429 R3.103
N5155 G2 X-30.588 Y8.036 R0.397
N5160 G1 Y-8.036
N5165 G2 X-30.928 Y-8.429 R0.397
N5170 G3 X-33.588 Y-11.5 R3.103
N5175 G2 X-34.588 Y-12.839 R1.397
N5180 G1 Y-13.053
N5185 G3 X-33.381 Y-11.5 R1.603
N5190 G2 X-27.588 R2.897
N5195 G3 X-26.381 Y-13.053 R1.603
N5200 G1 Y-12.839
N5205 G2 X-27.381 Y-11.5 R1.397
N5210 G3 X-30.041 Y-8.429 R3.103
N5215 G2 X-30.381 Y-8.036 R0.397
N5220 G1 Y8.036
N5225 G2 X-30.041 Y8.429 R0.397
N5230 G3 X-27.381 Y11.5 R3.103
N5235 G2 X-26.381 Y12.839 R1.397
N5240 G1 Y13.053
N5245 G3 X-26.531 Y13.007 R1.603
N5250 G1 Z-1.1 F10.
N5255 G3 X-27.588 Y11.5 R1.603 F50.
N5260 G2 X-33.381 R2.897
N5265 G3 X-34.588 Y13.053 R1.603
N5270 G1 Y12.839
N5275 G2 X-33.588 Y11.5 R1.397
N5280 G3 X-30.928 Y8.429 R3.103
N5285 G2 X-30.588 Y8.036 R0.397
N5290 G1 Y-8.036
N5295 G2 X-30.928 Y-8.429 R0.397
N5300 G3 X-33.588 Y-11.5 R3.103
N5305 G2 X-34.588 Y-12.839 R1.397
N5310 G1 Y-13.053
N5315 G3 X-33.381 Y-11.5 R1.603
N5320 G2 X-27.588 R2.897
N5325 G3 X-26.381 Y-13.053 R1.603
N5330 G1 Y-12.839
N5335 G2 X-27.381 Y-11.5 R1.397
N5340 G3 X-30.041 Y-8.429 R3.103
N5345 G2 X-30.381 Y-8.036 R0.397
N5350 G1 Y8.036
N5355 G2 X-30.041 Y8.429 R0.397
N5360 G3 X-27.381 Y11.5 R3.103
N5365 G2 X-26.381 Y12.839 R1.397
N5370 G1 Y13.053
N5375 G3 X-26.531 Y13.007 R1.603
N5380 G0 Z2.
N5385 X-36.433 Y1.892
N5390 Z1.23
N5395 G1 Z-0.23 F10.
N5400 Y7.495 F50.
N5405 X-47.639
N5410 Y-7.451
N5415 X-36.433
N5420 Y1.892
N5425 Z-0.46 F10.
N5430 Y7.495 F50.
N5435 X-47.639
N5440 Y-7.451
N5445 X-36.433
N5450 Y1.892
N5455 Z-0.69 F10.
N5460 Y7.495 F50.
N5465 X-47.639
N5470 Y-7.451
N5475 X-36.433
N5480 Y1.892
N5485 Z-0.92 F10.
N5490 Y7.495 F50.
N5495 X-47.639
N5500 Y-7.451
N5505 X-36.433
N5510 Y1.892
N5515 Z-1.1 F10.
N5520 Y7.495 F50.
N5525 X-47.639
N5530 Y-7.451
N5535 X-36.433
N5540 Y1.892
N5545 G0 Z2.
N5550 X-41.468 Y12.75
N5555 Z1.23
N5560 G1 Z-0.23 F10.
N5565 G3 X-43.011 R0.772 F50.
N5570 X-41.468 R0.772
N5575 G1 Z-0.46 F10.
N5580 G3 X-43.011 R0.772 F50.
N5585 X-41.468 R0.772
N5590 G1 Z-0.69 F10.
N5595 G3 X-43.011 R0.772 F50.
N5600 X-41.468 R0.772
N5605 G1 Z-0.92 F10.
N5610 G3 X-43.011 R0.772 F50.
N5615 X-41.468 R0.772
N5620 G1 Z-1.1 F10.
N5625 G3 X-43.011 R0.772 F50.
N5630 X-41.468 R0.772
N5635 G0 Z2.
N5640 X-29.331 Y27.009
N5645 Z1.23
N5650 G1 Z-0.23 F10.
N5655 Y37.572 F50.
N5660 X-29.538
N5665 Y26.906
N5670 X-29.331
N5675 Y27.009
N5680 Z-0.46 F10.
N5685 Y37.572 F50.
N5690 X-29.538
N5695 Y26.906
N5700 X-29.331
N5705 Y27.009
N5710 Z-0.69 F10.
N5715 Y37.572 F50.
N5720 X-29.538
N5725 Y26.906
N5730 X-29.331
N5735 Y27.009
N5740 Z-0.92 F10.
N5745 Y37.572 F50.
N5750 X-29.538
N5755 Y26.906
N5760 X-29.331
N5765 Y27.009
N5770 Z-1.1 F10.
N5775 Y37.572 F50.
N5780 X-29.538
N5785 Y26.906
N5790 X-29.331
N5795 Y27.009
N5800 G0 Z2.
N5805 X-36.397 Y32.239
N5810 Z1.23
N5815 G1 Z-0.23 F10.
N5820 G3 X-37.941 R0.772 F50.
N5825 X-36.397 R0.772
N5830 G1 Z-0.46 F10.
N5835 G3 X-37.941 R0.772 F50.
N5840 X-36.397 R0.772
N5845 G1 Z-0.69 F10.
N5850 G3 X-37.941 R0.772 F50.
N5855 X-36.397 R0.772
N5860 G1 Z-0.92 F10.
N5865 G3 X-37.941 R0.772 F50.
N5870 X-36.397 R0.772
N5875 G1 Z-1.1 F10.
N5880 G3 X-37.941 R0.772 F50.
N5885 X-36.397 R0.772
N5890 G0 Z2.
N5895 X-41.611 Y-13.198
N5900 Z1.23
N5905 G1 Z-0.23 F10.
N5910 G3 X-42.868 Y-12.302 R0.772 F50.
N5915 X-41.611 Y-13.198 R0.772
N5920 G1 Z-0.46 F10.
N5925 G3 X-42.868 Y-12.302 R0.772 F50.
N5930 X-41.611 Y-13.198 R0.772
N5935 G1 Z-0.69 F10.
N5940 G3 X-42.868 Y-12.302 R0.772 F50.
N5945 X-41.611 Y-13.198 R0.772
N5950 G1 Z-0.92 F10.
N5955 G3 X-42.868 Y-12.302 R0.772 F50.
N5960 X-41.611 Y-13.198 R0.772
N5965 G1 Z-1.1 F10.
N5970 G3 X-42.868 Y-12.302 R0.772 F50.
N5975 X-41.611 Y-13.198 R0.772
N5980 G0 Z2.
N5985 X-29.331 Y-27.009
N5990 Z1.23
N5995 G1 Z-0.23 F10.
N6000 Y-26.906 F50.
N6005 X-29.538
N6010 Y-37.572
N6015 X-29.331
N6020 Y-27.009
N6025 Z-0.46 F10.
N6030 Y-26.906 F50.
N6035 X-29.538
N6040 Y-37.572
N6045 X-29.331
N6050 Y-27.009
N6055 Z-0.69 F10.
N6060 Y-26.906 F50.
N6065 X-29.538
N6070 Y-37.572
N6075 X-29.331
N6080 Y-27.009
N6085 Z-0.92 F10.
N6090 Y-26.906 F50.
N6095 X-29.538
N6100 Y-37.572
N6105 X-29.331
N6110 Y-27.009
N6115 Z-1.1 F10.
N6120 Y-26.906 F50.
N6125 X-29.538
N6130 Y-37.572
N6135 X-29.331
N6140 Y-27.009
N6145 G0 Z2.
N6150 X-36.691 Y-32.845
N6155 Z1.23
N6160 G1 Z-0.23 F10.
N6165 G3 X-37.647 Y-31.634 R0.772 F50.
N6170 X-36.691 Y-32.845 R0.772
N6175 G1 Z-0.46 F10.
N6180 G3 X-37.647 Y-31.634 R0.772 F50.
N6185 X-36.691 Y-32.845 R0.772
N6190 G1 Z-0.69 F10.
N6195 G3 X-37.647 Y-31.634 R0.772 F50.
N6200 X-36.691 Y-32.845 R0.772
N6205 G1 Z-0.92 F10.
N6210 G3 X-37.647 Y-31.634 R0.772 F50.
N6215 X-36.691 Y-32.845 R0.772
N6220 G1 Z-1.1 F10.
N6225 G3 X-37.647 Y-31.634 R0.772 F50.
N6230 X-36.691 Y-32.845 R0.772
N6235 G0 Z2.
N6240 X23. Y0.
N6245 Z1.23
N6250 G1 Z-0.23 F10.
N6255 G3 X19.794 R1.603 F50.
N6260 X23. R1.603
N6265 G1 Z-0.46 F10.
N6270 G3 X19.794 R1.603 F50.
N6275 X23. R1.603
N6280 G1 Z-0.69 F10.
N6285 G3 X19.794 R1.603 F50.
N6290 X23. R1.603
N6295 G1 Z-0.92 F10.
N6300 G3 X19.794 R1.603 F50.
N6305 X23. R1.603
N6310 G1 Z-1.1 F10.
N6315 G3 X19.794 R1.603 F50.
N6320 X23. R1.603
N6325 G0 Z2.
N6330 X42.845 Y-12.272
N6335 Z1.23
N6340 G1 Z-0.23 F10.
N6345 G3 X41.634 Y-13.228 R0.772 F50.
N6350 X42.845 Y-12.272 R0.772
N6355 G1 Z-0.46 F10.
N6360 G3 X41.634 Y-13.228 R0.772 F50.
N6365 X42.845 Y-12.272 R0.772
N6370 G1 Z-0.69 F10.
N6375 G3 X41.634 Y-13.228 R0.772 F50.
N6380 X42.845 Y-12.272 R0.772
N6385 G1 Z-0.92 F10.
N6390 G3 X41.634 Y-13.228 R0.772 F50.
N6395 X42.845 Y-12.272 R0.772
N6400 G1 Z-1.1 F10.
N6405 G3 X41.634 Y-13.228 R0.772 F50.
N6410 X42.845 Y-12.272 R0.772
N6415 G0 Z2.
N6420 X29.538 Y-27.009
N6425 Z1.23
N6430 G1 Z-0.23 F10.
N6435 Y-26.906 F50.
N6440 X29.331
N6445 Y-37.572
N6450 X29.538
N6455 Y-27.009
N6460 Z-0.46 F10.
N6465 Y-26.906 F50.
N6470 X29.331
N6475 Y-37.572
N6480 X29.538
N6485 Y-27.009
N6490 Z-0.69 F10.
N6495 Y-26.906 F50.
N6500 X29.331
N6505 Y-37.572
N6510 X29.538
N6515 Y-27.009
N6520 Z-0.92 F10.
N6525 Y-26.906 F50.
N6530 X29.331
N6535 Y-37.572
N6540 X29.538
N6545 Y-27.009
N6550 Z-1.1 F10.
N6555 Y-26.906 F50.
N6560 X29.331
N6565 Y-37.572
N6570 X29.538
N6575 Y-27.009
N6580 G0 Z2.
N6585 X37.632 Y-32.856
N6590 Z1.23
N6595 G1 Z-0.23 F10.
N6600 G3 X36.706 Y-31.622 R0.772 F50.
N6605 X37.632 Y-32.856 R0.772
N6610 G1 Z-0.46 F10.
N6615 G3 X36.706 Y-31.622 R0.772 F50.
N6620 X37.632 Y-32.856 R0.772
N6625 G1 Z-0.69 F10.
N6630 G3 X36.706 Y-31.622 R0.772 F50.
N6635 X37.632 Y-32.856 R0.772
N6640 G1 Z-0.92 F10.
N6645 G3 X36.706 Y-31.622 R0.772 F50.
N6650 X37.632 Y-32.856 R0.772
N6655 G1 Z-1.1 F10.
N6660 G3 X36.706 Y-31.622 R0.772 F50.
N6665 X37.632 Y-32.856 R0.772
N6670 G0 Z7.

(OUTSIDE CONTOUR)
N6680 M8
N6685 G0 X21.9 Y20.488
N6690 Z7.
N6695 Z1.25
N6700 G1 Z-0.25 F10.
N6705 X21.897 F50.
N6710 Y20.481
N6715 X26.985
N6720 G2 X30.381 Y17.084 R3.397
N6725 G1 Y11.897
N6730 X30.588
N6735 Y14.5
N6740 G2 X33.985 Y17.897 R3.397
N6745 G1 X47.969
N6750 G2 X51.366 Y14.5 R3.397
N6755 G1 Y-14.5
N6760 G2 X47.969 Y-17.897 R3.397
N6765 G1 X33.556
N6770 G2 X33.513 Y-17.894 R0.397
N6775 X33.401 Y-17.891 R0.397
N6780 X30.588 Y-14.545 R3.397
N6785 G1 Y-11.897
N6790 X30.381
N6795 Y-17.084
N6800 G2 X26.985 Y-20.481 R3.397
N6805 G1 X21.897
N6810 Y-20.488
N6815 X26.
N6820 G2 X27.897 Y-22.385 R1.897
N6825 G1 Y-22.876
N6830 G2 X27.303 Y-24.254 R1.897
N6835 G3 X26.331 Y-26.509 R3.103
N6840 G2 X25.331 Y-27.849 R1.397
N6845 G1 Y-28.063
N6850 G3 X26.538 Y-26.509 R1.603
N6855 G2 X32.331 R2.897
N6860 G3 X33.538 Y-28.063 R1.603
N6865 G1 Y-27.849
N6870 G2 X32.538 Y-26.509 R1.397
N6875 G3 X32.395 Y-25.578 R3.103
N6880 G2 X34.204 Y-23.112 R1.897
N6885 G1 X38.919
N6890 G2 X42.316 Y-26.509 R3.397
N6895 G1 Y-37.969
N6900 G2 X38.919 Y-41.366 R3.397
N6905 G1 X34.204
N6910 G2 X32.395 Y-38.9 R1.897
N6915 G3 X32.538 Y-37.969 R3.103
N6920 G2 X33.538 Y-36.63 R1.397
N6925 G1 Y-36.416
N6930 G3 X32.331 Y-37.969 R1.603
N6935 G2 X26.538 R2.897
N6940 G3 X25.331 Y-36.416 R1.603
N6945 G1 Y-36.63
N6950 G2 X26.331 Y-37.969 R1.397
N6955 G3 X26.474 Y-38.9 R3.103
N6960 G2 X24.665 Y-41.366 R1.897
N6965 G1 X-24.665
N6970 G2 X-26.474 Y-38.9 R1.897
N6975 G3 X-26.331 Y-37.969 R3.103
N6980 G2 X-25.331 Y-36.63 R1.397
N6985 G1 Y-36.416
N6990 G3 X-26.538 Y-37.969 R1.603
N6995 G2 X-32.331 R2.897
N7000 G3 X-33.538 Y-36.416 R1.603
N7005 G1 Y-36.63
N7010 G2 X-32.538 Y-37.969 R1.397
N7015 G3 X-32.395 Y-38.9 R3.103
N7020 G2 X-34.204 Y-41.366 R1.897
N7025 G1 X-38.919
N7030 G2 X-42.316 Y-37.969 R3.397
N7035 G1 Y-26.509
N7040 G2 X-38.919 Y-23.112 R3.397
N7045 G1 X-34.204
N7050 G2 X-32.395 Y-25.578 R1.897
N7055 G3 X-32.538 Y-26.509 R3.103
N7060 G2 X-33.538 Y-27.849 R1.397
N7065 G1 Y-28.063
N7070 G3 X-32.331 Y-26.509 R1.603
N7075 G2 X-26.538 R2.897
N7080 G3 X-25.331 Y-28.063 R1.603
N7085 G1 Y-27.849
N7090 G2 X-26.331 Y-26.509 R1.397
N7095 G3 X-27.303 Y-24.254 R3.103
N7100 G2 X-27.897 Y-22.876 R1.897
N7105 G1 Y-20.885
N7110 G2 X-27.5 Y-20.488 R0.397
N7115 G1 X-21.897
N7120 Y-20.481
N7125 X-26.985
N7130 G2 X-30.381 Y-17.084 R3.397
N7135 G1 Y-11.897
N7140 X-30.588
N7145 Y-14.545
N7150 G2 X-33.401 Y-17.891 R3.397
N7155 X-33.513 Y-17.894 R0.397
N7160 X-33.556 Y-17.897 R0.397
N7165 G1 X-47.969
N7170 G2 X-51.366 Y-14.5 R3.397
N7175 G1 Y14.5
N7180 G2 X-47.969 Y17.897 R3.397
N7185 G1 X-33.985
N7190 G2 X-30.588 Y14.5 R3.397
N7195 G1 Y11.897
N7200 X-30.381
N7205 Y17.084
N7210 G2 X-26.985 Y20.481 R3.397
N7215 G1 X-21.897
N7220 Y20.488
N7225 X-26.
N7230 G2 X-27.897 Y22.385 R1.897
N7235 G1 Y22.876
N7240 G2 X-27.303 Y24.254 R1.897
N7245 G3 X-26.331 Y26.509 R3.103
N7250 G2 X-25.331 Y27.849 R1.397
N7255 G1 Y28.063
N7260 G3 X-26.538 Y26.509 R1.603
N7265 G2 X-32.331 R2.897
N7270 G3 X-33.538 Y28.063 R1.603
N7275 G1 Y27.849
N7280 G2 X-32.538 Y26.509 R1.397
N7285 G3 X-32.395 Y25.578 R3.103
N7290 G2 X-34.204 Y23.112 R1.897
N7295 G1 X-38.919
N7300 G2 X-42.316 Y26.509 R3.397
N7305 G1 Y37.969
N7310 G2 X-38.919 Y41.366 R3.397
N7315 G1 X-34.204
N7320 G2 X-32.395 Y38.9 R1.897
N7325 G3 X-32.538 Y37.969 R3.103
N7330 G2 X-33.538 Y36.63 R1.397
N7335 G1 Y36.416
N7340 G3 X-32.331 Y37.969 R1.603
N7345 G2 X-26.538 R2.897
N7350 G3 X-25.331 Y36.416 R1.603
N7355 G1 Y36.63
N7360 G2 X-26.331 Y37.969 R1.397
N7365 G3 X-26.474 Y38.9 R3.103
N7370 G2 X-24.665 Y41.366 R1.897
N7375 G1 X24.665
N7380 G2 X26.474 Y38.9 R1.897
N7385 G3 X26.331 Y37.969 R3.103
N7390 G2 X25.331 Y36.63 R1.397
N7395 G1 Y36.416
N7400 G3 X26.538 Y37.969 R1.603
N7405 G2 X32.331 R2.897
N7410 G3 X33.538 Y36.416 R1.603
N7415 G1 Y36.63
N7420 G2 X32.538 Y37.969 R1.397
N7425 G3 X32.395 Y38.9 R3.103
N7430 G2 X34.204 Y41.366 R1.897
N7435 G1 X38.919
N7440 G2 X42.316 Y37.969 R3.397
N7445 G1 Y26.509
N7450 G2 X38.919 Y23.112 R3.397
N7455 G1 X34.204
N7460 G2 X32.395 Y25.578 R1.897
N7465 G3 X32.538 Y26.509 R3.103
N7470 G2 X33.538 Y27.849 R1.397
N7475 G1 Y28.063
N7480 G3 X32.331 Y26.509 R1.603
N7485 G2 X26.538 R2.897
N7490 G3 X25.331 Y28.063 R1.603
N7495 G1 Y27.849
N7500 G2 X26.331 Y26.509 R1.397
N7505 G3 X27.303 Y24.254 R3.103
N7510 G2 X27.897 Y22.876 R1.897
N7515 G1 Y22.385
N7520 G2 X26. Y20.488 R1.897
N7525 G1 X21.9
N7530 Z-0.5 F10.
N7535 X21.897 F50.
N7540 Y20.481
N7545 X26.985
N7550 G2 X30.381 Y17.084 R3.397
N7555 G1 Y11.897
N7560 X30.588
N7565 Y14.5
N7570 G2 X33.985 Y17.897 R3.397
N7575 G1 X47.969
N7580 G2 X51.366 Y14.5 R3.397
N7585 G1 Y-14.5
N7590 G2 X47.969 Y-17.897 R3.397
N7595 G1 X33.556
N7600 G2 X33.513 Y-17.894 R0.397
N7605 X33.401 Y-17.891 R0.397
N7610 X30.588 Y-14.545 R3.397
N7615 G1 Y-11.897
N7620 X30.381
N7625 Y-17.084
N7630 G2 X26.985 Y-20.481 R3.397
N7635 G1 X21.897
N7640 Y-20.488
N7645 X26.
N7650 G2 X27.897 Y-22.385 R1.897
N7655 G1 Y-22.876
N7660 G2 X27.303 Y-24.254 R1.897
N7665 G3 X26.331 Y-26.509 R3.103
N7670 G2 X25.331 Y-27.849 R1.397
N7675 G1 Y-28.063
N7680 G3 X26.538 Y-26.509 R1.603
N7685 G2 X32.331 R2.897
N7690 G3 X33.538 Y-28.063 R1.603
N7695 G1 Y-27.849
N7700 G2 X32.538 Y-26.509 R1.397
N7705 G3 X32.395 Y-25.578 R3.103
N7710 G2 X34.204 Y-23.112 R1.897
N7715 G1 X38.919
N7720 G2 X42.316 Y-26.509 R3.397
N7725 G1 Y-37.969
N7730 G2 X38.919 Y-41.366 R3.397
N7735 G1 X34.204
N7740 G2 X32.395 Y-38.9 R1.897
N7745 G3 X32.538 Y-37.969 R3.103
N7750 G2 X33.538 Y-36.63 R1.397
N7755 G1 Y-36.416
N7760 G3 X32.331 Y-37.969 R1.603
N7765 G2 X26.538 R2.897
N7770 G3 X25.331 Y-36.416 R1.603
N7775 G1 Y-36.63
N7780 G2 X26.331 Y-37.969 R1.397
N7785 G3 X26.474 Y-38.9 R3.103
N7790 G2 X24.665 Y-41.366 R1.897
N7795 G1 X-24.665
N7800 G2 X-26.474 Y-38.9 R1.897
N7805 G3 X-26.331 Y-37.969 R3.103
N7810 G2 X-25.331 Y-36.63 R1.397
N7815 G1 Y-36.416
N7820 G3 X-26.538 Y-37.969 R1.603
N7825 G2 X-32.331 R2.897
N7830 G3 X-33.538 Y-36.416 R1.603
N7835 G1 Y-36.63
N7840 G2 X-32.538 Y-37.969 R1.397
N7845 G3 X-32.395 Y-38.9 R3.103
N7850 G2 X-34.204 Y-41.366 R1.897
N7855 G1 X-38.919
N7860 G2 X-42.316 Y-37.969 R3.397
N7865 G1 Y-26.509
N7870 G2 X-38.919 Y-23.112 R3.397
N7875 G1 X-34.204
N7880 G2 X-32.395 Y-25.578 R1.897
N7885 G3 X-32.538 Y-26.509 R3.103
N7890 G2 X-33.538 Y-27.849 R1.397
N7895 G1 Y-28.063
N7900 G3 X-32.331 Y-26.509 R1.603
N7905 G2 X-26.538 R2.897
N7910 G3 X-25.331 Y-28.063 R1.603
N7915 G1 Y-27.849
N7920 G2 X-26.331 Y-26.509 R1.397
N7925 G3 X-27.303 Y-24.254 R3.103
N7930 G2 X-27.897 Y-22.876 R1.897
N7935 G1 Y-20.885
N7940 G2 X-27.5 Y-20.488 R0.397
N7945 G1 X-21.897
N7950 Y-20.481
N7955 X-26.985
N7960 G2 X-30.381 Y-17.084 R3.397
N7965 G1 Y-11.897
N7970 X-30.588
N7975 Y-14.545
N7980 G2 X-33.401 Y-17.891 R3.397
N7985 X-33.513 Y-17.894 R0.397
N7990 X-33.556 Y-17.897 R0.397
N7995 G1 X-47.969
N8000 G2 X-51.366 Y-14.5 R3.397
N8005 G1 Y14.5
N8010 G2 X-47.969 Y17.897 R3.397
N8015 G1 X-33.985
N8020 G2 X-30.588 Y14.5 R3.397
N8025 G1 Y11.897
N8030 X-30.381
N8035 Y17.084
N8040 G2 X-26.985 Y20.481 R3.397
N8045 G1 X-21.897
N8050 Y20.488
N8055 X-26.
N8060 G2 X-27.897 Y22.385 R1.897
N8065 G1 Y22.876
N8070 G2 X-27.303 Y24.254 R1.897
N8075 G3 X-26.331 Y26.509 R3.103
N8080 G2 X-25.331 Y27.849 R1.397
N8085 G1 Y28.063
N8090 G3 X-26.538 Y26.509 R1.603
N8095 G2 X-32.331 R2.897
N8100 G3 X-33.538 Y28.063 R1.603
N8105 G1 Y27.849
N8110 G2 X-32.538 Y26.509 R1.397
N8115 G3 X-32.395 Y25.578 R3.103
N8120 G2 X-34.204 Y23.112 R1.897
N8125 G1 X-38.919
N8130 G2 X-42.316 Y26.509 R3.397
N8135 G1 Y37.969
N8140 G2 X-38.919 Y41.366 R3.397
N8145 G1 X-34.204
N8150 G2 X-32.395 Y38.9 R1.897
N8155 G3 X-32.538 Y37.969 R3.103
N8160 G2 X-33.538 Y36.63 R1.397
N8165 G1 Y36.416
N8170 G3 X-32.331 Y37.969 R1.603
N8175 G2 X-26.538 R2.897
N8180 G3 X-25.331 Y36.416 R1.603
N8185 G1 Y36.63
N8190 G2 X-26.331 Y37.969 R1.397
N8195 G3 X-26.474 Y38.9 R3.103
N8200 G2 X-24.665 Y41.366 R1.897
N8205 G1 X24.665
N8210 G2 X26.474 Y38.9 R1.897
N8215 G3 X26.331 Y37.969 R3.103
N8220 G2 X25.331 Y36.63 R1.397
N8225 G1 Y36.416
N8230 G3 X26.538 Y37.969 R1.603
N8235 G2 X32.331 R2.897
N8240 G3 X33.538 Y36.416 R1.603
N8245 G1 Y36.63
N8250 G2 X32.538 Y37.969 R1.397
N8255 G3 X32.395 Y38.9 R3.103
N8260 G2 X34.204 Y41.366 R1.897
N8265 G1 X38.919
N8270 G2 X42.316 Y37.969 R3.397
N8275 G1 Y26.509
N8280 G2 X38.919 Y23.112 R3.397
N8285 G1 X34.204
N8290 G2 X32.395 Y25.578 R1.897
N8295 G3 X32.538 Y26.509 R3.103
N8300 G2 X33.538 Y27.849 R1.397
N8305 G1 Y28.063
N8310 G3 X32.331 Y26.509 R1.603
N8315 G2 X26.538 R2.897
N8320 G3 X25.331 Y28.063 R1.603
N8325 G1 Y27.849
N8330 G2 X26.331 Y26.509 R1.397
N8335 G3 X27.303 Y24.254 R3.103
N8340 G2 X27.897 Y22.876 R1.897
N8345 G1 Y22.385
N8350 G2 X26. Y20.488 R1.897
N8355 G1 X21.9
N8360 Z-0.75 F10.
N8365 X21.897 F50.
N8370 Y20.481
N8375 X26.985
N8380 G2 X30.381 Y17.084 R3.397
N8385 G1 Y11.897
N8390 X30.588
N8395 Y14.5
N8400 G2 X33.985 Y17.897 R3.397
N8405 G1 X47.969
N8410 G2 X51.366 Y14.5 R3.397
N8415 G1 Y-14.5
N8420 G2 X47.969 Y-17.897 R3.397
N8425 G1 X33.556
N8430 G2 X33.513 Y-17.894 R0.397
N8435 X33.401 Y-17.891 R0.397
N8440 X30.588 Y-14.545 R3.397
N8445 G1 Y-11.897
N8450 X30.381
N8455 Y-17.084
N8460 G2 X26.985 Y-20.481 R3.397
N8465 G1 X21.897
N8470 Y-20.488
N8475 X26.
N8480 G2 X27.897 Y-22.385 R1.897
N8485 G1 Y-22.876
N8490 G2 X27.303 Y-24.254 R1.897
N8495 G3 X26.331 Y-26.509 R3.103
N8500 G2 X25.331 Y-27.849 R1.397
N8505 G1 Y-28.063
N8510 G3 X26.538 Y-26.509 R1.603
N8515 G2 X32.331 R2.897
N8520 G3 X33.538 Y-28.063 R1.603
N8525 G1 Y-27.849
N8530 G2 X32.538 Y-26.509 R1.397
N8535 G3 X32.395 Y-25.578 R3.103
N8540 G2 X34.204 Y-23.112 R1.897
N8545 G1 X38.919
N8550 G2 X42.316 Y-26.509 R3.397
N8555 G1 Y-37.969
N8560 G2 X38.919 Y-41.366 R3.397
N8565 G1 X34.204
N8570 G2 X32.395 Y-38.9 R1.897
N8575 G3 X32.538 Y-37.969 R3.103
N8580 G2 X33.538 Y-36.63 R1.397
N8585 G1 Y-36.416
N8590 G3 X32.331 Y-37.969 R1.603
N8595 G2 X26.538 R2.897
N8600 G3 X25.331 Y-36.416 R1.603
N8605 G1 Y-36.63
N8610 G2 X26.331 Y-37.969 R1.397
N8615 G3 X26.474 Y-38.9 R3.103
N8620 G2 X24.665 Y-41.366 R1.897
N8625 G1 X-24.665
N8630 G2 X-26.474 Y-38.9 R1.897
N8635 G3 X-26.331 Y-37.969 R3.103
N8640 G2 X-25.331 Y-36.63 R1.397
N8645 G1 Y-36.416
N8650 G3 X-26.538 Y-37.969 R1.603
N8655 G2 X-32.331 R2.897
N8660 G3 X-33.538 Y-36.416 R1.603
N8665 G1 Y-36.63
N8670 G2 X-32.538 Y-37.969 R1.397
N8675 G3 X-32.395 Y-38.9 R3.103
N8680 G2 X-34.204 Y-41.366 R1.897
N8685 G1 X-38.919
N8690 G2 X-42.316 Y-37.969 R3.397
N8695 G1 Y-26.509
N8700 G2 X-38.919 Y-23.112 R3.397
N8705 G1 X-34.204
N8710 G2 X-32.395 Y-25.578 R1.897
N8715 G3 X-32.538 Y-26.509 R3.103
N8720 G2 X-33.538 Y-27.849 R1.397
N8725 G1 Y-28.063
N8730 G3 X-32.331 Y-26.509 R1.603
N8735 G2 X-26.538 R2.897
N8740 G3 X-25.331 Y-28.063 R1.603
N8745 G1 Y-27.849
N8750 G2 X-26.331 Y-26.509 R1.397
N8755 G3 X-27.303 Y-24.254 R3.103
N8760 G2 X-27.897 Y-22.876 R1.897
N8765 G1 Y-20.885
N8770 G2 X-27.5 Y-20.488 R0.397
N8775 G1 X-21.897
N8780 Y-20.481
N8785 X-26.985
N8790 G2 X-30.381 Y-17.084 R3.397
N8795 G1 Y-11.897
N8800 X-30.588
N8805 Y-14.545
N8810 G2 X-33.401 Y-17.891 R3.397
N8815 X-33.513 Y-17.894 R0.397
N8820 X-33.556 Y-17.897 R0.397
N8825 G1 X-47.969
N8830 G2 X-51.366 Y-14.5 R3.397
N8835 G1 Y14.5
N8840 G2 X-47.969 Y17.897 R3.397
N8845 G1 X-33.985
N8850 G2 X-30.588 Y14.5 R3.397
N8855 G1 Y11.897
N8860 X-30.381
N8865 Y17.084
N8870 G2 X-26.985 Y20.481 R3.397
N8875 G1 X-21.897
N8880 Y20.488
N8885 X-26.
N8890 G2 X-27.897 Y22.385 R1.897
N8895 G1 Y22.876
N8900 G2 X-27.303 Y24.254 R1.897
N8905 G3 X-26.331 Y26.509 R3.103
N8910 G2 X-25.331 Y27.849 R1.397
N8915 G1 Y28.063
N8920 G3 X-26.538 Y26.509 R1.603
N8925 G2 X-32.331 R2.897
N8930 G3 X-33.538 Y28.063 R1.603
N8935 G1 Y27.849
N8940 G2 X-32.538 Y26.509 R1.397
N8945 G3 X-32.395 Y25.578 R3.103
N8950 G2 X-34.204 Y23.112 R1.897
N8955 G1 X-38.919
N8960 G2 X-42.316 Y26.509 R3.397
N8965 G1 Y37.969
N8970 G2 X-38.919 Y41.366 R3.397
N8975 G1 X-34.204
N8980 G2 X-32.395 Y38.9 R1.897
N8985 G3 X-32.538 Y37.969 R3.103
N8990 G2 X-33.538 Y36.63 R1.397
N8995 G1 Y36.416
N9000 G3 X-32.331 Y37.969 R1.603
N9005 G2 X-26.538 R2.897
N9010 G3 X-25.331 Y36.416 R1.603
N9015 G1 Y36.63
N9020 G2 X-26.331 Y37.969 R1.397
N9025 G3 X-26.474 Y38.9 R3.103
N9030 G2 X-24.665 Y41.366 R1.897
N9035 G1 X24.665
N9040 G2 X26.474 Y38.9 R1.897
N9045 G3 X26.331 Y37.969 R3.103
N9050 G2 X25.331 Y36.63 R1.397
N9055 G1 Y36.416
N9060 G3 X26.538 Y37.969 R1.603
N9065 G2 X32.331 R2.897
N9070 G3 X33.538 Y36.416 R1.603
N9075 G1 Y36.63
N9080 G2 X32.538 Y37.969 R1.397
N9085 G3 X32.395 Y38.9 R3.103
N9090 G2 X34.204 Y41.366 R1.897
N9095 G1 X38.919
N9100 G2 X42.316 Y37.969 R3.397
N9105 G1 Y26.509
N9110 G2 X38.919 Y23.112 R3.397
N9115 G1 X34.204
N9120 G2 X32.395 Y25.578 R1.897
N9125 G3 X32.538 Y26.509 R3.103
N9130 G2 X33.538 Y27.849 R1.397
N9135 G1 Y28.063
N9140 G3 X32.331 Y26.509 R1.603
N9145 G2 X26.538 R2.897
N9150 G3 X25.331 Y28.063 R1.603
N9155 G1 Y27.849
N9160 G2 X26.331 Y26.509 R1.397
N9165 G3 X27.303 Y24.254 R3.103
N9170 G2 X27.897 Y22.876 R1.897
N9175 G1 Y22.385
N9180 G2 X26. Y20.488 R1.897
N9185 G1 X21.9
N9190 G0 Z7.

(OUTSIDE CONTOUR 1)
N9200 M8
N9205 G0 X-51.366 Y2.036
N9210 Z7.
N9215 Z0.25
N9220 G1 Z-1.1 F10.
N9225 Y14.5 F50.
N9230 G2 X-47.969 Y17.897 R3.397
N9235 G1 X-33.985
N9240 G2 X-30.588 Y14.5 R3.397
N9245 G1 Y11.897
N9250 X-30.381
N9255 Y17.084
N9260 G2 X-26.985 Y20.481 R3.397
N9265 G1 X-21.897
N9270 Y20.488
N9275 X-26.
N9280 G2 X-27.897 Y22.385 R1.897
N9285 G1 Y22.876
N9290 G2 X-27.303 Y24.254 R1.897
N9295 G3 X-26.331 Y26.509 R3.103
N9300 G2 X-25.331 Y27.849 R1.397
N9305 G1 Y28.063
N9310 G3 X-26.538 Y26.509 R1.603
N9315 G2 X-32.331 R2.897
N9320 G3 X-33.538 Y28.063 R1.603
N9325 G1 Y27.849
N9330 G2 X-32.538 Y26.509 R1.397
N9335 G3 X-32.395 Y25.578 R3.103
N9340 G2 X-34.204 Y23.112 R1.897
N9345 G1 X-38.919
N9350 G2 X-42.316 Y26.509 R3.397
N9355 G1 Y30.201
N9360 G0 Z2.
N9365 Y34.278
N9370 Z0.25
N9375 G1 Z-1.1 F10.
N9380 Y37.969 F50.
N9385 G2 X-38.919 Y41.366 R3.397
N9390 G1 X-34.204
N9395 G2 X-32.395 Y38.9 R1.897
N9400 G3 X-32.538 Y37.969 R3.103
N9405 G2 X-33.538 Y36.63 R1.397
N9410 G1 Y36.416
N9415 G3 X-32.331 Y37.969 R1.603
N9420 G2 X-26.538 R2.897
N9425 G3 X-25.331 Y36.416 R1.603
N9430 G1 Y36.63
N9435 G2 X-26.331 Y37.969 R1.397
N9440 G3 X-26.474 Y38.9 R3.103
N9445 G2 X-24.665 Y41.366 R1.897
N9450 G1 X24.665
N9455 G2 X26.474 Y38.9 R1.897
N9460 G3 X26.331 Y37.969 R3.103
N9465 G2 X25.331 Y36.63 R1.397
N9470 G1 Y36.416
N9475 G3 X26.538 Y37.969 R1.603
N9480 G2 X32.331 R2.897
N9485 G3 X33.538 Y36.416 R1.603
N9490 G1 Y36.63
N9495 G2 X32.538 Y37.969 R1.397
N9500 G3 X32.395 Y38.9 R3.103
N9505 G2 X34.204 Y41.366 R1.897
N9510 G1 X38.919
N9515 G2 X42.316 Y37.969 R3.397
N9520 G1 Y34.207
N9525 G0 Z2.
N9530 Y30.272
N9535 Z0.25
N9540 G1 Z-1.1 F10.
N9545 Y26.509 F50.
N9550 G2 X38.919 Y23.112 R3.397
N9555 G1 X34.204
N9560 G2 X32.395 Y25.578 R1.897
N9565 G3 X32.538 Y26.509 R3.103
N9570 G2 X33.538 Y27.849 R1.397
N9575 G1 Y28.063
N9580 G3 X32.331 Y26.509 R1.603
N9585 G2 X26.538 R2.897
N9590 G3 X25.331 Y28.063 R1.603
N9595 G1 Y27.849
N9600 G2 X26.331 Y26.509 R1.397
N9605 G3 X27.303 Y24.254 R3.103
N9610 G2 X27.897 Y22.876 R1.897
N9615 G1 Y22.385
N9620 G2 X26. Y20.488 R1.897
N9625 G1 X21.897
N9630 Y20.481
N9635 X26.985
N9640 G2 X30.381 Y17.084 R3.397
N9645 G1 Y11.897
N9650 X30.588
N9655 Y14.5
N9660 G2 X33.985 Y17.897 R3.397
N9665 G1 X47.969
N9670 G2 X51.366 Y14.5 R3.397
N9675 G1 Y2.183
N9680 G0 Z2.
N9685 Y-2.183
N9690 Z0.25
N9695 G1 Z-1.1 F10.
N9700 Y-14.5 F50.
N9705 G2 X47.969 Y-17.897 R3.397
N9710 G1 X33.556
N9715 G2 X33.513 Y-17.894 R0.397
N9720 X33.401 Y-17.891 R0.397
N9725 X30.588 Y-14.545 R3.397
N9730 G1 Y-11.897
N9735 X30.381
N9740 Y-17.084
N9745 G2 X26.985 Y-20.481 R3.397
N9750 G1 X21.897
N9755 Y-20.488
N9760 X26.
N9765 G2 X27.897 Y-22.385 R1.897
N9770 G1 Y-22.876
N9775 G2 X27.303 Y-24.254 R1.897
N9780 G3 X26.331 Y-26.509 R3.103
N9785 G2 X25.331 Y-27.849 R1.397
N9790 G1 Y-28.063
N9795 G3 X26.538 Y-26.509 R1.603
N9800 G2 X32.331 R2.897
N9805 G3 X33.538 Y-28.063 R1.603
N9810 G1 Y-27.849
N9815 G2 X32.538 Y-26.509 R1.397
N9820 G3 X32.395 Y-25.578 R3.103
N9825 G2 X34.204 Y-23.112 R1.897
N9830 G1 X38.919
N9835 G2 X42.316 Y-26.509 R3.397
N9840 G1 Y-30.217
N9845 G0 Z2.
N9850 Y-34.261
N9855 Z0.25
N9860 G1 Z-1.1 F10.
N9865 Y-37.969 F50.
N9870 G2 X38.919 Y-41.366 R3.397
N9875 G1 X34.204
N9880 G2 X32.395 Y-38.9 R1.897
N9885 G3 X32.538 Y-37.969 R3.103
N9890 G2 X33.538 Y-36.63 R1.397
N9895 G1 Y-36.416
N9900 G3 X32.331 Y-37.969 R1.603
N9905 G2 X26.538 R2.897
N9910 G3 X25.331 Y-36.416 R1.603
N9915 G1 Y-36.63
N9920 G2 X26.331 Y-37.969 R1.397
N9925 G3 X26.474 Y-38.9 R3.103
N9930 G2 X24.665 Y-41.366 R1.897
N9935 G1 X-24.665
N9940 G2 X-26.474 Y-38.9 R1.897
N9945 G3 X-26.331 Y-37.969 R3.103
N9950 G2 X-25.331 Y-36.63 R1.397
N9955 G1 Y-36.416
N9960 G3 X-26.538 Y-37.969 R1.603
N9965 G2 X-32.331 R2.897
N9970 G3 X-33.538 Y-36.416 R1.603
N9975 G1 Y-36.63
N9980 G2 X-32.538 Y-37.969 R1.397
N9985 G3 X-32.395 Y-38.9 R3.103
N9990 G2 X-34.204 Y-41.366 R1.897
N9995 G1 X-38.919
N10000 G2 X-42.316 Y-37.969 R3.397
N10005 G1 Y-34.215
N10010 G0 Z2.
N10015 Y-30.264
N10020 Z0.25
N10025 G1 Z-1.1 F10.
N10030 Y-26.509 F50.
N10035 G2 X-38.919 Y-23.112 R3.397
N10040 G1 X-34.204
N10045 G2 X-32.395 Y-25.578 R1.897
N10050 G3 X-32.538 Y-26.509 R3.103
N10055 G2 X-33.538 Y-27.849 R1.397
N10060 G1 Y-28.063
N10065 G3 X-32.331 Y-26.509 R1.603
N10070 G2 X-26.538 R2.897
N10075 G3 X-25.331 Y-28.063 R1.603
N10080 G1 Y-27.849
N10085 G2 X-26.331 Y-26.509 R1.397
N10090 G3 X-27.303 Y-24.254 R3.103
N10095 G2 X-27.897 Y-22.876 R1.897
N10100 G1 Y-20.885
N10105 G2 X-27.5 Y-20.488 R0.397
N10110 G1 X-21.897
N10115 Y-20.481
N10120 X-26.985
N10125 G2 X-30.381 Y-17.084 R3.397
N10130 G1 Y-11.897
N10135 X-30.588
N10140 Y-14.545
N10145 G2 X-33.401 Y-17.891 R3.397
N10150 X-33.513 Y-17.894 R0.397
N10155 X-33.556 Y-17.897 R0.397
N10160 G1 X-47.969
N10165 G2 X-51.366 Y-14.5 R3.397
N10170 G1 Y-2.036
N10175 G0 Z7.

N10185 M9
N10190 M30
