(ABS FOLDABLE POSCON MOUNT)
(T1  D=0.794 CR=0. - ZMIN=-3.275 - FLAT END MILL)
(T25  D=1.93 CR=0. TAPER=118DEG - ZMIN=-3.855 - DRILL)
N10 G90 G94 G91.1 G40 G49 G17
N15 G21

(DRILL HOLES)
N20 M5
N25 M9
N30 T25 M6
N35 S10500 M3
N40 G54
N45 M9
N55 G0 X26.254 Y8.492
N60 G43 Z11. H25
N70 Z1.
N75 G98 G83 X26.254 Y8.492 Z-3.855 R1. Q0.5 F100.
N80 Y-17.008
N85 G80
N90 Z11.

(OUTSIDE CONTOUR)
N100 M5
N105 M9
N110 M1
N115 T1 M6
N120 S10500 M3
N125 M8
N135 G0 X8.302 Y2.417
N140 G43 Z6. H1
N145 Z1.4
N150 G1 Z-0.4 F30.
N155 Y-10.158 F120.
N160 G2 X3.72 Y-12.271 R2.778
N165 G1 X3.715 Y-12.267
N170 G3 X-1.933 Y-13.586 R3.647
N175 X-1.691 Y-14.641 R0.897
N180 G1 X0.335 Y-16.341
N185 G3 X13.596 Y-10.178 R8.072
N190 G2 X13.699 Y-10.075 R0.103
N195 X13.802 Y-10.178 R0.103
N200 X-0.945 Y-16.821 R8.87
N205 G3 X-1.066 Y-16.748 R0.397
N210 X-2.88 Y-19.199 R1.583
N215 X15.882 Y-26.253 R19.195
N220 X17.421 Y-24.39 R1.897
N225 G1 Y-22.151
N230 G2 X17.524 Y-22.048 R0.103
N235 G1 X26.254
N240 G3 Y-11.968 R5.04
N245 G1 X20.707
N250 G2 X20.604 Y-11.865 R0.103
N255 G1 Y3.242
N260 G2 X20.707 Y3.345 R0.103
N265 G1 X26.254
N270 G3 Y13.639 R5.147
N275 G1 X17.524
N280 G2 X17.421 Y13.742 R0.103
N285 G1 Y17.242
N290 G2 X17.524 Y17.345 R0.103
N295 G1 X33.417
N300 G3 X35.314 Y19.242 R1.897
N305 G1 Y19.321
N310 G3 X34.195 Y21.05 R1.897
N315 X3.791 Y26.432 R63.004
N320 X-34.468 Y13.329 R79.367
N325 X-35.314 Y11.75 R1.897
N330 G1 Y11.108
N335 G3 X-33.417 Y9.211 R1.897
N340 G1 X-1.658
N345 G3 X2.788 Y14.51 R4.515
N350 G2 X5.282 Y17.76 R2.778
N355 X8.302 Y14.992 R2.778
N360 G1 Y2.417
N365 Z-0.8 F30.
N370 Y-10.158 F120.
N375 G2 X3.72 Y-12.271 R2.778
N380 G1 X3.715 Y-12.267
N385 G3 X-1.933 Y-13.586 R3.647
N390 X-1.691 Y-14.641 R0.897
N395 G1 X0.335 Y-16.341
N400 G3 X13.596 Y-10.178 R8.072
N405 G2 X13.699 Y-10.075 R0.103
N410 X13.802 Y-10.178 R0.103
N415 X-0.945 Y-16.821 R8.87
N420 G3 X-1.066 Y-16.748 R0.397
N425 X-2.88 Y-19.199 R1.583
N430 X15.882 Y-26.253 R19.195
N435 X17.421 Y-24.39 R1.897
N440 G1 Y-22.151
N445 G2 X17.524 Y-22.048 R0.103
N450 G1 X26.254
N455 G3 Y-11.968 R5.04
N460 G1 X20.707
N465 G2 X20.604 Y-11.865 R0.103
N470 G1 Y3.242
N475 G2 X20.707 Y3.345 R0.103
N480 G1 X26.254
N485 G3 Y13.639 R5.147
N490 G1 X17.524
N495 G2 X17.421 Y13.742 R0.103
N500 G1 Y17.242
N505 G2 X17.524 Y17.345 R0.103
N510 G1 X33.417
N515 G3 X35.314 Y19.242 R1.897
N520 G1 Y19.321
N525 G3 X34.195 Y21.05 R1.897
N530 X3.791 Y26.432 R63.004
N535 X-34.468 Y13.329 R79.367
N540 X-35.314 Y11.75 R1.897
N545 G1 Y11.108
N550 G3 X-33.417 Y9.211 R1.897
N555 G1 X-1.658
N560 G3 X2.788 Y14.51 R4.515
N565 G2 X5.282 Y17.76 R2.778
N570 X8.302 Y14.992 R2.778
N575 G1 Y2.417
N580 Z-1.2 F30.
N585 Y-10.158 F120.
N590 G2 X3.72 Y-12.271 R2.778
N595 G1 X3.715 Y-12.267
N600 G3 X-1.933 Y-13.586 R3.647
N605 X-1.691 Y-14.641 R0.897
N610 G1 X0.335 Y-16.341
N615 G3 X13.596 Y-10.178 R8.072
N620 G2 X13.699 Y-10.075 R0.103
N625 X13.802 Y-10.178 R0.103
N630 X-0.945 Y-16.821 R8.87
N635 G3 X-1.066 Y-16.748 R0.397
N640 X-2.88 Y-19.199 R1.583
N645 X15.882 Y-26.253 R19.195
N650 X17.421 Y-24.39 R1.897
N655 G1 Y-22.151
N660 G2 X17.524 Y-22.048 R0.103
N665 G1 X26.254
N670 G3 Y-11.968 R5.04
N675 G1 X20.707
N680 G2 X20.604 Y-11.865 R0.103
N685 G1 Y3.242
N690 G2 X20.707 Y3.345 R0.103
N695 G1 X26.254
N700 G3 Y13.639 R5.147
N705 G1 X17.524
N710 G2 X17.421 Y13.742 R0.103
N715 G1 Y17.242
N720 G2 X17.524 Y17.345 R0.103
N725 G1 X33.417
N730 G3 X35.314 Y19.242 R1.897
N735 G1 Y19.321
N740 G3 X34.195 Y21.05 R1.897
N745 X3.791 Y26.432 R63.004
N750 X-34.468 Y13.329 R79.367
N755 X-35.314 Y11.75 R1.897
N760 G1 Y11.108
N765 G3 X-33.417 Y9.211 R1.897
N770 G1 X-1.658
N775 G3 X2.788 Y14.51 R4.515
N780 G2 X5.282 Y17.76 R2.778
N785 X8.302 Y14.992 R2.778
N790 G1 Y2.417
N795 Z-1.6 F30.
N800 Y-10.158 F120.
N805 G2 X3.72 Y-12.271 R2.778
N810 G1 X3.715 Y-12.267
N815 G3 X-1.933 Y-13.586 R3.647
N820 X-1.691 Y-14.641 R0.897
N825 G1 X0.335 Y-16.341
N830 G3 X13.596 Y-10.178 R8.072
N835 G2 X13.699 Y-10.075 R0.103
N840 X13.802 Y-10.178 R0.103
N845 X-0.945 Y-16.821 R8.87
N850 G3 X-1.066 Y-16.748 R0.397
N855 X-2.88 Y-19.199 R1.583
N860 X15.882 Y-26.253 R19.195
N865 X17.421 Y-24.39 R1.897
N870 G1 Y-22.151
N875 G2 X17.524 Y-22.048 R0.103
N880 G1 X26.254
N885 G3 Y-11.968 R5.04
N890 G1 X20.707
N895 G2 X20.604 Y-11.865 R0.103
N900 G1 Y3.242
N905 G2 X20.707 Y3.345 R0.103
N910 G1 X26.254
N915 G3 Y13.639 R5.147
N920 G1 X17.524
N925 G2 X17.421 Y13.742 R0.103
N930 G1 Y17.242
N935 G2 X17.524 Y17.345 R0.103
N940 G1 X33.417
N945 G3 X35.314 Y19.242 R1.897
N950 G1 Y19.321
N955 G3 X34.195 Y21.05 R1.897
N960 X3.791 Y26.432 R63.004
N965 X-34.468 Y13.329 R79.367
N970 X-35.314 Y11.75 R1.897
N975 G1 Y11.108
N980 G3 X-33.417 Y9.211 R1.897
N985 G1 X-1.658
N990 G3 X2.788 Y14.51 R4.515
N995 G2 X5.282 Y17.76 R2.778
N1000 X8.302 Y14.992 R2.778
N1005 G1 Y2.417
N1010 Z-2. F30.
N1015 Y-10.158 F120.
N1020 G2 X3.72 Y-12.271 R2.778
N1025 G1 X3.715 Y-12.267
N1030 G3 X-1.933 Y-13.586 R3.647
N1035 X-1.691 Y-14.641 R0.897
N1040 G1 X0.335 Y-16.341
N1045 G3 X13.596 Y-10.178 R8.072
N1050 G2 X13.699 Y-10.075 R0.103
N1055 X13.802 Y-10.178 R0.103
N1060 X-0.945 Y-16.821 R8.87
N1065 G3 X-1.066 Y-16.748 R0.397
N1070 X-2.88 Y-19.199 R1.583
N1075 X15.882 Y-26.253 R19.195
N1080 X17.421 Y-24.39 R1.897
N1085 G1 Y-22.151
N1090 G2 X17.524 Y-22.048 R0.103
N1095 G1 X26.254
N1100 G3 Y-11.968 R5.04
N1105 G1 X20.707
N1110 G2 X20.604 Y-11.865 R0.103
N1115 G1 Y3.242
N1120 G2 X20.707 Y3.345 R0.103
N1125 G1 X26.254
N1130 G3 Y13.639 R5.147
N1135 G1 X17.524
N1140 G2 X17.421 Y13.742 R0.103
N1145 G1 Y17.242
N1150 G2 X17.524 Y17.345 R0.103
N1155 G1 X33.417
N1160 G3 X35.314 Y19.242 R1.897
N1165 G1 Y19.321
N1170 G3 X34.195 Y21.05 R1.897
N1175 X3.791 Y26.432 R63.004
N1180 X-34.468 Y13.329 R79.367
N1185 X-35.314 Y11.75 R1.897
N1190 G1 Y11.108
N1195 G3 X-33.417 Y9.211 R1.897
N1200 G1 X-1.658
N1205 G3 X2.788 Y14.51 R4.515
N1210 G2 X5.282 Y17.76 R2.778
N1215 X8.302 Y14.992 R2.778
N1220 G1 Y2.417
N1225 Z-2.4 F30.
N1230 Y-10.158 F120.
N1235 G2 X3.72 Y-12.271 R2.778
N1240 G1 X3.715 Y-12.267
N1245 G3 X-1.933 Y-13.586 R3.647
N1250 X-1.691 Y-14.641 R0.897
N1255 G1 X0.335 Y-16.341
N1260 G3 X13.596 Y-10.178 R8.072
N1265 G2 X13.699 Y-10.075 R0.103
N1270 X13.802 Y-10.178 R0.103
N1275 X-0.945 Y-16.821 R8.87
N1280 G3 X-1.066 Y-16.748 R0.397
N1285 X-2.88 Y-19.199 R1.583
N1290 X15.882 Y-26.253 R19.195
N1295 X17.421 Y-24.39 R1.897
N1300 G1 Y-22.151
N1305 G2 X17.524 Y-22.048 R0.103
N1310 G1 X26.254
N1315 G3 Y-11.968 R5.04
N1320 G1 X20.707
N1325 G2 X20.604 Y-11.865 R0.103
N1330 G1 Y3.242
N1335 G2 X20.707 Y3.345 R0.103
N1340 G1 X26.254
N1345 G3 Y13.639 R5.147
N1350 G1 X17.524
N1355 G2 X17.421 Y13.742 R0.103
N1360 G1 Y17.242
N1365 G2 X17.524 Y17.345 R0.103
N1370 G1 X33.417
N1375 G3 X35.314 Y19.242 R1.897
N1380 G1 Y19.321
N1385 G3 X34.195 Y21.05 R1.897
N1390 X3.791 Y26.432 R63.004
N1395 X-34.468 Y13.329 R79.367
N1400 X-35.314 Y11.75 R1.897
N1405 G1 Y11.108
N1410 G3 X-33.417 Y9.211 R1.897
N1415 G1 X-1.658
N1420 G3 X2.788 Y14.51 R4.515
N1425 G2 X5.282 Y17.76 R2.778
N1430 X8.302 Y14.992 R2.778
N1435 G1 Y2.417
N1440 Z-2.775 F30.
N1445 Y-10.158 F120.
N1450 G2 X3.72 Y-12.271 R2.778
N1455 G1 X3.715 Y-12.267
N1460 G3 X-1.933 Y-13.586 R3.647
N1465 X-1.691 Y-14.641 R0.897
N1470 G1 X0.335 Y-16.341
N1475 G3 X13.596 Y-10.178 R8.072
N1480 G2 X13.699 Y-10.075 R0.103
N1485 X13.802 Y-10.178 R0.103
N1490 X-0.945 Y-16.821 R8.87
N1495 G3 X-1.066 Y-16.748 R0.397
N1500 X-2.88 Y-19.199 R1.583
N1505 X15.882 Y-26.253 R19.195
N1510 X17.421 Y-24.39 R1.897
N1515 G1 Y-22.151
N1520 G2 X17.524 Y-22.048 R0.103
N1525 G1 X26.254
N1530 G3 Y-11.968 R5.04
N1535 G1 X20.707
N1540 G2 X20.604 Y-11.865 R0.103
N1545 G1 Y3.242
N1550 G2 X20.707 Y3.345 R0.103
N1555 G1 X26.254
N1560 G3 Y13.639 R5.147
N1565 G1 X17.524
N1570 G2 X17.421 Y13.742 R0.103
N1575 G1 Y17.242
N1580 G2 X17.524 Y17.345 R0.103
N1585 G1 X33.417
N1590 G3 X35.314 Y19.242 R1.897
N1595 G1 Y19.321
N1600 G3 X34.195 Y21.05 R1.897
N1605 X3.791 Y26.432 R63.004
N1610 X-34.468 Y13.329 R79.367
N1615 X-35.314 Y11.75 R1.897
N1620 G1 Y11.108
N1625 G3 X-33.417 Y9.211 R1.897
N1630 G1 X-1.658
N1635 G3 X2.788 Y14.51 R4.515
N1640 G2 X5.282 Y17.76 R2.778
N1645 X8.302 Y14.992 R2.778
N1650 G1 Y2.417
N1655 G0 Z6.

(OUTSIDE CONTOUR WITH TABS)
N1665 M8
N1670 G0 X20.604 Y-2.258
N1675 Z6.
N1680 Z-1.775
N1685 G1 Z-3.275 F30.
N1690 Y3.242 F120.
N1695 G2 X20.707 Y3.345 R0.103
N1700 G1 X26.254
N1705 G3 Y13.639 R5.147
N1710 G1 X17.524
N1715 G2 X17.421 Y13.742 R0.103
N1720 G1 Y17.242
N1725 G2 X17.524 Y17.345 R0.103
N1730 G1 X33.417
N1735 G3 X35.314 Y19.242 R1.897
N1740 G1 Y19.321
N1745 G3 X34.195 Y21.05 R1.897
N1750 X3.791 Y26.432 R63.004
N1755 X-4.515 Y25.387 R79.367
N1760 G0 Z1.
N1765 X-8.462 Y24.574
N1770 Z-1.775
N1775 G1 Z-3.275 F30.
N1780 G3 X-34.468 Y13.329 R79.367 F120.
N1785 X-35.314 Y11.75 R1.897
N1790 G1 Y11.108
N1795 G3 X-33.417 Y9.211 R1.897
N1800 G1 X-19.646
N1805 G0 Z1.
N1810 X-15.429
N1815 Z-1.775
N1820 G1 Z-3.275 F30.
N1825 X-1.658 F120.
N1830 G3 X2.788 Y14.51 R4.515
N1835 G2 X5.282 Y17.76 R2.778
N1840 X8.302 Y14.992 R2.778
N1845 G1 Y-10.158
N1850 G2 X3.72 Y-12.271 R2.778
N1855 G1 X3.715 Y-12.267
N1860 G3 X-1.933 Y-13.586 R3.647
N1865 X-1.691 Y-14.641 R0.897
N1870 G1 X0.335 Y-16.341
N1875 G3 X13.596 Y-10.178 R8.072
N1880 G2 X13.699 Y-10.075 R0.103
N1885 X13.802 Y-10.178 R0.103
N1890 X-0.945 Y-16.821 R8.87
N1895 G3 X-1.066 Y-16.748 R0.397
N1900 X-2.88 Y-19.199 R1.583
N1905 X3.617 Y-24.54 R19.195
N1910 G0 Z1.
N1915 X7.475 Y-25.991
N1920 Z-1.775
N1925 G1 Z-3.275 F30.
N1930 G3 X15.882 Y-26.253 R19.195 F120.
N1935 X17.421 Y-24.39 R1.897
N1940 G1 Y-22.151
N1945 G2 X17.524 Y-22.048 R0.103
N1950 G1 X26.254
N1955 G3 Y-11.968 R5.04
N1960 G1 X20.707
N1965 G2 X20.604 Y-11.865 R0.103
N1970 G1 Y-6.365
N1975 G0 Z6.

N1985 M9
N1990 M30
