(2-UP ABS CART MOUNTS FOR FOLDED ALUMINUM POSCON)
(STOCK SIZE IS 180MM X 60 MM X .125" BLACK ABS)

(FOLDER)
(T1  D=0.794 CR=0. - ZMIN=-3.275 - FLAT END MILL)
(T25  D=1.93 CR=0. TAPER=118DEG - ZMIN=-3.855 - DRILL)
N10 G90 G94 G91.1 G40 G49 G17
N15 G21

(DRILL HOLES)
(#48 DRILL)
N20 M5
N25 M9
N30 T25 M6
N35 S10500 M3
N40 G54
N45 M9
N55 G0 X61.337 Y8.492
N60 G43 Z11. H25
N70 Z1.
N75 G98 G83 X61.337 Y8.492 Z-3.855 R1. Q0.5 F100.
N80 Y-17.008
N85 G80
N90 Z11.

(DRILL HOLES)
N100 M9
N105 G0 X-8.663 Y8.492
N110 Z11.
N120 Z1.
N125 G83 X-8.663 Y8.492 Z-3.855 R1. Q0.5 F100.
N130 Y-17.008
N135 G80
N140 Z11.

(OUTSIDE CONTOUR)
(1/32 END MILL)
N150 M5
N155 M9
N160 M1
N165 T1 M6
N170 S10500 M3
N175 M8
N185 G0 X43.385 Y2.417
N190 G43 Z6. H1
N195 Z1.4
N200 G1 Z-0.4 F30.
N205 Y-10.158 F120.
N210 G2 X38.803 Y-12.271 R2.778
N215 G1 X38.798 Y-12.267
N220 G3 X33.15 Y-13.586 R3.647
N225 X33.392 Y-14.641 R0.897
N230 G1 X35.419 Y-16.341
N235 G3 X48.679 Y-10.178 R8.072
N240 G2 X48.782 Y-10.075 R0.103
N245 X48.885 Y-10.178 R0.103
N250 X34.139 Y-16.821 R8.87
N255 G3 X34.018 Y-16.748 R0.397
N260 X32.203 Y-19.199 R1.583
N265 X50.965 Y-26.253 R19.195
N270 X52.504 Y-24.39 R1.897
N275 G1 Y-22.151
N280 G2 X52.607 Y-22.048 R0.103
N285 G1 X61.337
N290 G3 Y-11.968 R5.04
N295 G1 X55.79
N300 G2 X55.687 Y-11.865 R0.103
N305 G1 Y3.242
N310 G2 X55.79 Y3.345 R0.103
N315 G1 X61.337
N320 G3 Y13.639 R5.147
N325 G1 X52.607
N330 G2 X52.504 Y13.742 R0.103
N335 G1 Y17.242
N340 G2 X52.607 Y17.345 R0.103
N345 G1 X68.5
N350 G3 X70.397 Y19.242 R1.897
N355 G1 Y19.321
N360 G3 X69.278 Y21.05 R1.897
N365 X38.874 Y26.432 R63.004
N370 X0.615 Y13.329 R79.367
N375 X-0.23 Y11.75 R1.897
N380 G1 Y11.108
N385 G3 X1.667 Y9.211 R1.897
N390 G1 X33.425
N395 G3 X37.871 Y14.51 R4.515
N400 G2 X40.365 Y17.76 R2.778
N405 X43.385 Y14.992 R2.778
N410 G1 Y2.417
N415 Z-0.8 F30.
N420 Y-10.158 F120.
N425 G2 X38.803 Y-12.271 R2.778
N430 G1 X38.798 Y-12.267
N435 G3 X33.15 Y-13.586 R3.647
N440 X33.392 Y-14.641 R0.897
N445 G1 X35.419 Y-16.341
N450 G3 X48.679 Y-10.178 R8.072
N455 G2 X48.782 Y-10.075 R0.103
N460 X48.885 Y-10.178 R0.103
N465 X34.139 Y-16.821 R8.87
N470 G3 X34.018 Y-16.748 R0.397
N475 X32.203 Y-19.199 R1.583
N480 X50.965 Y-26.253 R19.195
N485 X52.504 Y-24.39 R1.897
N490 G1 Y-22.151
N495 G2 X52.607 Y-22.048 R0.103
N500 G1 X61.337
N505 G3 Y-11.968 R5.04
N510 G1 X55.79
N515 G2 X55.687 Y-11.865 R0.103
N520 G1 Y3.242
N525 G2 X55.79 Y3.345 R0.103
N530 G1 X61.337
N535 G3 Y13.639 R5.147
N540 G1 X52.607
N545 G2 X52.504 Y13.742 R0.103
N550 G1 Y17.242
N555 G2 X52.607 Y17.345 R0.103
N560 G1 X68.5
N565 G3 X70.397 Y19.242 R1.897
N570 G1 Y19.321
N575 G3 X69.278 Y21.05 R1.897
N580 X38.874 Y26.432 R63.004
N585 X0.615 Y13.329 R79.367
N590 X-0.23 Y11.75 R1.897
N595 G1 Y11.108
N600 G3 X1.667 Y9.211 R1.897
N605 G1 X33.425
N610 G3 X37.871 Y14.51 R4.515
N615 G2 X40.365 Y17.76 R2.778
N620 X43.385 Y14.992 R2.778
N625 G1 Y2.417
N630 Z-1.2 F30.
N635 Y-10.158 F120.
N640 G2 X38.803 Y-12.271 R2.778
N645 G1 X38.798 Y-12.267
N650 G3 X33.15 Y-13.586 R3.647
N655 X33.392 Y-14.641 R0.897
N660 G1 X35.419 Y-16.341
N665 G3 X48.679 Y-10.178 R8.072
N670 G2 X48.782 Y-10.075 R0.103
N675 X48.885 Y-10.178 R0.103
N680 X34.139 Y-16.821 R8.87
N685 G3 X34.018 Y-16.748 R0.397
N690 X32.203 Y-19.199 R1.583
N695 X50.965 Y-26.253 R19.195
N700 X52.504 Y-24.39 R1.897
N705 G1 Y-22.151
N710 G2 X52.607 Y-22.048 R0.103
N715 G1 X61.337
N720 G3 Y-11.968 R5.04
N725 G1 X55.79
N730 G2 X55.687 Y-11.865 R0.103
N735 G1 Y3.242
N740 G2 X55.79 Y3.345 R0.103
N745 G1 X61.337
N750 G3 Y13.639 R5.147
N755 G1 X52.607
N760 G2 X52.504 Y13.742 R0.103
N765 G1 Y17.242
N770 G2 X52.607 Y17.345 R0.103
N775 G1 X68.5
N780 G3 X70.397 Y19.242 R1.897
N785 G1 Y19.321
N790 G3 X69.278 Y21.05 R1.897
N795 X38.874 Y26.432 R63.004
N800 X0.615 Y13.329 R79.367
N805 X-0.23 Y11.75 R1.897
N810 G1 Y11.108
N815 G3 X1.667 Y9.211 R1.897
N820 G1 X33.425
N825 G3 X37.871 Y14.51 R4.515
N830 G2 X40.365 Y17.76 R2.778
N835 X43.385 Y14.992 R2.778
N840 G1 Y2.417
N845 Z-1.6 F30.
N850 Y-10.158 F120.
N855 G2 X38.803 Y-12.271 R2.778
N860 G1 X38.798 Y-12.267
N865 G3 X33.15 Y-13.586 R3.647
N870 X33.392 Y-14.641 R0.897
N875 G1 X35.419 Y-16.341
N880 G3 X48.679 Y-10.178 R8.072
N885 G2 X48.782 Y-10.075 R0.103
N890 X48.885 Y-10.178 R0.103
N895 X34.139 Y-16.821 R8.87
N900 G3 X34.018 Y-16.748 R0.397
N905 X32.203 Y-19.199 R1.583
N910 X50.965 Y-26.253 R19.195
N915 X52.504 Y-24.39 R1.897
N920 G1 Y-22.151
N925 G2 X52.607 Y-22.048 R0.103
N930 G1 X61.337
N935 G3 Y-11.968 R5.04
N940 G1 X55.79
N945 G2 X55.687 Y-11.865 R0.103
N950 G1 Y3.242
N955 G2 X55.79 Y3.345 R0.103
N960 G1 X61.337
N965 G3 Y13.639 R5.147
N970 G1 X52.607
N975 G2 X52.504 Y13.742 R0.103
N980 G1 Y17.242
N985 G2 X52.607 Y17.345 R0.103
N990 G1 X68.5
N995 G3 X70.397 Y19.242 R1.897
N1000 G1 Y19.321
N1005 G3 X69.278 Y21.05 R1.897
N1010 X38.874 Y26.432 R63.004
N1015 X0.615 Y13.329 R79.367
N1020 X-0.23 Y11.75 R1.897
N1025 G1 Y11.108
N1030 G3 X1.667 Y9.211 R1.897
N1035 G1 X33.425
N1040 G3 X37.871 Y14.51 R4.515
N1045 G2 X40.365 Y17.76 R2.778
N1050 X43.385 Y14.992 R2.778
N1055 G1 Y2.417
N1060 Z-2. F30.
N1065 Y-10.158 F120.
N1070 G2 X38.803 Y-12.271 R2.778
N1075 G1 X38.798 Y-12.267
N1080 G3 X33.15 Y-13.586 R3.647
N1085 X33.392 Y-14.641 R0.897
N1090 G1 X35.419 Y-16.341
N1095 G3 X48.679 Y-10.178 R8.072
N1100 G2 X48.782 Y-10.075 R0.103
N1105 X48.885 Y-10.178 R0.103
N1110 X34.139 Y-16.821 R8.87
N1115 G3 X34.018 Y-16.748 R0.397
N1120 X32.203 Y-19.199 R1.583
N1125 X50.965 Y-26.253 R19.195
N1130 X52.504 Y-24.39 R1.897
N1135 G1 Y-22.151
N1140 G2 X52.607 Y-22.048 R0.103
N1145 G1 X61.337
N1150 G3 Y-11.968 R5.04
N1155 G1 X55.79
N1160 G2 X55.687 Y-11.865 R0.103
N1165 G1 Y3.242
N1170 G2 X55.79 Y3.345 R0.103
N1175 G1 X61.337
N1180 G3 Y13.639 R5.147
N1185 G1 X52.607
N1190 G2 X52.504 Y13.742 R0.103
N1195 G1 Y17.242
N1200 G2 X52.607 Y17.345 R0.103
N1205 G1 X68.5
N1210 G3 X70.397 Y19.242 R1.897
N1215 G1 Y19.321
N1220 G3 X69.278 Y21.05 R1.897
N1225 X38.874 Y26.432 R63.004
N1230 X0.615 Y13.329 R79.367
N1235 X-0.23 Y11.75 R1.897
N1240 G1 Y11.108
N1245 G3 X1.667 Y9.211 R1.897
N1250 G1 X33.425
N1255 G3 X37.871 Y14.51 R4.515
N1260 G2 X40.365 Y17.76 R2.778
N1265 X43.385 Y14.992 R2.778
N1270 G1 Y2.417
N1275 Z-2.4 F30.
N1280 Y-10.158 F120.
N1285 G2 X38.803 Y-12.271 R2.778
N1290 G1 X38.798 Y-12.267
N1295 G3 X33.15 Y-13.586 R3.647
N1300 X33.392 Y-14.641 R0.897
N1305 G1 X35.419 Y-16.341
N1310 G3 X48.679 Y-10.178 R8.072
N1315 G2 X48.782 Y-10.075 R0.103
N1320 X48.885 Y-10.178 R0.103
N1325 X34.139 Y-16.821 R8.87
N1330 G3 X34.018 Y-16.748 R0.397
N1335 X32.203 Y-19.199 R1.583
N1340 X50.965 Y-26.253 R19.195
N1345 X52.504 Y-24.39 R1.897
N1350 G1 Y-22.151
N1355 G2 X52.607 Y-22.048 R0.103
N1360 G1 X61.337
N1365 G3 Y-11.968 R5.04
N1370 G1 X55.79
N1375 G2 X55.687 Y-11.865 R0.103
N1380 G1 Y3.242
N1385 G2 X55.79 Y3.345 R0.103
N1390 G1 X61.337
N1395 G3 Y13.639 R5.147
N1400 G1 X52.607
N1405 G2 X52.504 Y13.742 R0.103
N1410 G1 Y17.242
N1415 G2 X52.607 Y17.345 R0.103
N1420 G1 X68.5
N1425 G3 X70.397 Y19.242 R1.897
N1430 G1 Y19.321
N1435 G3 X69.278 Y21.05 R1.897
N1440 X38.874 Y26.432 R63.004
N1445 X0.615 Y13.329 R79.367
N1450 X-0.23 Y11.75 R1.897
N1455 G1 Y11.108
N1460 G3 X1.667 Y9.211 R1.897
N1465 G1 X33.425
N1470 G3 X37.871 Y14.51 R4.515
N1475 G2 X40.365 Y17.76 R2.778
N1480 X43.385 Y14.992 R2.778
N1485 G1 Y2.417
N1490 Z-2.775 F30.
N1495 Y-10.158 F120.
N1500 G2 X38.803 Y-12.271 R2.778
N1505 G1 X38.798 Y-12.267
N1510 G3 X33.15 Y-13.586 R3.647
N1515 X33.392 Y-14.641 R0.897
N1520 G1 X35.419 Y-16.341
N1525 G3 X48.679 Y-10.178 R8.072
N1530 G2 X48.782 Y-10.075 R0.103
N1535 X48.885 Y-10.178 R0.103
N1540 X34.139 Y-16.821 R8.87
N1545 G3 X34.018 Y-16.748 R0.397
N1550 X32.203 Y-19.199 R1.583
N1555 X50.965 Y-26.253 R19.195
N1560 X52.504 Y-24.39 R1.897
N1565 G1 Y-22.151
N1570 G2 X52.607 Y-22.048 R0.103
N1575 G1 X61.337
N1580 G3 Y-11.968 R5.04
N1585 G1 X55.79
N1590 G2 X55.687 Y-11.865 R0.103
N1595 G1 Y3.242
N1600 G2 X55.79 Y3.345 R0.103
N1605 G1 X61.337
N1610 G3 Y13.639 R5.147
N1615 G1 X52.607
N1620 G2 X52.504 Y13.742 R0.103
N1625 G1 Y17.242
N1630 G2 X52.607 Y17.345 R0.103
N1635 G1 X68.5
N1640 G3 X70.397 Y19.242 R1.897
N1645 G1 Y19.321
N1650 G3 X69.278 Y21.05 R1.897
N1655 X38.874 Y26.432 R63.004
N1660 X0.615 Y13.329 R79.367
N1665 X-0.23 Y11.75 R1.897
N1670 G1 Y11.108
N1675 G3 X1.667 Y9.211 R1.897
N1680 G1 X33.425
N1685 G3 X37.871 Y14.51 R4.515
N1690 G2 X40.365 Y17.76 R2.778
N1695 X43.385 Y14.992 R2.778
N1700 G1 Y2.417
N1705 G0 Z6.

(OUTSIDE CONTOUR WITH TABS)
N1715 M8
N1720 G0 X55.687 Y-2.258
N1725 Z6.
N1730 Z-1.775
N1735 G1 Z-3.275 F30.
N1740 Y3.242 F120.
N1745 G2 X55.79 Y3.345 R0.103
N1750 G1 X61.337
N1755 G3 Y13.639 R5.147
N1760 G1 X52.607
N1765 G2 X52.504 Y13.742 R0.103
N1770 G1 Y17.242
N1775 G2 X52.607 Y17.345 R0.103
N1780 G1 X68.5
N1785 G3 X70.397 Y19.242 R1.897
N1790 G1 Y19.321
N1795 G3 X69.278 Y21.05 R1.897
N1800 X38.874 Y26.432 R63.004
N1805 X30.568 Y25.387 R79.367
N1810 G0 Z1.
N1815 X26.621 Y24.574
N1820 Z-1.775
N1825 G1 Z-3.275 F30.
N1830 G3 X0.615 Y13.329 R79.367 F120.
N1835 X-0.23 Y11.75 R1.897
N1840 G1 Y11.108
N1845 G3 X1.667 Y9.211 R1.897
N1850 G1 X15.438
N1855 G0 Z1.
N1860 X19.654
N1865 Z-1.775
N1870 G1 Z-3.275 F30.
N1875 X33.425 F120.
N1880 G3 X37.871 Y14.51 R4.515
N1885 G2 X40.365 Y17.76 R2.778
N1890 X43.385 Y14.992 R2.778
N1895 G1 Y-10.158
N1900 G2 X38.803 Y-12.271 R2.778
N1905 G1 X38.798 Y-12.267
N1910 G3 X33.15 Y-13.586 R3.647
N1915 X33.392 Y-14.641 R0.897
N1920 G1 X35.419 Y-16.341
N1925 G3 X48.679 Y-10.178 R8.072
N1930 G2 X48.782 Y-10.075 R0.103
N1935 X48.885 Y-10.178 R0.103
N1940 X34.139 Y-16.821 R8.87
N1945 G3 X34.018 Y-16.748 R0.397
N1950 X32.203 Y-19.199 R1.583
N1955 X38.7 Y-24.54 R19.195
N1960 G0 Z1.
N1965 X42.558 Y-25.991
N1970 Z-1.775
N1975 G1 Z-3.275 F30.
N1980 G3 X50.965 Y-26.253 R19.195 F120.
N1985 X52.504 Y-24.39 R1.897
N1990 G1 Y-22.151
N1995 G2 X52.607 Y-22.048 R0.103
N2000 G1 X61.337
N2005 G3 Y-11.968 R5.04
N2010 G1 X55.79
N2015 G2 X55.687 Y-11.865 R0.103
N2020 G1 Y-6.365
N2025 G0 Z6.

(OUTSIDE CONTOUR)
N2035 M8
N2040 G0 X-26.615 Y2.417
N2045 Z6.
N2050 Z1.4
N2055 G1 Z-0.4 F30.
N2060 Y-10.158 F120.
N2065 G2 X-31.197 Y-12.271 R2.778
N2070 G1 X-31.202 Y-12.267
N2075 G3 X-36.85 Y-13.586 R3.647
N2080 X-36.608 Y-14.641 R0.897
N2085 G1 X-34.581 Y-16.341
N2090 G3 X-21.321 Y-10.178 R8.072
N2095 G2 X-21.218 Y-10.075 R0.103
N2100 X-21.115 Y-10.178 R0.103
N2105 X-35.861 Y-16.821 R8.87
N2110 G3 X-35.982 Y-16.748 R0.397
N2115 X-37.797 Y-19.199 R1.583
N2120 X-19.035 Y-26.253 R19.195
N2125 X-17.496 Y-24.39 R1.897
N2130 G1 Y-22.151
N2135 G2 X-17.393 Y-22.048 R0.103
N2140 G1 X-8.663
N2145 G3 Y-11.968 R5.04
N2150 G1 X-14.21
N2155 G2 X-14.313 Y-11.865 R0.103
N2160 G1 Y3.242
N2165 G2 X-14.21 Y3.345 R0.103
N2170 G1 X-8.663
N2175 G3 Y13.639 R5.147
N2180 G1 X-17.393
N2185 G2 X-17.496 Y13.742 R0.103
N2190 G1 Y17.242
N2195 G2 X-17.393 Y17.345 R0.103
N2200 G1 X-1.5
N2205 G3 X0.397 Y19.242 R1.897
N2210 G1 Y19.321
N2215 G3 X-0.722 Y21.05 R1.897
N2220 X-31.126 Y26.432 R63.004
N2225 X-69.385 Y13.329 R79.367
N2230 X-70.23 Y11.75 R1.897
N2235 G1 Y11.108
N2240 G3 X-68.333 Y9.211 R1.897
N2245 G1 X-36.575
N2250 G3 X-32.129 Y14.51 R4.515
N2255 G2 X-29.635 Y17.76 R2.778
N2260 X-26.615 Y14.992 R2.778
N2265 G1 Y2.417
N2270 Z-0.8 F30.
N2275 Y-10.158 F120.
N2280 G2 X-31.197 Y-12.271 R2.778
N2285 G1 X-31.202 Y-12.267
N2290 G3 X-36.85 Y-13.586 R3.647
N2295 X-36.608 Y-14.641 R0.897
N2300 G1 X-34.581 Y-16.341
N2305 G3 X-21.321 Y-10.178 R8.072
N2310 G2 X-21.218 Y-10.075 R0.103
N2315 X-21.115 Y-10.178 R0.103
N2320 X-35.861 Y-16.821 R8.87
N2325 G3 X-35.982 Y-16.748 R0.397
N2330 X-37.797 Y-19.199 R1.583
N2335 X-19.035 Y-26.253 R19.195
N2340 X-17.496 Y-24.39 R1.897
N2345 G1 Y-22.151
N2350 G2 X-17.393 Y-22.048 R0.103
N2355 G1 X-8.663
N2360 G3 Y-11.968 R5.04
N2365 G1 X-14.21
N2370 G2 X-14.313 Y-11.865 R0.103
N2375 G1 Y3.242
N2380 G2 X-14.21 Y3.345 R0.103
N2385 G1 X-8.663
N2390 G3 Y13.639 R5.147
N2395 G1 X-17.393
N2400 G2 X-17.496 Y13.742 R0.103
N2405 G1 Y17.242
N2410 G2 X-17.393 Y17.345 R0.103
N2415 G1 X-1.5
N2420 G3 X0.397 Y19.242 R1.897
N2425 G1 Y19.321
N2430 G3 X-0.722 Y21.05 R1.897
N2435 X-31.126 Y26.432 R63.004
N2440 X-69.385 Y13.329 R79.367
N2445 X-70.23 Y11.75 R1.897
N2450 G1 Y11.108
N2455 G3 X-68.333 Y9.211 R1.897
N2460 G1 X-36.575
N2465 G3 X-32.129 Y14.51 R4.515
N2470 G2 X-29.635 Y17.76 R2.778
N2475 X-26.615 Y14.992 R2.778
N2480 G1 Y2.417
N2485 Z-1.2 F30.
N2490 Y-10.158 F120.
N2495 G2 X-31.197 Y-12.271 R2.778
N2500 G1 X-31.202 Y-12.267
N2505 G3 X-36.85 Y-13.586 R3.647
N2510 X-36.608 Y-14.641 R0.897
N2515 G1 X-34.581 Y-16.341
N2520 G3 X-21.321 Y-10.178 R8.072
N2525 G2 X-21.218 Y-10.075 R0.103
N2530 X-21.115 Y-10.178 R0.103
N2535 X-35.861 Y-16.821 R8.87
N2540 G3 X-35.982 Y-16.748 R0.397
N2545 X-37.797 Y-19.199 R1.583
N2550 X-19.035 Y-26.253 R19.195
N2555 X-17.496 Y-24.39 R1.897
N2560 G1 Y-22.151
N2565 G2 X-17.393 Y-22.048 R0.103
N2570 G1 X-8.663
N2575 G3 Y-11.968 R5.04
N2580 G1 X-14.21
N2585 G2 X-14.313 Y-11.865 R0.103
N2590 G1 Y3.242
N2595 G2 X-14.21 Y3.345 R0.103
N2600 G1 X-8.663
N2605 G3 Y13.639 R5.147
N2610 G1 X-17.393
N2615 G2 X-17.496 Y13.742 R0.103
N2620 G1 Y17.242
N2625 G2 X-17.393 Y17.345 R0.103
N2630 G1 X-1.5
N2635 G3 X0.397 Y19.242 R1.897
N2640 G1 Y19.321
N2645 G3 X-0.722 Y21.05 R1.897
N2650 X-31.126 Y26.432 R63.004
N2655 X-69.385 Y13.329 R79.367
N2660 X-70.23 Y11.75 R1.897
N2665 G1 Y11.108
N2670 G3 X-68.333 Y9.211 R1.897
N2675 G1 X-36.575
N2680 G3 X-32.129 Y14.51 R4.515
N2685 G2 X-29.635 Y17.76 R2.778
N2690 X-26.615 Y14.992 R2.778
N2695 G1 Y2.417
N2700 Z-1.6 F30.
N2705 Y-10.158 F120.
N2710 G2 X-31.197 Y-12.271 R2.778
N2715 G1 X-31.202 Y-12.267
N2720 G3 X-36.85 Y-13.586 R3.647
N2725 X-36.608 Y-14.641 R0.897
N2730 G1 X-34.581 Y-16.341
N2735 G3 X-21.321 Y-10.178 R8.072
N2740 G2 X-21.218 Y-10.075 R0.103
N2745 X-21.115 Y-10.178 R0.103
N2750 X-35.861 Y-16.821 R8.87
N2755 G3 X-35.982 Y-16.748 R0.397
N2760 X-37.797 Y-19.199 R1.583
N2765 X-19.035 Y-26.253 R19.195
N2770 X-17.496 Y-24.39 R1.897
N2775 G1 Y-22.151
N2780 G2 X-17.393 Y-22.048 R0.103
N2785 G1 X-8.663
N2790 G3 Y-11.968 R5.04
N2795 G1 X-14.21
N2800 G2 X-14.313 Y-11.865 R0.103
N2805 G1 Y3.242
N2810 G2 X-14.21 Y3.345 R0.103
N2815 G1 X-8.663
N2820 G3 Y13.639 R5.147
N2825 G1 X-17.393
N2830 G2 X-17.496 Y13.742 R0.103
N2835 G1 Y17.242
N2840 G2 X-17.393 Y17.345 R0.103
N2845 G1 X-1.5
N2850 G3 X0.397 Y19.242 R1.897
N2855 G1 Y19.321
N2860 G3 X-0.722 Y21.05 R1.897
N2865 X-31.126 Y26.432 R63.004
N2870 X-69.385 Y13.329 R79.367
N2875 X-70.23 Y11.75 R1.897
N2880 G1 Y11.108
N2885 G3 X-68.333 Y9.211 R1.897
N2890 G1 X-36.575
N2895 G3 X-32.129 Y14.51 R4.515
N2900 G2 X-29.635 Y17.76 R2.778
N2905 X-26.615 Y14.992 R2.778
N2910 G1 Y2.417
N2915 Z-2. F30.
N2920 Y-10.158 F120.
N2925 G2 X-31.197 Y-12.271 R2.778
N2930 G1 X-31.202 Y-12.267
N2935 G3 X-36.85 Y-13.586 R3.647
N2940 X-36.608 Y-14.641 R0.897
N2945 G1 X-34.581 Y-16.341
N2950 G3 X-21.321 Y-10.178 R8.072
N2955 G2 X-21.218 Y-10.075 R0.103
N2960 X-21.115 Y-10.178 R0.103
N2965 X-35.861 Y-16.821 R8.87
N2970 G3 X-35.982 Y-16.748 R0.397
N2975 X-37.797 Y-19.199 R1.583
N2980 X-19.035 Y-26.253 R19.195
N2985 X-17.496 Y-24.39 R1.897
N2990 G1 Y-22.151
N2995 G2 X-17.393 Y-22.048 R0.103
N3000 G1 X-8.663
N3005 G3 Y-11.968 R5.04
N3010 G1 X-14.21
N3015 G2 X-14.313 Y-11.865 R0.103
N3020 G1 Y3.242
N3025 G2 X-14.21 Y3.345 R0.103
N3030 G1 X-8.663
N3035 G3 Y13.639 R5.147
N3040 G1 X-17.393
N3045 G2 X-17.496 Y13.742 R0.103
N3050 G1 Y17.242
N3055 G2 X-17.393 Y17.345 R0.103
N3060 G1 X-1.5
N3065 G3 X0.397 Y19.242 R1.897
N3070 G1 Y19.321
N3075 G3 X-0.722 Y21.05 R1.897
N3080 X-31.126 Y26.432 R63.004
N3085 X-69.385 Y13.329 R79.367
N3090 X-70.23 Y11.75 R1.897
N3095 G1 Y11.108
N3100 G3 X-68.333 Y9.211 R1.897
N3105 G1 X-36.575
N3110 G3 X-32.129 Y14.51 R4.515
N3115 G2 X-29.635 Y17.76 R2.778
N3120 X-26.615 Y14.992 R2.778
N3125 G1 Y2.417
N3130 Z-2.4 F30.
N3135 Y-10.158 F120.
N3140 G2 X-31.197 Y-12.271 R2.778
N3145 G1 X-31.202 Y-12.267
N3150 G3 X-36.85 Y-13.586 R3.647
N3155 X-36.608 Y-14.641 R0.897
N3160 G1 X-34.581 Y-16.341
N3165 G3 X-21.321 Y-10.178 R8.072
N3170 G2 X-21.218 Y-10.075 R0.103
N3175 X-21.115 Y-10.178 R0.103
N3180 X-35.861 Y-16.821 R8.87
N3185 G3 X-35.982 Y-16.748 R0.397
N3190 X-37.797 Y-19.199 R1.583
N3195 X-19.035 Y-26.253 R19.195
N3200 X-17.496 Y-24.39 R1.897
N3205 G1 Y-22.151
N3210 G2 X-17.393 Y-22.048 R0.103
N3215 G1 X-8.663
N3220 G3 Y-11.968 R5.04
N3225 G1 X-14.21
N3230 G2 X-14.313 Y-11.865 R0.103
N3235 G1 Y3.242
N3240 G2 X-14.21 Y3.345 R0.103
N3245 G1 X-8.663
N3250 G3 Y13.639 R5.147
N3255 G1 X-17.393
N3260 G2 X-17.496 Y13.742 R0.103
N3265 G1 Y17.242
N3270 G2 X-17.393 Y17.345 R0.103
N3275 G1 X-1.5
N3280 G3 X0.397 Y19.242 R1.897
N3285 G1 Y19.321
N3290 G3 X-0.722 Y21.05 R1.897
N3295 X-31.126 Y26.432 R63.004
N3300 X-69.385 Y13.329 R79.367
N3305 X-70.23 Y11.75 R1.897
N3310 G1 Y11.108
N3315 G3 X-68.333 Y9.211 R1.897
N3320 G1 X-36.575
N3325 G3 X-32.129 Y14.51 R4.515
N3330 G2 X-29.635 Y17.76 R2.778
N3335 X-26.615 Y14.992 R2.778
N3340 G1 Y2.417
N3345 Z-2.775 F30.
N3350 Y-10.158 F120.
N3355 G2 X-31.197 Y-12.271 R2.778
N3360 G1 X-31.202 Y-12.267
N3365 G3 X-36.85 Y-13.586 R3.647
N3370 X-36.608 Y-14.641 R0.897
N3375 G1 X-34.581 Y-16.341
N3380 G3 X-21.321 Y-10.178 R8.072
N3385 G2 X-21.218 Y-10.075 R0.103
N3390 X-21.115 Y-10.178 R0.103
N3395 X-35.861 Y-16.821 R8.87
N3400 G3 X-35.982 Y-16.748 R0.397
N3405 X-37.797 Y-19.199 R1.583
N3410 X-19.035 Y-26.253 R19.195
N3415 X-17.496 Y-24.39 R1.897
N3420 G1 Y-22.151
N3425 G2 X-17.393 Y-22.048 R0.103
N3430 G1 X-8.663
N3435 G3 Y-11.968 R5.04
N3440 G1 X-14.21
N3445 G2 X-14.313 Y-11.865 R0.103
N3450 G1 Y3.242
N3455 G2 X-14.21 Y3.345 R0.103
N3460 G1 X-8.663
N3465 G3 Y13.639 R5.147
N3470 G1 X-17.393
N3475 G2 X-17.496 Y13.742 R0.103
N3480 G1 Y17.242
N3485 G2 X-17.393 Y17.345 R0.103
N3490 G1 X-1.5
N3495 G3 X0.397 Y19.242 R1.897
N3500 G1 Y19.321
N3505 G3 X-0.722 Y21.05 R1.897
N3510 X-31.126 Y26.432 R63.004
N3515 X-69.385 Y13.329 R79.367
N3520 X-70.23 Y11.75 R1.897
N3525 G1 Y11.108
N3530 G3 X-68.333 Y9.211 R1.897
N3535 G1 X-36.575
N3540 G3 X-32.129 Y14.51 R4.515
N3545 G2 X-29.635 Y17.76 R2.778
N3550 X-26.615 Y14.992 R2.778
N3555 G1 Y2.417
N3560 G0 Z6.

(OUTSIDE CONTOUR WITH TABS)
N3570 M8
N3575 G0 X-14.313 Y-2.258
N3580 Z6.
N3585 Z-1.775
N3590 G1 Z-3.275 F30.
N3595 Y3.242 F120.
N3600 G2 X-14.21 Y3.345 R0.103
N3605 G1 X-8.663
N3610 G3 Y13.639 R5.147
N3615 G1 X-17.393
N3620 G2 X-17.496 Y13.742 R0.103
N3625 G1 Y17.242
N3630 G2 X-17.393 Y17.345 R0.103
N3635 G1 X-1.5
N3640 G3 X0.397 Y19.242 R1.897
N3645 G1 Y19.321
N3650 G3 X-0.722 Y21.05 R1.897
N3655 X-31.126 Y26.432 R63.004
N3660 X-39.432 Y25.387 R79.367
N3665 G0 Z1.
N3670 X-43.379 Y24.574
N3675 Z-1.775
N3680 G1 Z-3.275 F30.
N3685 G3 X-69.385 Y13.329 R79.367 F120.
N3690 X-70.23 Y11.75 R1.897
N3695 G1 Y11.108
N3700 G3 X-68.333 Y9.211 R1.897
N3705 G1 X-54.562
N3710 G0 Z1.
N3715 X-50.346
N3720 Z-1.775
N3725 G1 Z-3.275 F30.
N3730 X-36.575 F120.
N3735 G3 X-32.129 Y14.51 R4.515
N3740 G2 X-29.635 Y17.76 R2.778
N3745 X-26.615 Y14.992 R2.778
N3750 G1 Y-10.158
N3755 G2 X-31.197 Y-12.271 R2.778
N3760 G1 X-31.202 Y-12.267
N3765 G3 X-36.85 Y-13.586 R3.647
N3770 X-36.608 Y-14.641 R0.897
N3775 G1 X-34.581 Y-16.341
N3780 G3 X-21.321 Y-10.178 R8.072
N3785 G2 X-21.218 Y-10.075 R0.103
N3790 X-21.115 Y-10.178 R0.103
N3795 X-35.861 Y-16.821 R8.87
N3800 G3 X-35.982 Y-16.748 R0.397
N3805 X-37.797 Y-19.199 R1.583
N3810 X-31.3 Y-24.54 R19.195
N3815 G0 Z1.
N3820 X-27.442 Y-25.991
N3825 Z-1.775
N3830 G1 Z-3.275 F30.
N3835 G3 X-19.035 Y-26.253 R19.195 F120.
N3840 X-17.496 Y-24.39 R1.897
N3845 G1 Y-22.151
N3850 G2 X-17.393 Y-22.048 R0.103
N3855 G1 X-8.663
N3860 G3 Y-11.968 R5.04
N3865 G1 X-14.21
N3870 G2 X-14.313 Y-11.865 R0.103
N3875 G1 Y-6.365
N3880 G0 Z6.

N3890 M9
N3895 M30
