(UNIBOX 45 FLAT PATTERN)
(MACHINE)
(  DESCRIPTION GENERIC 3-AXIS)
(T1  D=0.794 CR=0. - ZMIN=-1.1 - FLAT END MILL)
N10 G90 G94 G91.1 G40 G49 G17
N15 G21

(FOLD LINES)
N20 M5
N25 M9
N30 T1 M6
N35 S10500 M3
N40 G54
N45 M8
N55 G0 X-16.223 Y-3.802
N60 G43 Z11. H1
N65 Z1.3
N70 G1 Z-0.3 F17.
N75 X22.155 F51.
N80 Y7.854
N85 X-22.051
N90 Y-3.802
N95 X-16.223
N100 Z-0.6 F17.
N105 X22.155 F51.
N110 Y7.854
N115 X-22.051
N120 Y-3.802
N125 X-16.223
N130 Z-0.9 F17.
N135 X22.155 F51.
N140 Y7.854
N145 X-22.051
N150 Y-3.802
N155 X-16.223
N160 Z-1.1 F17.
N165 X22.155 F51.
N170 Y7.854
N175 X-22.051
N180 Y-3.802
N185 X-16.223
N190 G0 Z1.3
N195 X-25.503 Y-8.446
N200 G1 Z-0.3 F17.
N205 G3 X-27.843 Y-6.793 R3.003 F51.
N210 G2 X-28.193 Y-6.398 R0.397
N215 G1 Y10.606
N220 G2 X-27.843 Y11. R0.397
N225 G3 X-25.193 Y13.982 R3.003
N230 G2 Y13.999 R1.497
N235 X-23.958 Y15.456 R1.497
N240 G1 Y15.463
N245 G3 X-25.2 Y13.982 R1.503
N250 G2 X-31.193 R2.997
N255 G3 X-32.436 Y15.463 R1.503
N260 G1 X-32.435 Y15.456
N265 G2 X-31.2 Y13.982 R1.497
N270 G3 X-28.55 Y11. R3.003
N275 G2 X-28.2 Y10.606 R0.397
N280 G1 Y-6.398
N285 G2 X-28.55 Y-6.793 R0.397
N290 G3 X-31.2 Y-9.775 R3.003
N295 G2 X-32.435 Y-11.249 R1.497
N300 G1 X-32.436 Y-11.255
N305 G3 X-31.193 Y-9.775 R1.503
N310 G2 X-25.2 R2.997
N315 G3 X-23.958 Y-11.255 R1.503
N320 G1 Y-11.249
N325 G2 X-25.193 Y-9.775 R1.497
N330 G3 X-25.503 Y-8.446 R3.003
N335 G1 Z-0.6 F17.
N340 G3 X-27.843 Y-6.793 R3.003 F51.
N345 G2 X-28.193 Y-6.398 R0.397
N350 G1 Y10.606
N355 G2 X-27.843 Y11. R0.397
N360 G3 X-25.193 Y13.982 R3.003
N365 G2 Y13.999 R1.497
N370 X-23.958 Y15.456 R1.497
N375 G1 Y15.463
N380 G3 X-25.2 Y13.982 R1.503
N385 G2 X-31.193 R2.997
N390 G3 X-32.436 Y15.463 R1.503
N395 G1 X-32.435 Y15.456
N400 G2 X-31.2 Y13.982 R1.497
N405 G3 X-28.55 Y11. R3.003
N410 G2 X-28.2 Y10.606 R0.397
N415 G1 Y-6.398
N420 G2 X-28.55 Y-6.793 R0.397
N425 G3 X-31.2 Y-9.775 R3.003
N430 G2 X-32.435 Y-11.249 R1.497
N435 G1 X-32.436 Y-11.255
N440 G3 X-31.193 Y-9.775 R1.503
N445 G2 X-25.2 R2.997
N450 G3 X-23.958 Y-11.255 R1.503
N455 G1 Y-11.249
N460 G2 X-25.193 Y-9.775 R1.497
N465 G3 X-25.503 Y-8.446 R3.003
N470 G1 Z-0.9 F17.
N475 G3 X-27.843 Y-6.793 R3.003 F51.
N480 G2 X-28.193 Y-6.398 R0.397
N485 G1 Y10.606
N490 G2 X-27.843 Y11. R0.397
N495 G3 X-25.193 Y13.982 R3.003
N500 G2 Y13.999 R1.497
N505 X-23.958 Y15.456 R1.497
N510 G1 Y15.463
N515 G3 X-25.2 Y13.982 R1.503
N520 G2 X-31.193 R2.997
N525 G3 X-32.436 Y15.463 R1.503
N530 G1 X-32.435 Y15.456
N535 G2 X-31.2 Y13.982 R1.497
N540 G3 X-28.55 Y11. R3.003
N545 G2 X-28.2 Y10.606 R0.397
N550 G1 Y-6.398
N555 G2 X-28.55 Y-6.793 R0.397
N560 G3 X-31.2 Y-9.775 R3.003
N565 G2 X-32.435 Y-11.249 R1.497
N570 G1 X-32.436 Y-11.255
N575 G3 X-31.193 Y-9.775 R1.503
N580 G2 X-25.2 R2.997
N585 G3 X-23.958 Y-11.255 R1.503
N590 G1 Y-11.249
N595 G2 X-25.193 Y-9.775 R1.497
N600 G3 X-25.503 Y-8.446 R3.003
N605 G1 Z-1.1 F17.
N610 G3 X-27.843 Y-6.793 R3.003 F51.
N615 G2 X-28.193 Y-6.398 R0.397
N620 G1 Y10.606
N625 G2 X-27.843 Y11. R0.397
N630 G3 X-25.193 Y13.982 R3.003
N635 G2 Y13.999 R1.497
N640 X-23.958 Y15.456 R1.497
N645 G1 Y15.463
N650 G3 X-25.2 Y13.982 R1.503
N655 G2 X-31.193 R2.997
N660 G3 X-32.436 Y15.463 R1.503
N665 G1 X-32.435 Y15.456
N670 G2 X-31.2 Y13.982 R1.497
N675 G3 X-28.55 Y11. R3.003
N680 G2 X-28.2 Y10.606 R0.397
N685 G1 Y-6.398
N690 G2 X-28.55 Y-6.793 R0.397
N695 G3 X-31.2 Y-9.775 R3.003
N700 G2 X-32.435 Y-11.249 R1.497
N705 G1 X-32.436 Y-11.255
N710 G3 X-31.193 Y-9.775 R1.503
N715 G2 X-25.2 R2.997
N720 G3 X-23.958 Y-11.255 R1.503
N725 G1 Y-11.249
N730 G2 X-25.193 Y-9.775 R1.497
N735 G3 X-25.503 Y-8.446 R3.003
N740 G0 Z1.3
N745 X-20.879 Y-13.095
N750 G1 Z-0.3 F17.
N755 X-20.883 Y-13.096 F51.
N760 G3 X-19.448 Y-14.152 R1.503
N765 G2 Y-20.146 R2.997
N770 G3 X-20.883 Y-21.203 R1.503
N775 G1 X-20.877
N780 G2 X-19.448 Y-20.152 R1.497
N785 G3 X-16.466 Y-17.503 R3.003
N790 G2 X-16.071 Y-17.152 R0.397
N795 G1 X-7.824
N800 G2 X-7.43 Y-17.503 R0.397
N805 G3 X-4.448 Y-20.152 R3.003
N810 G2 X-3.019 Y-21.203 R1.497
N815 G1 X-3.012
N820 G3 X-4.448 Y-20.146 R1.503
N825 G2 Y-14.152 R2.997
N830 G3 X-3.012 Y-13.096 R1.503
N835 G1 X-3.019 Y-13.095
N840 G2 X-4.448 Y-14.146 R1.497
N845 G3 X-7.43 Y-16.796 R3.003
N850 G2 X-7.824 Y-17.146 R0.397
N855 G1 X-16.071
N860 G2 X-16.466 Y-16.796 R0.397
N865 G3 X-19.448 Y-14.146 R3.003
N870 G2 X-20.877 Y-13.095 R1.497
N875 G1 X-20.879
N880 Z-0.6 F17.
N885 X-20.883 Y-13.096 F51.
N890 G3 X-19.448 Y-14.152 R1.503
N895 G2 Y-20.146 R2.997
N900 G3 X-20.883 Y-21.203 R1.503
N905 G1 X-20.877
N910 G2 X-19.448 Y-20.152 R1.497
N915 G3 X-16.466 Y-17.503 R3.003
N920 G2 X-16.071 Y-17.152 R0.397
N925 G1 X-7.824
N930 G2 X-7.43 Y-17.503 R0.397
N935 G3 X-4.448 Y-20.152 R3.003
N940 G2 X-3.019 Y-21.203 R1.497
N945 G1 X-3.012
N950 G3 X-4.448 Y-20.146 R1.503
N955 G2 Y-14.152 R2.997
N960 G3 X-3.012 Y-13.096 R1.503
N965 G1 X-3.019 Y-13.095
N970 G2 X-4.448 Y-14.146 R1.497
N975 G3 X-7.43 Y-16.796 R3.003
N980 G2 X-7.824 Y-17.146 R0.397
N985 G1 X-16.071
N990 G2 X-16.466 Y-16.796 R0.397
N995 G3 X-19.448 Y-14.146 R3.003
N1000 G2 X-20.877 Y-13.095 R1.497
N1005 G1 X-20.879
N1010 Z-0.9 F17.
N1015 X-20.883 Y-13.096 F51.
N1020 G3 X-19.448 Y-14.152 R1.503
N1025 G2 Y-20.146 R2.997
N1030 G3 X-20.883 Y-21.203 R1.503
N1035 G1 X-20.877
N1040 G2 X-19.448 Y-20.152 R1.497
N1045 G3 X-16.466 Y-17.503 R3.003
N1050 G2 X-16.071 Y-17.152 R0.397
N1055 G1 X-7.824
N1060 G2 X-7.43 Y-17.503 R0.397
N1065 G3 X-4.448 Y-20.152 R3.003
N1070 G2 X-3.019 Y-21.203 R1.497
N1075 G1 X-3.012
N1080 G3 X-4.448 Y-20.146 R1.503
N1085 G2 Y-14.152 R2.997
N1090 G3 X-3.012 Y-13.096 R1.503
N1095 G1 X-3.019 Y-13.095
N1100 G2 X-4.448 Y-14.146 R1.497
N1105 G3 X-7.43 Y-16.796 R3.003
N1110 G2 X-7.824 Y-17.146 R0.397
N1115 G1 X-16.071
N1120 G2 X-16.466 Y-16.796 R0.397
N1125 G3 X-19.448 Y-14.146 R3.003
N1130 G2 X-20.877 Y-13.095 R1.497
N1135 G1 X-20.879
N1140 Z-1.1 F17.
N1145 X-20.883 Y-13.096 F51.
N1150 G3 X-19.448 Y-14.152 R1.503
N1155 G2 Y-20.146 R2.997
N1160 G3 X-20.883 Y-21.203 R1.503
N1165 G1 X-20.877
N1170 G2 X-19.448 Y-20.152 R1.497
N1175 G3 X-16.466 Y-17.503 R3.003
N1180 G2 X-16.071 Y-17.152 R0.397
N1185 G1 X-7.824
N1190 G2 X-7.43 Y-17.503 R0.397
N1195 G3 X-4.448 Y-20.152 R3.003
N1200 G2 X-3.019 Y-21.203 R1.497
N1205 G1 X-3.012
N1210 G3 X-4.448 Y-20.146 R1.503
N1215 G2 Y-14.152 R2.997
N1220 G3 X-3.012 Y-13.096 R1.503
N1225 G1 X-3.019 Y-13.095
N1230 G2 X-4.448 Y-14.146 R1.497
N1235 G3 X-7.43 Y-16.796 R3.003
N1240 G2 X-7.824 Y-17.146 R0.397
N1245 G1 X-16.071
N1250 G2 X-16.466 Y-16.796 R0.397
N1255 G3 X-19.448 Y-14.146 R3.003
N1260 G2 X-20.877 Y-13.095 R1.497
N1265 G1 X-20.879
N1270 G0 Z1.3
N1275 X-34.387 Y3.884
N1280 G1 Z-0.3 F17.
N1285 Y9.488 F51.
N1290 X-45.593
N1295 Y-5.459
N1300 X-34.387
N1305 Y3.884
N1310 Z-0.6 F17.
N1315 Y9.488 F51.
N1320 X-45.593
N1325 Y-5.459
N1330 X-34.387
N1335 Y3.884
N1340 Z-0.9 F17.
N1345 Y9.488 F51.
N1350 X-45.593
N1355 Y-5.459
N1360 X-34.387
N1365 Y3.884
N1370 Z-1.1 F17.
N1375 Y9.488 F51.
N1380 X-45.593
N1385 Y-5.459
N1390 X-34.387
N1395 Y3.884
N1400 G0 Z1.3
N1405 X-35.639 Y15.885
N1410 G1 Z-0.3 F17.
N1415 G3 X-36.442 Y15.081 R0.568 F51.
N1420 X-35.639 Y15.885 R0.568
N1425 G1 Z-0.6 F17.
N1430 G3 X-36.442 Y15.081 R0.568 F51.
N1435 X-35.639 Y15.885 R0.568
N1440 G1 Z-0.9 F17.
N1445 G3 X-36.442 Y15.081 R0.568 F51.
N1450 X-35.639 Y15.885 R0.568
N1455 G1 Z-1.1 F17.
N1460 G3 X-36.442 Y15.081 R0.568 F51.
N1465 X-35.639 Y15.885 R0.568
N1470 G0 Z1.3
N1475 X-36.084 Y30.184
N1480 G1 Z-0.3 F17.
N1485 G3 X-36.907 Y30.967 R0.568 F51.
N1490 X-36.084 Y30.184 R0.568
N1495 G1 Z-0.6 F17.
N1500 G3 X-36.907 Y30.967 R0.568 F51.
N1505 X-36.084 Y30.184 R0.568
N1510 G1 Z-0.9 F17.
N1515 G3 X-36.907 Y30.967 R0.568 F51.
N1520 X-36.084 Y30.184 R0.568
N1525 G1 Z-1.1 F17.
N1530 G3 X-36.907 Y30.967 R0.568 F51.
N1535 X-36.084 Y30.184 R0.568
N1540 G0 Z1.3
N1545 X-20.879 Y26.785
N1550 G1 Z-0.3 F17.
N1555 X-20.883 F51.
N1560 G3 X-19.448 Y25.728 R1.503
N1565 G2 X-19.422 R2.997
N1570 X-16.451 Y22.731 R2.997
N1575 X-19.448 Y19.735 R2.997
N1580 G3 X-20.883 Y18.678 R1.503
N1585 G1 X-20.877 Y18.677
N1590 G2 X-19.448 Y19.728 R1.497
N1595 G3 X-16.466 Y22.378 R3.003
N1600 G2 X-16.071 Y22.728 R0.397
N1605 G1 X-7.824
N1610 G2 X-7.43 Y22.378 R0.397
N1615 G3 X-4.448 Y19.728 R3.003
N1620 G2 X-3.019 Y18.677 R1.497
N1625 G1 X-3.012 Y18.678
N1630 G3 X-4.448 Y19.735 R1.503
N1635 G2 Y25.728 R2.997
N1640 G3 X-3.012 Y26.785 R1.503
N1645 G1 X-3.019
N1650 G2 X-4.448 Y25.735 R1.497
N1655 G3 X-7.43 Y23.085 R3.003
N1660 G2 X-7.824 Y22.735 R0.397
N1665 G1 X-16.071
N1670 G2 X-16.466 Y23.085 R0.397
N1675 G3 X-19.448 Y25.735 R3.003
N1680 G2 X-20.877 Y26.785 R1.497
N1685 G1 X-20.879
N1690 Z-0.6 F17.
N1695 X-20.883 F51.
N1700 G3 X-19.448 Y25.728 R1.503
N1705 G2 X-19.422 R2.997
N1710 X-16.451 Y22.731 R2.997
N1715 X-19.448 Y19.735 R2.997
N1720 G3 X-20.883 Y18.678 R1.503
N1725 G1 X-20.877 Y18.677
N1730 G2 X-19.448 Y19.728 R1.497
N1735 G3 X-16.466 Y22.378 R3.003
N1740 G2 X-16.071 Y22.728 R0.397
N1745 G1 X-7.824
N1750 G2 X-7.43 Y22.378 R0.397
N1755 G3 X-4.448 Y19.728 R3.003
N1760 G2 X-3.019 Y18.677 R1.497
N1765 G1 X-3.012 Y18.678
N1770 G3 X-4.448 Y19.735 R1.503
N1775 G2 Y25.728 R2.997
N1780 G3 X-3.012 Y26.785 R1.503
N1785 G1 X-3.019
N1790 G2 X-4.448 Y25.735 R1.497
N1795 G3 X-7.43 Y23.085 R3.003
N1800 G2 X-7.824 Y22.735 R0.397
N1805 G1 X-16.071
N1810 G2 X-16.466 Y23.085 R0.397
N1815 G3 X-19.448 Y25.735 R3.003
N1820 G2 X-20.877 Y26.785 R1.497
N1825 G1 X-20.879
N1830 Z-0.9 F17.
N1835 X-20.883 F51.
N1840 G3 X-19.448 Y25.728 R1.503
N1845 G2 X-19.422 R2.997
N1850 X-16.451 Y22.731 R2.997
N1855 X-19.448 Y19.735 R2.997
N1860 G3 X-20.883 Y18.678 R1.503
N1865 G1 X-20.877 Y18.677
N1870 G2 X-19.448 Y19.728 R1.497
N1875 G3 X-16.466 Y22.378 R3.003
N1880 G2 X-16.071 Y22.728 R0.397
N1885 G1 X-7.824
N1890 G2 X-7.43 Y22.378 R0.397
N1895 G3 X-4.448 Y19.728 R3.003
N1900 G2 X-3.019 Y18.677 R1.497
N1905 G1 X-3.012 Y18.678
N1910 G3 X-4.448 Y19.735 R1.503
N1915 G2 Y25.728 R2.997
N1920 G3 X-3.012 Y26.785 R1.503
N1925 G1 X-3.019
N1930 G2 X-4.448 Y25.735 R1.497
N1935 G3 X-7.43 Y23.085 R3.003
N1940 G2 X-7.824 Y22.735 R0.397
N1945 G1 X-16.071
N1950 G2 X-16.466 Y23.085 R0.397
N1955 G3 X-19.448 Y25.735 R3.003
N1960 G2 X-20.877 Y26.785 R1.497
N1965 G1 X-20.879
N1970 Z-1.1 F17.
N1975 X-20.883 F51.
N1980 G3 X-19.448 Y25.728 R1.503
N1985 G2 X-19.422 R2.997
N1990 X-16.451 Y22.731 R2.997
N1995 X-19.448 Y19.735 R2.997
N2000 G3 X-20.883 Y18.678 R1.503
N2005 G1 X-20.877 Y18.677
N2010 G2 X-19.448 Y19.728 R1.497
N2015 G3 X-16.466 Y22.378 R3.003
N2020 G2 X-16.071 Y22.728 R0.397
N2025 G1 X-7.824
N2030 G2 X-7.43 Y22.378 R0.397
N2035 G3 X-4.448 Y19.728 R3.003
N2040 G2 X-3.019 Y18.677 R1.497
N2045 G1 X-3.012 Y18.678
N2050 G3 X-4.448 Y19.735 R1.503
N2055 G2 Y25.728 R2.997
N2060 G3 X-3.012 Y26.785 R1.503
N2065 G1 X-3.019
N2070 G2 X-4.448 Y25.735 R1.497
N2075 G3 X-7.43 Y23.085 R3.003
N2080 G2 X-7.824 Y22.735 R0.397
N2085 G1 X-16.071
N2090 G2 X-16.466 Y23.085 R0.397
N2095 G3 X-19.448 Y25.735 R3.003
N2100 G2 X-20.877 Y26.785 R1.497
N2105 G1 X-20.879
N2110 G0 Z1.3
N2115 X4.155 Y22.731
N2120 G1 Z-0.3 F17.
N2125 Y22.735 F51.
N2130 X-4.051
N2135 Y22.728
N2140 X4.155
N2145 Y22.731
N2150 Z-0.6 F17.
N2155 Y22.735 F51.
N2160 X-4.051
N2165 Y22.728
N2170 X4.155
N2175 Y22.731
N2180 Z-0.9 F17.
N2185 Y22.735 F51.
N2190 X-4.051
N2195 Y22.728
N2200 X4.155
N2205 Y22.731
N2210 Z-1.1 F17.
N2215 Y22.735 F51.
N2220 X-4.051
N2225 Y22.728
N2230 X4.155
N2235 Y22.731
N2240 G0 Z1.3
N2245 X4.432 Y25.733
N2250 G1 Z-0.3 F17.
N2255 G3 X4.552 Y25.728 R1.503 F51.
N2260 G2 Y19.735 R2.997
N2265 G3 X3.117 Y18.678 R1.503
N2270 G1 X3.123 Y18.677
N2275 G2 X4.552 Y19.728 R1.497
N2280 G3 X7.535 Y22.378 R3.003
N2285 G2 X7.929 Y22.728 R0.397
N2290 G1 X16.176
N2295 G2 X16.57 Y22.378 R0.397
N2300 G3 X19.552 Y19.728 R3.003
N2305 G2 X20.981 Y18.677 R1.497
N2310 G1 X20.988 Y18.678
N2315 G3 X19.552 Y19.735 R1.503
N2320 G2 Y25.728 R2.997
N2325 G3 X20.988 Y26.785 R1.503
N2330 G1 X20.981
N2335 G2 X19.552 Y25.735 R1.497
N2340 G3 X16.57 Y23.085 R3.003
N2345 G2 X16.176 Y22.735 R0.397
N2350 G1 X7.929
N2355 G2 X7.535 Y23.085 R0.397
N2360 G3 X4.552 Y25.735 R3.003
N2365 G2 X3.123 Y26.785 R1.497
N2370 G1 X3.117
N2375 G3 X4.432 Y25.733 R1.503
N2380 G1 Z-0.6 F17.
N2385 G3 X4.552 Y25.728 R1.503 F51.
N2390 G2 Y19.735 R2.997
N2395 G3 X3.117 Y18.678 R1.503
N2400 G1 X3.123 Y18.677
N2405 G2 X4.552 Y19.728 R1.497
N2410 G3 X7.535 Y22.378 R3.003
N2415 G2 X7.929 Y22.728 R0.397
N2420 G1 X16.176
N2425 G2 X16.57 Y22.378 R0.397
N2430 G3 X19.552 Y19.728 R3.003
N2435 G2 X20.981 Y18.677 R1.497
N2440 G1 X20.988 Y18.678
N2445 G3 X19.552 Y19.735 R1.503
N2450 G2 Y25.728 R2.997
N2455 G3 X20.988 Y26.785 R1.503
N2460 G1 X20.981
N2465 G2 X19.552 Y25.735 R1.497
N2470 G3 X16.57 Y23.085 R3.003
N2475 G2 X16.176 Y22.735 R0.397
N2480 G1 X7.929
N2485 G2 X7.535 Y23.085 R0.397
N2490 G3 X4.552 Y25.735 R3.003
N2495 G2 X3.123 Y26.785 R1.497
N2500 G1 X3.117
N2505 G3 X4.432 Y25.733 R1.503
N2510 G1 Z-0.9 F17.
N2515 G3 X4.552 Y25.728 R1.503 F51.
N2520 G2 Y19.735 R2.997
N2525 G3 X3.117 Y18.678 R1.503
N2530 G1 X3.123 Y18.677
N2535 G2 X4.552 Y19.728 R1.497
N2540 G3 X7.535 Y22.378 R3.003
N2545 G2 X7.929 Y22.728 R0.397
N2550 G1 X16.176
N2555 G2 X16.57 Y22.378 R0.397
N2560 G3 X19.552 Y19.728 R3.003
N2565 G2 X20.981 Y18.677 R1.497
N2570 G1 X20.988 Y18.678
N2575 G3 X19.552 Y19.735 R1.503
N2580 G2 Y25.728 R2.997
N2585 G3 X20.988 Y26.785 R1.503
N2590 G1 X20.981
N2595 G2 X19.552 Y25.735 R1.497
N2600 G3 X16.57 Y23.085 R3.003
N2605 G2 X16.176 Y22.735 R0.397
N2610 G1 X7.929
N2615 G2 X7.535 Y23.085 R0.397
N2620 G3 X4.552 Y25.735 R3.003
N2625 G2 X3.123 Y26.785 R1.497
N2630 G1 X3.117
N2635 G3 X4.432 Y25.733 R1.503
N2640 G1 Z-1.1 F17.
N2645 G3 X4.552 Y25.728 R1.503 F51.
N2650 G2 Y19.735 R2.997
N2655 G3 X3.117 Y18.678 R1.503
N2660 G1 X3.123 Y18.677
N2665 G2 X4.552 Y19.728 R1.497
N2670 G3 X7.535 Y22.378 R3.003
N2675 G2 X7.929 Y22.728 R0.397
N2680 G1 X16.176
N2685 G2 X16.57 Y22.378 R0.397
N2690 G3 X19.552 Y19.728 R3.003
N2695 G2 X20.981 Y18.677 R1.497
N2700 G1 X20.988 Y18.678
N2705 G3 X19.552 Y19.735 R1.503
N2710 G2 Y25.728 R2.997
N2715 G3 X20.988 Y26.785 R1.503
N2720 G1 X20.981
N2725 G2 X19.552 Y25.735 R1.497
N2730 G3 X16.57 Y23.085 R3.003
N2735 G2 X16.176 Y22.735 R0.397
N2740 G1 X7.929
N2745 G2 X7.535 Y23.085 R0.397
N2750 G3 X4.552 Y25.735 R3.003
N2755 G2 X3.123 Y26.785 R1.497
N2760 G1 X3.117
N2765 G3 X4.432 Y25.733 R1.503
N2770 G0 Z1.3
N2775 X14.631 Y15.526
N2780 G1 Z-0.3 F17.
N2785 G3 X12.386 Y13.842 R1.403 F51.
N2790 X14.631 Y15.526 R1.403
N2795 G1 Z-0.6 F17.
N2800 G3 X12.386 Y13.842 R1.403 F51.
N2805 X14.631 Y15.526 R1.403
N2810 G1 Z-0.9 F17.
N2815 G3 X12.386 Y13.842 R1.403 F51.
N2820 X14.631 Y15.526 R1.403
N2825 G1 Z-1.1 F17.
N2830 G3 X12.386 Y13.842 R1.403 F51.
N2835 X14.631 Y15.526 R1.403
N2840 G0 Z1.3
N2845 X24.062 Y15.459
N2850 G1 Z-0.3 F17.
N2855 X24.063 Y15.456 F51.
N2860 G2 X25.298 Y13.982 R1.497
N2865 G3 X27.948 Y11. R3.003
N2870 G2 X28.298 Y10.606 R0.397
N2875 G1 Y-6.398
N2880 G2 X27.948 Y-6.793 R0.397
N2885 G3 X25.298 Y-9.775 R3.003
N2890 G2 Y-9.792 R1.497
N2895 X24.063 Y-11.249 R1.497
N2900 G1 X24.062 Y-11.255
N2905 G3 X25.304 Y-9.775 R1.503
N2910 G2 X31.298 R2.997
N2915 G3 X32.54 Y-11.255 R1.503
N2920 G1 Y-11.249
N2925 G2 X31.304 Y-9.775 R1.497
N2930 G3 X28.654 Y-6.793 R3.003
N2935 G2 X28.304 Y-6.398 R0.397
N2940 G1 Y10.606
N2945 G2 X28.654 Y11. R0.397
N2950 G3 X31.304 Y13.982 R3.003
N2955 G2 X32.54 Y15.456 R1.497
N2960 G1 Y15.463
N2965 G3 X31.298 Y13.982 R1.503
N2970 G2 X25.304 R2.997
N2975 G3 X24.062 Y15.463 R1.503
N2980 G1 Y15.459
N2985 Z-0.6 F17.
N2990 X24.063 Y15.456 F51.
N2995 G2 X25.298 Y13.982 R1.497
N3000 G3 X27.948 Y11. R3.003
N3005 G2 X28.298 Y10.606 R0.397
N3010 G1 Y-6.398
N3015 G2 X27.948 Y-6.793 R0.397
N3020 G3 X25.298 Y-9.775 R3.003
N3025 G2 Y-9.792 R1.497
N3030 X24.063 Y-11.249 R1.497
N3035 G1 X24.062 Y-11.255
N3040 G3 X25.304 Y-9.775 R1.503
N3045 G2 X31.298 R2.997
N3050 G3 X32.54 Y-11.255 R1.503
N3055 G1 Y-11.249
N3060 G2 X31.304 Y-9.775 R1.497
N3065 G3 X28.654 Y-6.793 R3.003
N3070 G2 X28.304 Y-6.398 R0.397
N3075 G1 Y10.606
N3080 G2 X28.654 Y11. R0.397
N3085 G3 X31.304 Y13.982 R3.003
N3090 G2 X32.54 Y15.456 R1.497
N3095 G1 Y15.463
N3100 G3 X31.298 Y13.982 R1.503
N3105 G2 X25.304 R2.997
N3110 G3 X24.062 Y15.463 R1.503
N3115 G1 Y15.459
N3120 Z-0.9 F17.
N3125 X24.063 Y15.456 F51.
N3130 G2 X25.298 Y13.982 R1.497
N3135 G3 X27.948 Y11. R3.003
N3140 G2 X28.298 Y10.606 R0.397
N3145 G1 Y-6.398
N3150 G2 X27.948 Y-6.793 R0.397
N3155 G3 X25.298 Y-9.775 R3.003
N3160 G2 Y-9.792 R1.497
N3165 X24.063 Y-11.249 R1.497
N3170 G1 X24.062 Y-11.255
N3175 G3 X25.304 Y-9.775 R1.503
N3180 G2 X31.298 R2.997
N3185 G3 X32.54 Y-11.255 R1.503
N3190 G1 Y-11.249
N3195 G2 X31.304 Y-9.775 R1.497
N3200 G3 X28.654 Y-6.793 R3.003
N3205 G2 X28.304 Y-6.398 R0.397
N3210 G1 Y10.606
N3215 G2 X28.654 Y11. R0.397
N3220 G3 X31.304 Y13.982 R3.003
N3225 G2 X32.54 Y15.456 R1.497
N3230 G1 Y15.463
N3235 G3 X31.298 Y13.982 R1.503
N3240 G2 X25.304 R2.997
N3245 G3 X24.062 Y15.463 R1.503
N3250 G1 Y15.459
N3255 Z-1.1 F17.
N3260 X24.063 Y15.456 F51.
N3265 G2 X25.298 Y13.982 R1.497
N3270 G3 X27.948 Y11. R3.003
N3275 G2 X28.298 Y10.606 R0.397
N3280 G1 Y-6.398
N3285 G2 X27.948 Y-6.793 R0.397
N3290 G3 X25.298 Y-9.775 R3.003
N3295 G2 Y-9.792 R1.497
N3300 X24.063 Y-11.249 R1.497
N3305 G1 X24.062 Y-11.255
N3310 G3 X25.304 Y-9.775 R1.503
N3315 G2 X31.298 R2.997
N3320 G3 X32.54 Y-11.255 R1.503
N3325 G1 Y-11.249
N3330 G2 X31.304 Y-9.775 R1.497
N3335 G3 X28.654 Y-6.793 R3.003
N3340 G2 X28.304 Y-6.398 R0.397
N3345 G1 Y10.606
N3350 G2 X28.654 Y11. R0.397
N3355 G3 X31.304 Y13.982 R3.003
N3360 G2 X32.54 Y15.456 R1.497
N3365 G1 Y15.463
N3370 G3 X31.298 Y13.982 R1.503
N3375 G2 X25.304 R2.997
N3380 G3 X24.062 Y15.463 R1.503
N3385 G1 Y15.459
N3390 G0 Z1.3
N3395 X36.706 Y15.577
N3400 G1 Z-0.3 F17.
N3405 G3 X35.585 Y15.389 R0.568 F51.
N3410 X36.706 Y15.577 R0.568
N3415 G1 Z-0.6 F17.
N3420 G3 X35.585 Y15.389 R0.568 F51.
N3425 X36.706 Y15.577 R0.568
N3430 G1 Z-0.9 F17.
N3435 G3 X35.585 Y15.389 R0.568 F51.
N3440 X36.706 Y15.577 R0.568
N3445 G1 Z-1.1 F17.
N3450 G3 X35.585 Y15.389 R0.568 F51.
N3455 X36.706 Y15.577 R0.568
N3460 G0 Z1.3
N3465 X45.697 Y3.884
N3470 G1 Z-0.3 F17.
N3475 Y9.488 F51.
N3480 X34.491
N3485 Y-5.459
N3490 X45.697
N3495 Y3.884
N3500 Z-0.6 F17.
N3505 Y9.488 F51.
N3510 X34.491
N3515 Y-5.459
N3520 X45.697
N3525 Y3.884
N3530 Z-0.9 F17.
N3535 Y9.488 F51.
N3540 X34.491
N3545 Y-5.459
N3550 X45.697
N3555 Y3.884
N3560 Z-1.1 F17.
N3565 Y9.488 F51.
N3570 X34.491
N3575 Y-5.459
N3580 X45.697
N3585 Y3.884
N3590 G0 Z1.3
N3595 X42.256 Y-15.143
N3600 G1 Z-0.3 F17.
N3605 G3 X41.131 Y-15.304 R0.568 F51.
N3610 X42.256 Y-15.143 R0.568
N3615 G1 Z-0.6 F17.
N3620 G3 X41.131 Y-15.304 R0.568 F51.
N3625 X42.256 Y-15.143 R0.568
N3630 G1 Z-0.9 F17.
N3635 G3 X41.131 Y-15.304 R0.568 F51.
N3640 X42.256 Y-15.143 R0.568
N3645 G1 Z-1.1 F17.
N3650 G3 X41.131 Y-15.304 R0.568 F51.
N3655 X42.256 Y-15.143 R0.568
N3660 G0 Z1.3
N3665 X20.984 Y-13.095
N3670 G1 Z-0.3 F17.
N3675 X20.981 F51.
N3680 G2 X19.552 Y-14.146 R1.497
N3685 G3 X16.57 Y-16.796 R3.003
N3690 G2 X16.176 Y-17.146 R0.397
N3695 G1 X7.929
N3700 G2 X7.535 Y-16.796 R0.397
N3705 G3 X4.552 Y-14.146 R3.003
N3710 G2 X3.123 Y-13.095 R1.497
N3715 G1 X3.117 Y-13.096
N3720 G3 X4.552 Y-14.152 R1.503
N3725 G2 Y-20.146 R2.997
N3730 G3 X3.117 Y-21.203 R1.503
N3735 G1 X3.123
N3740 G2 X4.552 Y-20.152 R1.497
N3745 G3 X7.535 Y-17.503 R3.003
N3750 G2 X7.929 Y-17.152 R0.397
N3755 G1 X16.176
N3760 G2 X16.57 Y-17.503 R0.397
N3765 G3 X19.552 Y-20.152 R3.003
N3770 G2 X20.981 Y-21.203 R1.497
N3775 G1 X20.988
N3780 G3 X19.552 Y-20.146 R1.503
N3785 G2 Y-14.152 R2.997
N3790 G3 X20.988 Y-13.096 R1.503
N3795 G1 X20.984 Y-13.095
N3800 Z-0.6 F17.
N3805 X20.981 F51.
N3810 G2 X19.552 Y-14.146 R1.497
N3815 G3 X16.57 Y-16.796 R3.003
N3820 G2 X16.176 Y-17.146 R0.397
N3825 G1 X7.929
N3830 G2 X7.535 Y-16.796 R0.397
N3835 G3 X4.552 Y-14.146 R3.003
N3840 G2 X3.123 Y-13.095 R1.497
N3845 G1 X3.117 Y-13.096
N3850 G3 X4.552 Y-14.152 R1.503
N3855 G2 Y-20.146 R2.997
N3860 G3 X3.117 Y-21.203 R1.503
N3865 G1 X3.123
N3870 G2 X4.552 Y-20.152 R1.497
N3875 G3 X7.535 Y-17.503 R3.003
N3880 G2 X7.929 Y-17.152 R0.397
N3885 G1 X16.176
N3890 G2 X16.57 Y-17.503 R0.397
N3895 G3 X19.552 Y-20.152 R3.003
N3900 G2 X20.981 Y-21.203 R1.497
N3905 G1 X20.988
N3910 G3 X19.552 Y-20.146 R1.503
N3915 G2 Y-14.152 R2.997
N3920 G3 X20.988 Y-13.096 R1.503
N3925 G1 X20.984 Y-13.095
N3930 Z-0.9 F17.
N3935 X20.981 F51.
N3940 G2 X19.552 Y-14.146 R1.497
N3945 G3 X16.57 Y-16.796 R3.003
N3950 G2 X16.176 Y-17.146 R0.397
N3955 G1 X7.929
N3960 G2 X7.535 Y-16.796 R0.397
N3965 G3 X4.552 Y-14.146 R3.003
N3970 G2 X3.123 Y-13.095 R1.497
N3975 G1 X3.117 Y-13.096
N3980 G3 X4.552 Y-14.152 R1.503
N3985 G2 Y-20.146 R2.997
N3990 G3 X3.117 Y-21.203 R1.503
N3995 G1 X3.123
N4000 G2 X4.552 Y-20.152 R1.497
N4005 G3 X7.535 Y-17.503 R3.003
N4010 G2 X7.929 Y-17.152 R0.397
N4015 G1 X16.176
N4020 G2 X16.57 Y-17.503 R0.397
N4025 G3 X19.552 Y-20.152 R3.003
N4030 G2 X20.981 Y-21.203 R1.497
N4035 G1 X20.988
N4040 G3 X19.552 Y-20.146 R1.503
N4045 G2 Y-14.152 R2.997
N4050 G3 X20.988 Y-13.096 R1.503
N4055 G1 X20.984 Y-13.095
N4060 Z-1.1 F17.
N4065 X20.981 F51.
N4070 G2 X19.552 Y-14.146 R1.497
N4075 G3 X16.57 Y-16.796 R3.003
N4080 G2 X16.176 Y-17.146 R0.397
N4085 G1 X7.929
N4090 G2 X7.535 Y-16.796 R0.397
N4095 G3 X4.552 Y-14.146 R3.003
N4100 G2 X3.123 Y-13.095 R1.497
N4105 G1 X3.117 Y-13.096
N4110 G3 X4.552 Y-14.152 R1.503
N4115 G2 Y-20.146 R2.997
N4120 G3 X3.117 Y-21.203 R1.503
N4125 G1 X3.123
N4130 G2 X4.552 Y-20.152 R1.497
N4135 G3 X7.535 Y-17.503 R3.003
N4140 G2 X7.929 Y-17.152 R0.397
N4145 G1 X16.176
N4150 G2 X16.57 Y-17.503 R0.397
N4155 G3 X19.552 Y-20.152 R3.003
N4160 G2 X20.981 Y-21.203 R1.497
N4165 G1 X20.988
N4170 G3 X19.552 Y-20.146 R1.503
N4175 G2 Y-14.152 R2.997
N4180 G3 X20.988 Y-13.096 R1.503
N4185 G1 X20.984 Y-13.095
N4190 G0 Z1.3
N4195 X14.902 Y-10.888
N4200 G1 Z-0.3 F17.
N4205 G3 X12.096 Y-10.887 R1.403 F51.
N4210 X14.902 Y-10.888 R1.403
N4215 G1 Z-0.6 F17.
N4220 G3 X12.096 Y-10.887 R1.403 F51.
N4225 X14.902 Y-10.888 R1.403
N4230 G1 Z-0.9 F17.
N4235 G3 X12.096 Y-10.887 R1.403 F51.
N4240 X14.902 Y-10.888 R1.403
N4245 G1 Z-1.1 F17.
N4250 G3 X12.096 Y-10.887 R1.403 F51.
N4255 X14.902 Y-10.888 R1.403
N4260 G0 Z1.3
N4265 X-4.048 Y-17.152
N4270 G1 Z-0.3 F17.
N4275 X4.155 F51.
N4280 Y-17.146
N4285 X-4.051
N4290 Y-17.152
N4295 X-4.048
N4300 Z-0.6 F17.
N4305 X4.155 F51.
N4310 Y-17.146
N4315 X-4.051
N4320 Y-17.152
N4325 X-4.048
N4330 Z-0.9 F17.
N4335 X4.155 F51.
N4340 Y-17.146
N4345 X-4.051
N4350 Y-17.152
N4355 X-4.048
N4360 Z-1.1 F17.
N4365 X4.155 F51.
N4370 Y-17.146
N4375 X-4.051
N4380 Y-17.152
N4385 X-4.048
N4390 G0 Z1.3
N4395 X-39.343 Y-25.66
N4400 G1 Z-0.3 F17.
N4405 G3 X-40.48 R0.568 F51.
N4410 X-39.343 R0.568
N4415 G1 Z-0.6 F17.
N4420 G3 X-40.48 R0.568 F51.
N4425 X-39.343 R0.568
N4430 G1 Z-0.9 F17.
N4435 G3 X-40.48 R0.568 F51.
N4440 X-39.343 R0.568
N4445 G1 Z-1.1 F17.
N4450 G3 X-40.48 R0.568 F51.
N4455 X-39.343 R0.568
N4460 G0 Z1.3
N4465 X-41.187 Y-14.822
N4470 G1 Z-0.3 F17.
N4475 G3 X-41.991 Y-15.625 R0.568 F51.
N4480 X-41.187 Y-14.822 R0.568
N4485 G1 Z-0.6 F17.
N4490 G3 X-41.991 Y-15.625 R0.568 F51.
N4495 X-41.187 Y-14.822 R0.568
N4500 G1 Z-0.9 F17.
N4505 G3 X-41.991 Y-15.625 R0.568 F51.
N4510 X-41.187 Y-14.822 R0.568
N4515 G1 Z-1.1 F17.
N4520 G3 X-41.991 Y-15.625 R0.568 F51.
N4525 X-41.187 Y-14.822 R0.568
N4530 G0 Z1.3
N4535 X37.001 Y30.977
N4540 G1 Z-0.3 F17.
N4545 G3 X36.198 Y30.174 R0.568 F51.
N4550 X37.001 Y30.977 R0.568
N4555 G1 Z-0.6 F17.
N4560 G3 X36.198 Y30.174 R0.568 F51.
N4565 X37.001 Y30.977 R0.568
N4570 G1 Z-0.9 F17.
N4575 G3 X36.198 Y30.174 R0.568 F51.
N4580 X37.001 Y30.977 R0.568
N4585 G1 Z-1.1 F17.
N4590 G3 X36.198 Y30.174 R0.568 F51.
N4595 X37.001 Y30.977 R0.568
N4600 G0 Z11.

(2D CONTOUR2)
N4610 M8
N4615 G0 X-25.739 Y-17.279
N4620 Z11.
N4625 Z1.3
N4630 G1 Z-0.3 F17.
N4635 G2 X-25.448 Y-17.152 R0.397 F51.
N4640 G1 X-19.845
N4645 Y-17.146
N4650 X-25.797
N4655 G2 X-28.193 Y-14.749 R2.397
N4660 G1 Y-10.172
N4665 X-28.2
N4670 Y-13.775
N4675 G2 X-30.597 Y-16.172 R2.397
N4680 G1 X-30.971
N4685 X-31.861 Y-17.061
N4690 G2 X-35.677 Y-18.642 R5.397
N4695 G1 X-39.995
N4700 G3 X-40.108 Y-18.643 R5.397
N4705 G2 X-39.995 Y-18.642 R5.397
N4710 G1 X-29.747
N4715 G2 X-29.35 Y-19.038 R0.397
N4720 G1 Y-23.263
N4725 X-29.143
N4730 Y-19.038
N4735 G2 X-28.747 Y-18.642 R0.397
N4740 G1 X-25.845
N4745 Y-17.549
N4750 G2 X-25.739 Y-17.279 R0.397
N4755 G1 Z-0.6 F17.
N4760 G2 X-25.448 Y-17.152 R0.397 F51.
N4765 G1 X-19.845
N4770 Y-17.146
N4775 X-25.797
N4780 G2 X-28.193 Y-14.749 R2.397
N4785 G1 Y-10.172
N4790 X-28.2
N4795 Y-13.775
N4800 G2 X-30.597 Y-16.172 R2.397
N4805 G1 X-30.971
N4810 X-31.861 Y-17.061
N4815 G2 X-35.677 Y-18.642 R5.397
N4820 G1 X-39.995
N4825 G3 X-40.108 Y-18.643 R5.397
N4830 G2 X-39.995 Y-18.642 R5.397
N4835 G1 X-29.747
N4840 G2 X-29.35 Y-19.038 R0.397
N4845 G1 Y-23.263
N4850 X-29.143
N4855 Y-19.038
N4860 G2 X-28.747 Y-18.642 R0.397
N4865 G1 X-25.845
N4870 Y-17.549
N4875 G2 X-25.739 Y-17.279 R0.397
N4880 G1 Z-0.7 F17.
N4885 G2 X-25.448 Y-17.152 R0.397 F51.
N4890 G1 X-19.845
N4895 Y-17.146
N4900 X-25.797
N4905 G2 X-28.193 Y-14.749 R2.397
N4910 G1 Y-10.172
N4915 X-28.2
N4920 Y-13.775
N4925 G2 X-30.597 Y-16.172 R2.397
N4930 G1 X-30.971
N4935 X-31.861 Y-17.061
N4940 G2 X-35.677 Y-18.642 R5.397
N4945 G1 X-39.995
N4950 G3 X-40.108 Y-18.643 R5.397
N4955 G2 X-39.995 Y-18.642 R5.397
N4960 G1 X-29.747
N4965 G2 X-29.35 Y-19.038 R0.397
N4970 G1 Y-23.263
N4975 X-29.143
N4980 Y-19.038
N4985 G2 X-28.747 Y-18.642 R0.397
N4990 G1 X-25.845
N4995 Y-17.549
N5000 G2 X-25.739 Y-17.279 R0.397
N5005 G0 Z1.3
N5010 X-28.193 Y20.331
N5015 G1 Z-0.3 F17.
N5020 G2 X-25.797 Y22.728 R2.397 F51.
N5025 G1 X-19.845
N5030 Y22.735
N5035 X-23.448
N5040 G2 X-25.845 Y25.131 R2.397
N5045 G1 Y25.274
N5050 X-28.747
N5055 G2 X-29.143 Y25.671 R0.397
N5060 G1 Y28.679
N5065 X-29.35
N5070 Y25.671
N5075 G2 X-29.747 Y25.274 R0.397
N5080 G1 X-35.995
N5085 G2 X-41.391 Y30.568 R5.397
N5090 Y30.583 R0.397
N5095 X-35.995 Y35.877 R5.397
N5100 G1 X-29.747
N5105 G2 X-29.35 Y35.48 R0.397
N5110 G1 Y32.472
N5115 X-29.143
N5120 Y35.48
N5125 G2 X-28.747 Y35.877 R0.397
N5130 G1 X28.851
N5135 G2 X29.248 Y35.48 R0.397
N5140 G1 Y32.472
N5145 X29.454
N5150 Y35.48
N5155 G2 X29.851 Y35.877 R0.397
N5160 G1 X36.1
N5165 G2 X41.496 Y30.583 R5.397
N5170 Y30.568 R0.397
N5175 X36.1 Y25.274 R5.397
N5180 G1 X29.851
N5185 G2 X29.454 Y25.671 R0.397
N5190 G1 Y28.679
N5195 X29.248
N5200 Y25.671
N5205 G2 X28.851 Y25.274 R0.397
N5210 G1 X25.949
N5215 Y25.131
N5220 G2 X23.552 Y22.735 R2.397
N5225 G1 X19.949
N5230 Y22.728
N5235 X25.901
N5240 G2 X28.298 Y20.331 R2.397
N5245 G1 Y14.379
N5250 X28.304
N5255 Y17.983
N5260 G2 X30.701 Y20.379 R2.397
N5265 G1 X41.979
N5270 G2 X45.795 Y18.799 R5.397
N5275 G1 X61.902 Y2.692
N5280 G2 Y-4.94 R5.397
N5285 G1 X48.675 Y-18.167
N5290 G2 X42.52 Y-19.214 R5.397
N5295 X45.497 Y-24.038 R5.397
N5300 G1 Y-27.281
N5305 G2 X40.1 Y-32.678 R5.397
N5310 G1 X29.851
N5315 G2 X29.454 Y-32.281 R0.397
N5320 G1 Y-28.057
N5325 X29.248
N5330 Y-32.281
N5335 G2 X28.851 Y-32.678 R0.397
N5340 G1 X-28.747
N5345 G2 X-29.143 Y-32.281 R0.397
N5350 G1 Y-28.057
N5355 X-29.35
N5360 Y-32.281
N5365 G2 X-29.747 Y-32.678 R0.397
N5370 G1 X-39.995
N5375 G2 X-45.392 Y-27.281 R5.397
N5380 G1 Y-24.038
N5385 G2 X-42.415 Y-19.214 R5.397
N5390 X-48.571 Y-18.167 R5.397
N5395 G1 X-61.797 Y-4.94
N5400 G2 Y2.692 R5.397
N5405 G1 X-45.691 Y18.799
N5410 G2 X-41.875 Y20.379 R5.397
N5415 G1 X-30.597
N5420 G2 X-28.2 Y17.983 R2.397
N5425 G1 Y14.379
N5430 X-28.193
N5435 Y20.331
N5440 Z-0.6 F17.
N5445 G2 X-25.797 Y22.728 R2.397 F51.
N5450 G1 X-19.845
N5455 Y22.735
N5460 X-23.448
N5465 G2 X-25.845 Y25.131 R2.397
N5470 G1 Y25.274
N5475 X-28.747
N5480 G2 X-29.143 Y25.671 R0.397
N5485 G1 Y28.679
N5490 X-29.35
N5495 Y25.671
N5500 G2 X-29.747 Y25.274 R0.397
N5505 G1 X-35.995
N5510 G2 X-41.391 Y30.568 R5.397
N5515 Y30.583 R0.397
N5520 X-35.995 Y35.877 R5.397
N5525 G1 X-29.747
N5530 G2 X-29.35 Y35.48 R0.397
N5535 G1 Y32.472
N5540 X-29.143
N5545 Y35.48
N5550 G2 X-28.747 Y35.877 R0.397
N5555 G1 X28.851
N5560 G2 X29.248 Y35.48 R0.397
N5565 G1 Y32.472
N5570 X29.454
N5575 Y35.48
N5580 G2 X29.851 Y35.877 R0.397
N5585 G1 X36.1
N5590 G2 X41.496 Y30.583 R5.397
N5595 Y30.568 R0.397
N5600 X36.1 Y25.274 R5.397
N5605 G1 X29.851
N5610 G2 X29.454 Y25.671 R0.397
N5615 G1 Y28.679
N5620 X29.248
N5625 Y25.671
N5630 G2 X28.851 Y25.274 R0.397
N5635 G1 X25.949
N5640 Y25.131
N5645 G2 X23.552 Y22.735 R2.397
N5650 G1 X19.949
N5655 Y22.728
N5660 X25.901
N5665 G2 X28.298 Y20.331 R2.397
N5670 G1 Y14.379
N5675 X28.304
N5680 Y17.983
N5685 G2 X30.701 Y20.379 R2.397
N5690 G1 X41.979
N5695 G2 X45.795 Y18.799 R5.397
N5700 G1 X61.902 Y2.692
N5705 G2 Y-4.94 R5.397
N5710 G1 X48.675 Y-18.167
N5715 G2 X42.52 Y-19.214 R5.397
N5720 X45.497 Y-24.038 R5.397
N5725 G1 Y-27.281
N5730 G2 X40.1 Y-32.678 R5.397
N5735 G1 X29.851
N5740 G2 X29.454 Y-32.281 R0.397
N5745 G1 Y-28.057
N5750 X29.248
N5755 Y-32.281
N5760 G2 X28.851 Y-32.678 R0.397
N5765 G1 X-28.747
N5770 G2 X-29.143 Y-32.281 R0.397
N5775 G1 Y-28.057
N5780 X-29.35
N5785 Y-32.281
N5790 G2 X-29.747 Y-32.678 R0.397
N5795 G1 X-39.995
N5800 G2 X-45.392 Y-27.281 R5.397
N5805 G1 Y-24.038
N5810 G2 X-42.415 Y-19.214 R5.397
N5815 X-48.571 Y-18.167 R5.397
N5820 G1 X-61.797 Y-4.94
N5825 G2 Y2.692 R5.397
N5830 G1 X-45.691 Y18.799
N5835 G2 X-41.875 Y20.379 R5.397
N5840 G1 X-30.597
N5845 G2 X-28.2 Y17.983 R2.397
N5850 G1 Y14.379
N5855 X-28.193
N5860 Y20.331
N5865 Z-0.7 F17.
N5870 G2 X-25.797 Y22.728 R2.397 F51.
N5875 G1 X-19.845
N5880 Y22.735
N5885 X-23.448
N5890 G2 X-25.845 Y25.131 R2.397
N5895 G1 Y25.274
N5900 X-28.747
N5905 G2 X-29.143 Y25.671 R0.397
N5910 G1 Y28.679
N5915 X-29.35
N5920 Y25.671
N5925 G2 X-29.747 Y25.274 R0.397
N5930 G1 X-35.995
N5935 G2 X-41.391 Y30.568 R5.397
N5940 Y30.583 R0.397
N5945 X-35.995 Y35.877 R5.397
N5950 G1 X-29.747
N5955 G2 X-29.35 Y35.48 R0.397
N5960 G1 Y32.472
N5965 X-29.143
N5970 Y35.48
N5975 G2 X-28.747 Y35.877 R0.397
N5980 G1 X28.851
N5985 G2 X29.248 Y35.48 R0.397
N5990 G1 Y32.472
N5995 X29.454
N6000 Y35.48
N6005 G2 X29.851 Y35.877 R0.397
N6010 G1 X36.1
N6015 G2 X41.496 Y30.583 R5.397
N6020 Y30.568 R0.397
N6025 X36.1 Y25.274 R5.397
N6030 G1 X29.851
N6035 G2 X29.454 Y25.671 R0.397
N6040 G1 Y28.679
N6045 X29.248
N6050 Y25.671
N6055 G2 X28.851 Y25.274 R0.397
N6060 G1 X25.949
N6065 Y25.131
N6070 G2 X23.552 Y22.735 R2.397
N6075 G1 X19.949
N6080 Y22.728
N6085 X25.901
N6090 G2 X28.298 Y20.331 R2.397
N6095 G1 Y14.379
N6100 X28.304
N6105 Y17.983
N6110 G2 X30.701 Y20.379 R2.397
N6115 G1 X41.979
N6120 G2 X45.795 Y18.799 R5.397
N6125 G1 X61.902 Y2.692
N6130 G2 Y-4.94 R5.397
N6135 G1 X48.675 Y-18.167
N6140 G2 X42.52 Y-19.214 R5.397
N6145 X45.497 Y-24.038 R5.397
N6150 G1 Y-27.281
N6155 G2 X40.1 Y-32.678 R5.397
N6160 G1 X29.851
N6165 G2 X29.454 Y-32.281 R0.397
N6170 G1 Y-28.057
N6175 X29.248
N6180 Y-32.281
N6185 G2 X28.851 Y-32.678 R0.397
N6190 G1 X-28.747
N6195 G2 X-29.143 Y-32.281 R0.397
N6200 G1 Y-28.057
N6205 X-29.35
N6210 Y-32.281
N6215 G2 X-29.747 Y-32.678 R0.397
N6220 G1 X-39.995
N6225 G2 X-45.392 Y-27.281 R5.397
N6230 G1 Y-24.038
N6235 G2 X-42.415 Y-19.214 R5.397
N6240 X-48.571 Y-18.167 R5.397
N6245 G1 X-61.797 Y-4.94
N6250 G2 Y2.692 R5.397
N6255 G1 X-45.691 Y18.799
N6260 G2 X-41.875 Y20.379 R5.397
N6265 G1 X-30.597
N6270 G2 X-28.2 Y17.983 R2.397
N6275 G1 Y14.379
N6280 X-28.193
N6285 Y20.331
N6290 G0 Z1.3
N6295 X28.304 Y-10.175
N6300 G1 Z-0.3 F17.
N6305 Y-10.172 F51.
N6310 X28.298
N6315 Y-14.749
N6320 G2 X25.901 Y-17.146 R2.397
N6325 G1 X19.949
N6330 Y-17.152
N6335 X25.552
N6340 G2 X25.949 Y-17.549 R0.397
N6345 G1 Y-18.642
N6350 X28.851
N6355 G2 X29.248 Y-19.038 R0.397
N6360 G1 Y-23.263
N6365 X29.454
N6370 Y-19.038
N6375 G2 X29.851 Y-18.642 R0.397
N6380 G1 X40.1
N6385 G2 X40.212 Y-18.643 R5.397
N6390 G3 X40.1 Y-18.642 R5.397
N6395 G1 X35.781
N6400 G2 X31.965 Y-17.061 R5.397
N6405 G1 X31.076 Y-16.172
N6410 X30.701
N6415 G2 X28.304 Y-13.775 R2.397
N6420 G1 Y-10.175
N6425 Z-0.6 F17.
N6430 Y-10.172 F51.
N6435 X28.298
N6440 Y-14.749
N6445 G2 X25.901 Y-17.146 R2.397
N6450 G1 X19.949
N6455 Y-17.152
N6460 X25.552
N6465 G2 X25.949 Y-17.549 R0.397
N6470 G1 Y-18.642
N6475 X28.851
N6480 G2 X29.248 Y-19.038 R0.397
N6485 G1 Y-23.263
N6490 X29.454
N6495 Y-19.038
N6500 G2 X29.851 Y-18.642 R0.397
N6505 G1 X40.1
N6510 G2 X40.212 Y-18.643 R5.397
N6515 G3 X40.1 Y-18.642 R5.397
N6520 G1 X35.781
N6525 G2 X31.965 Y-17.061 R5.397
N6530 G1 X31.076 Y-16.172
N6535 X30.701
N6540 G2 X28.304 Y-13.775 R2.397
N6545 G1 Y-10.175
N6550 Z-0.7 F17.
N6555 Y-10.172 F51.
N6560 X28.298
N6565 Y-14.749
N6570 G2 X25.901 Y-17.146 R2.397
N6575 G1 X19.949
N6580 Y-17.152
N6585 X25.552
N6590 G2 X25.949 Y-17.549 R0.397
N6595 G1 Y-18.642
N6600 X28.851
N6605 G2 X29.248 Y-19.038 R0.397
N6610 G1 Y-23.263
N6615 X29.454
N6620 Y-19.038
N6625 G2 X29.851 Y-18.642 R0.397
N6630 G1 X40.1
N6635 G2 X40.212 Y-18.643 R5.397
N6640 G3 X40.1 Y-18.642 R5.397
N6645 G1 X35.781
N6650 G2 X31.965 Y-17.061 R5.397
N6655 G1 X31.076 Y-16.172
N6660 X30.701
N6665 G2 X28.304 Y-13.775 R2.397
N6670 G1 Y-10.175
N6675 G0 Z11.

(2D CONTOUR3)
N6685 M8
N6690 G0 X-25.739 Y-17.279
N6695 Z11.
N6700 Z1.
N6705 G1 Z-1.1 F17.
N6710 G2 X-25.448 Y-17.152 R0.397 F51.
N6715 G1 X-19.845
N6720 Y-17.146
N6725 X-25.797
N6730 G2 X-28.193 Y-14.749 R2.397
N6735 G1 Y-10.172
N6740 X-28.2
N6745 Y-13.775
N6750 G2 X-30.597 Y-16.172 R2.397
N6755 G1 X-30.971
N6760 X-31.861 Y-17.061
N6765 G2 X-35.677 Y-18.642 R5.397
N6770 G1 X-39.995
N6775 G3 X-40.108 Y-18.643 R5.397
N6780 G2 X-39.995 Y-18.642 R5.397
N6785 G1 X-29.747
N6790 G2 X-29.35 Y-19.038 R0.397
N6795 G1 Y-23.263
N6800 X-29.143
N6805 Y-19.038
N6810 G2 X-28.747 Y-18.642 R0.397
N6815 G1 X-25.845
N6820 Y-17.549
N6825 G2 X-25.739 Y-17.279 R0.397
N6830 G0 Z1.
N6835 X-59.676 Y4.813
N6840 G1 Z-1.1 F17.
N6845 X-45.691 Y18.799 F51.
N6850 G2 X-41.875 Y20.379 R5.397
N6855 G1 X-30.597
N6860 G2 X-28.2 Y17.983 R2.397
N6865 G1 Y14.379
N6870 X-28.193
N6875 Y20.331
N6880 G2 X-25.797 Y22.728 R2.397
N6885 G1 X-19.845
N6890 Y22.735
N6895 X-23.448
N6900 G2 X-25.845 Y25.131 R2.397
N6905 G1 Y25.274
N6910 X-28.747
N6915 G2 X-29.143 Y25.671 R0.397
N6920 G1 Y28.679
N6925 X-29.35
N6930 Y25.671
N6935 G2 X-29.747 Y25.274 R0.397
N6940 G1 X-35.995
N6945 G2 X-41.391 Y30.568 R5.397
N6950 Y30.583 R0.397
N6955 X-35.995 Y35.877 R5.397
N6960 G1 X-29.747
N6965 G2 X-29.35 Y35.48 R0.397
N6970 G1 Y32.472
N6975 X-29.143
N6980 Y35.48
N6985 G2 X-28.747 Y35.877 R0.397
N6990 G1 X28.851
N6995 G2 X29.248 Y35.48 R0.397
N7000 G1 Y32.472
N7005 X29.454
N7010 Y35.48
N7015 G2 X29.851 Y35.877 R0.397
N7020 G1 X36.1
N7025 G2 X41.496 Y30.583 R5.397
N7030 Y30.568 R0.397
N7035 X36.1 Y25.274 R5.397
N7040 G1 X29.851
N7045 G2 X29.454 Y25.671 R0.397
N7050 G1 Y28.679
N7055 X29.248
N7060 Y25.671
N7065 G2 X28.851 Y25.274 R0.397
N7070 G1 X25.949
N7075 Y25.131
N7080 G2 X23.552 Y22.735 R2.397
N7085 G1 X19.949
N7090 Y22.728
N7095 X25.901
N7100 G2 X28.298 Y20.331 R2.397
N7105 G1 Y14.379
N7110 X28.304
N7115 Y17.983
N7120 G2 X30.701 Y20.379 R2.397
N7125 G1 X41.979
N7130 G2 X45.795 Y18.799 R5.397
N7135 G1 X59.78 Y4.813
N7140 G0 Z1.
N7145 Y-7.062
N7150 G1 Z-1.1 F17.
N7155 X48.675 Y-18.167 F51.
N7160 G2 X42.52 Y-19.214 R5.397
N7165 X45.497 Y-24.038 R5.397
N7170 G1 Y-27.281
N7175 G2 X40.1 Y-32.678 R5.397
N7180 G1 X29.851
N7185 G2 X29.454 Y-32.281 R0.397
N7190 G1 Y-28.057
N7195 X29.248
N7200 Y-32.281
N7205 G2 X28.851 Y-32.678 R0.397
N7210 G1 X-28.747
N7215 G2 X-29.143 Y-32.281 R0.397
N7220 G1 Y-28.057
N7225 X-29.35
N7230 Y-32.281
N7235 G2 X-29.747 Y-32.678 R0.397
N7240 G1 X-39.995
N7245 G2 X-45.392 Y-27.281 R5.397
N7250 G1 Y-24.038
N7255 G2 X-42.415 Y-19.214 R5.397
N7260 X-48.571 Y-18.167 R5.397
N7265 G1 X-59.676 Y-7.062
N7270 G0 Z1.
N7275 X25.949 Y-17.549
N7280 G1 Z-1.1 F17.
N7285 Y-18.642 F51.
N7290 X28.851
N7295 G2 X29.248 Y-19.038 R0.397
N7300 G1 Y-23.263
N7305 X29.454
N7310 Y-19.038
N7315 G2 X29.851 Y-18.642 R0.397
N7320 G1 X40.1
N7325 G2 X40.212 Y-18.643 R5.397
N7330 G3 X40.1 Y-18.642 R5.397
N7335 G1 X35.781
N7340 G2 X31.965 Y-17.061 R5.397
N7345 G1 X31.076 Y-16.172
N7350 X30.701
N7355 G2 X28.304 Y-13.775 R2.397
N7360 G1 Y-10.172
N7365 X28.298
N7370 Y-14.749
N7375 G2 X25.901 Y-17.146 R2.397
N7380 G1 X19.949
N7385 Y-17.152
N7390 X25.552
N7395 G2 X25.949 Y-17.549 R0.397
N7400 G0 Z11.

N7410 M9
N7415 M30
